FengTian-Bit/rl_sar_bitter/src/rl_sar/models/bitter/csv_data/csv_rl.csv
joint_tau_cal_0,joint_tau_cal_1,joint_tau_cal_2,joint_tau_cal_3,joint_tau_cal_4,joint_tau_cal_5,joint_tau_cal_6,joint_tau_cal_7,joint_tau_cal_8,joint_tau_cal_9,joint_tau_cal_10,joint_tau_cal_11,joint_tau_cal_12,joint_tau_cal_13,joint_tau_cal_14,joint_tau_cal_15,joint_tau_est_0,joint_tau_est_1,joint_tau_est_2,joint_tau_est_3,joint_tau_est_4,joint_tau_est_5,joint_tau_est_6,joint_tau_est_7,joint_tau_est_8,joint_tau_est_9,joint_tau_est_10,joint_tau_est_11,joint_tau_est_12,joint_tau_est_13,joint_tau_est_14,joint_tau_est_15,joint_pos_0,joint_pos_1,joint_pos_2,joint_pos_4,joint_pos_5,joint_pos_6,joint_pos_8,joint_pos_9,joint_pos_10,joint_pos_12,joint_pos_13,joint_pos_14,joint_pos_target_0,joint_pos_target_1,joint_pos_target_2,joint_pos_target_4,joint_pos_target_5,joint_pos_target_6,joint_pos_target_8,joint_pos_target_9,joint_pos_target_10,joint_pos_target_12,joint_pos_target_13,joint_pos_target_14,joint_vel_3,joint_vel_7,joint_vel_11,joint_vel_15,joint_vel_target_3,joint_vel_target_7,joint_vel_target_11,joint_vel_target_15,
-8.26861,15.832,40.0711,-0.228097,24.7978,2.86271,51.3522,-2.50098,-6.88676,-18.6678,-56.6722,0.149774,9.15666,-23.1983,-67.6121,0.46934,1.14176,7.56929,32.0072,-0.0160069,-0.807514,7.63594,31.6504,-0.0470394,0.907833,-7.4,-32.6771,0.123441,-1.05848,-8.08131,-33.1274,0.19819,-0.00294597,0.766531,-1.64997,0.00196276,0.767024,-1.64969,-0.00218513,-0.767004,1.65223,0.00282673,-0.765307,1.65276,-0.0718172,0.898797,-1.3174,0.208643,0.790446,-1.22189,-0.0596101,-0.92251,1.1801,0.079048,-0.958613,1.08998,0.0279974,0.0245331,-0.0613863,-0.103467,-0.2001,-2.47645,0.0883876,0.365873,
-8.43656,15.906,39.9024,-0.164021,24.4873,2.8794,51.383,-2.49958,-7.06963,-18.6714,-56.5804,0.111753,8.9784,-23.3029,-67.3267,0.395786,-8.26936,15.9037,39.9119,-0.19827,24.7974,2.868,51.3502,-2.50351,-6.88576,-18.6712,-56.6697,0.149593,9.15447,-23.1961,-67.6271,0.474108,-0.00292054,0.766521,-1.64997,0.00200777,0.766999,-1.6497,-0.00216163,-0.767,1.65222,0.00284864,-0.765299,1.65277,-0.0718172,0.898797,-1.3174,0.208643,0.790446,-1.22189,-0.0596101,-0.92251,1.1801,0.079048,-0.958613,1.08998,-0.0360788,0.0231365,-0.0233653,-0.0299121,-0.2001,-2.47645,0.0883876,0.365873,
-11.6238,17.2609,43.46,0.122628,21.3866,6.11555,47.1676,-2.48165,-5.31042,-19.8993,-57.6369,-0.170854,3.12009,-22.8819,-59.9895,-0.301014,-9.98295,15.6386,40.3436,0.0923646,23.0747,3.64511,50.6831,-2.47948,-8.45523,-18.2488,-56.4187,-0.161275,7.58319,-23.1804,-66.1321,-0.108922,-0.0011993,0.766732,-1.65038,0.00376823,0.766154,-1.64907,-0.000605083,-0.767393,1.65199,0.0044156,-0.765254,1.65132,-0.0843791,0.912439,-1.29163,0.195691,0.810488,-1.25071,-0.032383,-0.936531,1.1697,0.0428782,-0.956162,1.14014,-0.3163,-0.00103039,0.272947,0.519512,-0.193672,-2.48268,0.102093,0.218498,
-12.0677,17.053,46.1401,0.535084,17.1684,8.90273,42.0854,-2.12085,-4.76697,-20.4881,-56.3102,-0.630749,-2.65236,-20.9133,-48.6306,-1.03712,-12.9806,17.0578,43.7001,0.511078,20.0376,6.78136,46.5461,-2.26099,-6.54451,-19.4551,-56.9058,-0.588693,1.90279,-22.6939,-58.3594,-0.865032,0.00400282,0.767476,-1.65157,0.00896307,0.763631,-1.64695,0.00414973,-0.768773,1.65063,0.00912288,-0.765554,1.64649,-0.0761802,0.912466,-1.27136,0.172367,0.827848,-1.28758,-0.0170408,-0.945348,1.17421,0.00544636,-0.941414,1.22035,-0.727043,-0.236435,0.714699,1.1132,-0.191958,-2.35728,0.0839507,0.0760774,
-11.2893,17.147,46.3249,0.853458,15.0794,9.57196,39.1321,-1.69441,-2.96252,-20.1187,-52.3929,-1.08592,-4.52162,-19.446,-41.1223,-1.6212,-12.391,17.0601,45.9557,0.847675,16.8551,9.14735,41.7971,-1.78837,-4.98671,-20.1714,-55.2796,-1.03205,-2.86228,-20.5885,-47.4045,-1.4085,0.00961215,0.768206,-1.65244,0.0145402,0.760789,-1.64439,0.00917438,-0.770638,1.64759,0.0140935,-0.766337,1.63972,-0.0669166,0.913152,-1.26816,0.157649,0.831276,-1.30966,-0.000155872,-0.945051,1.19768,-0.00836619,-0.932077,1.27207,-1.05418,-0.588703,1.1389,1.505,-0.200725,-2.28311,0.0529809,-0.116203,
-10.0406,16.9658,44.5919,1.10457,14.8988,9.54107,38.3163,-1.31123,-0.90615,-19.4677,-47.9703,-1.47243,-4.68782,-17.7381,-36.1362,-2.00069,-11.2188,17.2341,45.9086,1.09703,15.1535,9.66118,38.9726,-1.42042,-2.77996,-19.8462,-51.3268,-1.4272,-4.33406,-19.058,-40.1447,-1.8681,0.0139688,0.768613,-1.65239,0.0188622,0.758366,-1.64208,0.0128437,-0.772673,1.64294,0.0177173,-0.76774,1.63224,-0.057175,0.91087,-1.27889,0.15545,0.830238,-1.31506,0.0153238,-0.942031,1.22508,-0.0114506,-0.921281,1.30498,-1.31246,-0.877847,1.49969,1.76545,-0.207882,-2.18908,0.0272569,-0.235237,
-9.23983,16.692,42.575,1.28291,14.835,9.83686,37.7993,-0.935046,0.680052,-18.6482,-44.2105,-1.66744,-4.58371,-16.3312,-32.4824,-2.13668,-10.0325,16.9507,44.288,1.27016,14.9051,9.5968,38.0908,-1.09832,-0.809007,-19.23,-47.1379,-1.64383,-4.58979,-17.4243,-35.3055,-2.13452,0.0169434,0.768802,-1.6515,0.0218138,0.756479,-1.64,0.0151144,-0.774692,1.63771,0.0199562,-0.76948,1.62504,-0.0505721,0.908569,-1.2927,0.154852,0.832216,-1.31735,0.0276719,-0.937301,1.24902,-0.0114659,-0.912341,1.32805,-1.49217,-1.10454,1.68011,1.90717,-0.209257,-2.03959,0.0126725,-0.229505,
-8.87108,16.5595,40.8799,1.42238,14.3838,10.4367,36.86,-0.565243,1.52553,-17.862,-41.3733,-1.81542,-4.64486,-15.1963,-29.4244,-2.15577,-9.35816,16.7186,42.1119,1.4131,14.7173,9.85673,37.4507,-0.727388,0.625627,-18.3806,-43.446,-1.80081,-4.63342,-16.0417,-31.689,-2.21813,0.0194603,0.768938,-1.64993,0.0243154,0.754883,-1.63766,0.0169018,-0.776829,1.63168,0.0217088,-0.771541,1.61746,-0.0464649,0.907228,-1.30271,0.152126,0.837053,-1.32207,0.0351954,-0.933121,1.26589,-0.0115384,-0.905447,1.34653,-1.62986,-1.32478,1.82184,1.99319,-0.207484,-1.89002,0.00642095,-0.16258,
-8.91616,16.3815,39.3237,1.53799,13.7631,11.0423,35.8952,-0.264854,1.86654,-16.9519,-39.3284,-1.9101,-4.78758,-14.4675,-27.7402,-2.07759,-9.00983,16.5227,40.4699,1.52515,14.2465,10.3859,36.5449,-0.397421,1.43836,-17.6202,-40.8527,-1.90472,-4.73041,-14.9423,-28.9645,-2.16001,0.0214137,0.769034,-1.64801,0.0262575,0.753916,-1.63555,0.0181818,-0.778662,1.62668,0.0229632,-0.773347,1.6115,-0.0456072,0.906085,-1.312,0.148173,0.842563,-1.32728,0.038803,-0.927707,1.27827,-0.011982,-0.901568,1.35629,-1.74097,-1.50503,1.91769,1.99872,-0.202983,-1.76989,0.00759111,-0.0788668,
-9.03056,15.8768,37.536,1.69735,13.1189,11.4842,34.8712,0.0320561,2.17165,-15.9896,-37.3581,-1.99051,-4.9627,-13.801,-25.9328,-1.98213,-9.03038,16.2717,38.8643,1.68238,13.655,10.856,35.6152,-0.0864873,1.80872,-16.6538,-38.772,-1.99011,-4.84348,-14.2159,-27.1623,-2.06683,0.0232892,0.769299,-1.6455,0.0281135,0.753264,-1.63285,0.0195332,-0.780982,1.62081,0.0242838,-0.775565,1.60472,-0.045554,0.902863,-1.3228,0.14376,0.847812,-1.33316,0.0418497,-0.922332,1.28978,-0.012948,-0.898251,1.36628,-1.89383,-1.69567,2.00252,1.98747,-0.196476,-1.66361,0.0120016,0.00533566,
-9.29204,15.3269,35.818,1.82924,12.6215,11.9712,33.8959,0.309909,2.38129,-14.8411,-35.536,-1.98729,-5.00082,-13.1787,-25.0515,-1.8401,-9.0725,15.7228,37.0562,1.81349,13.081,11.2822,34.4737,0.200975,2.16153,-15.7062,-36.9258,-1.99468,-4.97037,-13.4774,-25.6423,-1.92928,0.0248745,0.769802,-1.64259,0.029756,0.7532,-1.63005,0.0206137,-0.783392,1.61538,0.0252839,-0.777876,1.59903,-0.0473778,0.89965,-1.33284,0.139939,0.853687,-1.33778,0.0436779,-0.91526,1.30111,-0.0132047,-0.895912,1.37109,-2.01778,-1.87407,2.00744,1.93347,-0.188545,-1.56416,0.0201444,0.0933753,
-9.54487,14.5457,33.86,1.96068,12.2927,12.1835,33.21,0.570204,2.61856,-13.597,-33.7144,-1.96185,-5.02018,-12.4784,-24.5851,-1.75269,-9.26238,15.1446,35.2955,1.94361,12.6493,11.6589,33.5955,0.469917,2.42012,-14.5984,-35.1646,-1.97233,-4.96152,-12.85,-24.8287,-1.81363,0.0261456,0.77052,-1.63912,0.0309207,0.753728,-1.62737,0.0213364,-0.785624,1.61062,0.0260413,-0.780175,1.59383,-0.049745,0.894781,-1.34454,0.136954,0.858242,-1.34083,0.0453116,-0.907058,1.31302,-0.0137128,-0.892825,1.37264,-2.13911,-2.04424,1.992,1.91451,-0.178428,-1.47404,0.0301463,0.161815,
-9.85411,13.6148,31.9991,2.07362,12.1027,12.0094,32.7409,0.774109,2.84544,-12.161,-32.173,-1.89161,-4.93424,-11.6673,-24.6873,-1.69191,-9.48247,14.3199,33.3334,2.05755,12.3525,11.7703,32.9729,0.690686,2.67535,-13.2786,-33.5283,-1.899,-4.96843,-12.1182,-24.4422,-1.73385,0.0269842,0.771566,-1.63538,0.0317507,0.755003,-1.62467,0.0218078,-0.788013,1.60611,0.0265004,-0.782785,1.58954,-0.0528845,0.889045,-1.35541,0.134828,0.860448,-1.34262,0.0467026,-0.897725,1.32387,-0.013462,-0.889283,1.37059,-2.2415,-2.17179,1.93149,1.89416,-0.167881,-1.39768,0.0398867,0.202244,
-10.082,12.7828,30.9347,1.90091,12.1768,11.6142,32.5012,0.950306,2.74371,-10.9088,-31.3131,-1.77325,-4.70076,-10.6502,-25.135,-1.63657,-9.77547,13.4431,31.6604,1.92225,12.1806,11.5359,32.442,0.89059,2.89371,-11.9278,-31.9261,-1.78777,-4.88345,-11.275,-24.6736,-1.6601,0.0274737,0.772976,-1.63164,0.0322128,0.757018,-1.62186,0.0220444,-0.790509,1.60202,0.0267275,-0.785594,1.58619,-0.0555188,0.883939,-1.36204,0.134753,0.861341,-1.34197,0.0454235,-0.889361,1.32889,-0.0119704,-0.884278,1.36675,-2.05901,-2.29541,1.82206,1.86059,-0.158107,-1.3451,0.0488093,0.224026,
-10.315,12.3389,29.8488,1.74397,12.1001,11.0075,32.1552,1.10693,2.74442,-9.80695,-30.7827,-1.65568,-4.56151,-9.6812,-25.6344,-1.58951,-10.0175,12.7019,30.6075,1.74464,12.247,11.1904,32.2434,1.05771,2.77481,-10.7228,-31.1951,-1.66853,-4.67043,-10.3028,-25.1662,-1.5882,0.0276405,0.774085,-1.6285,0.0323929,0.759183,-1.61954,0.0221278,-0.792505,1.59914,0.0268044,-0.788366,1.58384,-0.0580322,0.880957,-1.36816,0.133494,0.860081,-1.34255,0.045157,-0.88185,1.33227,-0.0110763,-0.879292,1.36289,-1.89445,-2.4092,1.71089,1.80959,-0.15048,-1.30228,0.0552139,0.220083,
-10.4689,11.787,28.7502,1.63206,11.9419,10.2514,31.6795,1.24516,2.78431,-8.46297,-30.3,-1.51241,-4.47045,-8.46916,-25.9802,-1.51555,-10.2598,12.2253,29.4975,1.62883,12.1554,10.5052,31.8617,1.18707,2.77144,-9.59702,-30.7292,-1.52706,-4.53417,-9.32933,-25.7031,-1.5281,0.0276402,0.775234,-1.62532,0.0323895,0.762099,-1.61691,0.0221367,-0.794679,1.59648,0.0268051,-0.791369,1.58208,-0.059801,0.877379,-1.37419,0.131688,0.858235,-1.34391,0.0452503,-0.872517,1.33585,-0.0105581,-0.872311,1.36063,-1.77375,-2.49469,1.57501,1.74467,-0.14169,-1.24953,0.0625958,0.229121,
-10.7334,11.0988,27.9515,1.5537,11.8605,9.4078,31.7444,1.14301,2.76099,-7.2546,-29.9147,-1.36688,-4.25666,-7.39053,-26.7387,-1.45053,-10.4227,11.6409,28.4391,1.55041,11.9912,9.79624,31.6242,1.12663,2.80264,-8.29187,-30.2926,-1.37991,-4.45372,-8.16725,-26.0705,-1.43712,0.027533,0.776336,-1.62221,0.0322761,0.765229,-1.61469,0.0220886,-0.796624,1.59453,0.0267553,-0.794193,1.581,-0.0624111,0.872954,-1.3781,0.130572,0.855276,-1.3431,0.0448954,-0.86397,1.339,-0.00892174,-0.866009,1.35512,-1.68771,-2.35449,1.43484,1.66141,-0.134012,-1.21148,0.0679536,0.210879,
-11.1907,10.2838,27.0811,1.48537,11.7091,9.15664,31.7899,0.962127,2.50038,-6.02683,-29.5024,-1.20934,-3.94073,-6.82019,-28.4337,-1.22696,-10.7192,10.9194,27.651,1.48099,11.8721,9.13818,31.5419,0.940494,2.74051,-7.09668,-29.9516,-1.22549,-4.2714,-7.1672,-26.9707,-1.22415,0.0273896,0.777589,-1.61903,0.0321289,0.768362,-1.61277,0.0220552,-0.798548,1.59308,0.0267192,-0.796939,1.58055,-0.0663391,0.86776,-1.3827,0.129215,0.855565,-1.34089,0.0429138,-0.855145,1.34277,-0.00614268,-0.863122,1.34292,-1.61083,-2.14142,1.28515,1.41873,-0.125463,-1.17929,0.0758073,0.191772,
-11.3824,9.58536,26.3628,1.41233,11.4189,9.03838,31.4929,0.830998,2.22742,-5.0652,-29.2957,-1.03483,-3.851,-6.74056,-29.47,-0.901745,-11.1927,10.1084,26.8426,1.40811,11.7073,8.8948,31.5406,0.817199,2.46552,-5.90915,-29.5597,-1.05212,-3.97939,-6.76519,-28.5742,-0.927592,0.0272698,0.778859,-1.61621,0.0320063,0.771415,-1.61082,0.0220994,-0.800203,1.59203,0.0267627,-0.799339,1.5805,-0.0679146,0.863507,-1.38658,0.126815,0.856907,-1.34116,0.0409524,-0.848183,1.34501,-0.00505105,-0.86289,1.33545,-1.52956,-1.98908,1.11943,1.10304,-0.117228,-1.15808,0.0845939,0.201297,
-11.3546,9.10339,26.0354,1.3558,11.1964,8.74398,31.1457,0.761302,2.1204,-4.4351,-29.3462,-0.905724,-3.87217,-6.72419,-29.7255,-0.694084,-11.3694,9.44276,26.2119,1.35505,11.4309,8.81917,31.3203,0.763965,2.21633,-4.986,-29.3405,-0.919456,-3.86256,-6.75345,-29.509,-0.711266,0.0271915,0.779948,-1.61424,0.0319315,0.773647,-1.60921,0.0221689,-0.801428,1.5915,0.0268306,-0.800785,1.58063,-0.0678017,0.860784,-1.38794,0.12485,0.856439,-1.3425,0.040159,-0.843646,1.345,-0.00512582,-0.862643,1.33368,-1.46797,-1.91702,0.995173,0.898116,-0.112161,-1.15572,0.0894493,0.204032,
-11.3136,8.45475,25.6639,1.28533,11.0273,8.20432,30.9228,0.68745,2.01967,-3.75444,-29.412,-0.753011,-3.82174,-6.80142,-30.1208,-0.49029,-11.3092,8.9108,25.8458,1.28513,11.2465,8.42429,30.9567,0.694407,2.13831,-4.34986,-29.409,-0.76452,-3.85479,-6.71974,-29.7995,-0.505986,0.0270516,0.781431,-1.61166,0.0317692,0.776527,-1.60717,0.0222294,-0.80278,1.59109,0.0268866,-0.802174,1.5809,-0.0678647,0.857093,-1.38937,0.122997,0.854779,-1.34269,0.0391605,-0.838733,1.34501,-0.00486129,-0.863329,1.33105,-1.39344,-1.84694,0.846337,0.699122,-0.108108,-1.15949,0.0933262,0.208832,
-11.1836,7.84739,25.4441,1.2191,10.9477,7.53755,30.8081,0.634502,1.93764,-3.28105,-29.466,-0.612314,-3.70209,-6.66935,-30.3542,-0.330202,-11.2421,8.27747,25.5116,1.21961,11.0956,7.89437,30.7767,0.639642,2.06309,-3.7019,-29.4351,-0.626497,-3.77778,-6.7788,-30.2009,-0.345817,0.0268045,0.782877,-1.60935,0.0315299,0.779242,-1.60538,0.0222035,-0.804031,1.59089,0.0268592,-0.803323,1.58129,-0.0674195,0.853613,-1.38986,0.121722,0.851978,-1.34235,0.0380958,-0.834886,1.34424,-0.00425928,-0.862436,1.32981,-1.32388,-1.79689,0.708283,0.54719,-0.104778,-1.16239,0.0959695,0.216988,
-10.9759,7.486,25.6438,1.1529,10.8619,6.83388,30.7235,0.597942,1.74182,-3.52479,-30.2043,-0.264934,-3.51047,-6.28742,-30.4392,-0.170064,-11.1123,7.67337,25.3274,1.15459,11.0233,7.21167,30.6835,0.593463,1.99076,-3.3524,-29.6499,-0.286305,-3.65133,-6.64136,-30.4171,-0.223095,0.0264772,0.784353,-1.60733,0.0311772,0.782133,-1.60373,0.0220759,-0.804883,1.59095,0.0267368,-0.804243,1.58174,-0.0663208,0.852151,-1.38717,0.120339,0.849005,-1.34196,0.0359949,-0.83625,1.33964,-0.00311233,-0.859505,1.32966,-1.2556,-1.75391,0.364564,0.434502,-0.102693,-1.15597,0.09963,0.264438,
-10.7023,7.17705,26.0075,1.09079,10.7467,6.07229,30.5344,0.553369,1.55462,-4.05705,-30.8255,0.0391582,-3.38032,-5.97574,-30.5275,-0.0393469,-10.8844,7.2943,25.5629,1.09273,10.9487,6.52444,30.6061,0.558575,1.80993,-3.69833,-30.2209,0.0203133,-3.44727,-6.26312,-30.4759,-0.0906946,0.0260081,0.786024,-1.60569,0.0307291,0.785003,-1.60214,0.0218307,-0.805145,1.59106,0.0265101,-0.804954,1.58216,-0.0648452,0.851271,-1.38344,0.118615,0.845401,-1.3425,0.0338377,-0.839148,1.33461,-0.00258422,-0.857124,1.32925,-1.19232,-1.71272,0.0640446,0.350505,-0.101524,-1.15935,0.103203,0.311158,
-10.4266,6.84114,26.3959,1.04085,10.6679,5.16114,30.3076,0.501238,1.37883,-4.61132,-31.3466,0.249075,-3.26754,-5.68534,-30.519,0.0642169,-10.6036,7.01356,25.9519,1.0426,10.8395,5.78133,30.4333,0.517032,1.62627,-4.21685,-30.8232,0.236249,-3.3066,-5.94694,-30.5425,0.0288161,0.0254673,0.787508,-1.60415,0.030221,0.787819,-1.60071,0.0215195,-0.804993,1.59115,0.0261872,-0.805585,1.58256,-0.0634169,0.849925,-1.3797,0.117137,0.840386,-1.3435,0.0317408,-0.842361,1.33024,-0.00229302,-0.854957,1.32945,-1.14164,-1.67462,-0.14344,0.279047,-0.100785,-1.17338,0.105635,0.343264,
-10.1859,6.51096,26.7948,1.00058,10.6373,4.32326,30.0991,0.443182,1.25899,-5.00987,-31.7505,0.358862,-3.16333,-5.43784,-30.3671,0.135532,-10.3336,6.68626,26.3695,1.00238,10.7661,4.93104,30.225,0.46143,1.45508,-4.71136,-31.3393,0.353017,-3.19194,-5.6585,-30.5065,0.109488,0.0249142,0.788976,-1.6031,0.0296336,0.790227,-1.59951,0.0211275,-0.80461,1.59122,0.0258009,-0.806091,1.58283,-0.0622374,0.848551,-1.37615,0.116013,0.835459,-1.3445,0.0300682,-0.844802,1.3268,-0.00209278,-0.853134,1.33059,-1.10107,-1.63278,-0.251883,0.230784,-0.100498,-1.1896,0.106979,0.366316,
-9.91311,6.24946,27.2772,0.969726,10.726,3.59571,30.0564,0.399403,1.03724,-5.02765,-32.2498,0.387857,-2.96706,-5.07345,-29.941,0.231604,-10.0842,6.36479,26.7851,0.967629,10.7386,4.10017,30.0237,0.400996,1.33583,-5.01668,-31.7862,0.388321,-3.08403,-5.40932,-30.3314,0.17446,0.0242552,0.790408,-1.60221,0.0289754,0.792683,-1.59842,0.0206637,-0.804222,1.59131,0.0253428,-0.806536,1.58299,-0.0608444,0.847383,-1.37158,0.115851,0.83138,-1.34419,0.0275338,-0.844856,1.32283,-0.00116641,-0.850348,1.33382,-1.0688,-1.58837,-0.277866,0.189638,-0.0990733,-1.18897,0.109991,0.421242,
-9.88682,5.89011,27.71,0.745338,10.8851,2.80191,30.1966,0.124449,1.10435,-5.30194,-32.1473,0.360348,-2.93092,-5.17176,-29.8877,0.172977,-9.80586,6.20426,27.3958,0.761047,10.8323,3.50029,30.0632,0.198222,1.11835,-5.03196,-32.2106,0.369171,-2.88477,-5.05047,-29.8887,0.263344,0.0235336,0.791623,-1.60168,0.028254,0.79492,-1.59761,0.0201437,-0.803913,1.59132,0.0248224,-0.80693,1.58301,-0.0615764,0.844746,-1.36898,0.116235,0.8256,-1.34307,0.0273757,-0.847107,1.32334,-0.00159273,-0.85137,1.3338,-0.848076,-1.37476,-0.257798,0.156105,-0.102738,-1.25031,0.10255,0.329082,
-9.90801,6.06299,28.0106,0.489845,11.1029,2.91181,30.3483,-0.160604,1.01613,-5.01452,-32.1947,0.236901,-2.75497,-5.24482,-29.6743,0.187116,-9.79639,6.00663,27.7088,0.504006,10.9722,2.85449,30.1544,-0.153182,1.17068,-5.14914,-32.208,0.24763,-2.86866,-5.16512,-29.8188,0.205459,0.0227775,0.792482,-1.6012,0.0275029,0.796618,-1.59688,0.0195916,-0.803906,1.59153,0.0242748,-0.80726,1.5829,-0.0625493,0.845156,-1.36648,0.11728,0.826039,-1.34141,0.0260577,-0.846071,1.32343,-0.000675779,-0.852037,1.33496,-0.592542,-1.0809,-0.133741,0.121544,-0.102697,-1.24151,0.10316,0.30866,
-9.90219,5.95326,28.1455,0.30769,11.3634,2.87624,30.368,-0.415514,1.10567,-4.60293,-31.9979,0.0925443,-2.77816,-5.47363,-29.3055,0.130776,-9.83405,6.16655,28.0086,0.313913,11.1779,2.98726,30.2405,-0.372276,1.07307,-4.84641,-32.2075,0.104735,-2.697,-5.24634,-29.5975,0.212075,0.0220302,0.79288,-1.60092,0.0267576,0.797757,-1.59615,0.0190469,-0.804193,1.59158,0.0237322,-0.807513,1.58266,-0.063163,0.843238,-1.36514,0.118783,0.825069,-1.34027,0.026299,-0.844132,1.32518,-0.00138148,-0.853931,1.33735,-0.411842,-0.85853,0.00583301,0.0950144,-0.104152,-1.27404,0.0983773,0.22579,
-9.87546,6.08956,28.1126,0.163335,11.4442,3.08595,30.22,-0.553112,1.32568,-4.16756,-31.8759,-0.00192463,-2.8047,-5.53417,-28.6042,0.134312,-9.84057,6.0818,28.086,0.174211,11.424,2.95027,30.2405,-0.558941,1.16098,-4.43904,-32.0343,0.00410392,-2.72202,-5.47724,-29.2243,0.152494,0.0212842,0.792954,-1.60064,0.0260119,0.798503,-1.59528,0.0184881,-0.804795,1.59169,0.023172,-0.807712,1.58229,-0.0634526,0.843295,-1.36504,0.118921,0.826162,-1.34036,0.0276499,-0.841952,1.32652,-0.00208883,-0.854409,1.34248,-0.267935,-0.707851,0.0987115,0.0720429,-0.1046,-1.26096,0.0967868,0.206355,
-9.78806,6.22653,28.1504,0.0577347,11.4295,3.25626,30.0099,-0.619012,1.585,-3.7028,-31.8571,-0.0492402,-2.86842,-5.47361,-27.8455,0.156244,-9.83058,6.15375,28.1394,0.0637146,11.4884,3.13103,30.1166,-0.634804,1.37637,-4.03068,-31.931,-0.0459849,-2.75293,-5.53136,-28.5425,0.148373,0.0206493,0.792807,-1.60041,0.0253753,0.79891,-1.59448,0.0179807,-0.805535,1.59186,0.0226621,-0.807845,1.58187,-0.0631203,0.843855,-1.36493,0.118409,0.827186,-1.34119,0.029362,-0.839292,1.32717,-0.00307767,-0.853929,1.34826,-0.162865,-0.621444,0.145058,0.0571274,-0.105131,-1.24046,0.0958173,0.213372,
-9.70076,6.30137,28.1871,-0.00688972,11.4504,3.28285,29.8229,-0.662762,1.76746,-3.42708,-31.9831,-0.0654485,-2.87829,-5.41306,-27.3136,0.171036,-9.74453,6.29051,28.1206,-0.0021283,11.4722,3.27068,29.9099,-0.669037,1.63379,-3.60271,-31.9157,-0.0629571,-2.81969,-5.46565,-27.8151,0.165744,0.0201366,0.792561,-1.60019,0.0248612,0.799135,-1.59364,0.0175426,-0.806256,1.59209,0.0222216,-0.807961,1.58151,-0.0627806,0.84391,-1.36435,0.118202,0.827282,-1.34185,0.0304454,-0.837886,1.32665,-0.00359443,-0.853496,1.35241,-0.099307,-0.56871,0.159588,0.0469407,-0.106197,-1.23147,0.094139,0.217977,
-9.62343,6.39467,28.2289,-0.0554393,11.4482,3.22836,29.6022,-0.685908,1.93275,-3.15658,-32.1698,-0.0677366,-2.84856,-5.33887,-26.9607,0.187004,-9.65124,6.36335,28.159,-0.0516961,11.4991,3.27861,29.726,-0.692529,1.82237,-3.31855,-32.0925,-0.0618499,-2.82687,-5.40284,-27.2975,0.180602,0.0195842,0.792211,-1.59993,0.0243094,0.799325,-1.5928,0.0170429,-0.807122,1.59244,0.0217241,-0.808069,1.58113,-0.062576,0.844136,-1.36376,0.11775,0.826871,-1.34283,0.0313425,-0.836539,1.32579,-0.00379585,-0.852967,1.35521,-0.0516426,-0.537472,0.160664,0.0365146,-0.107082,-1.22338,0.092927,0.223518,
-9.60797,6.49105,28.2951,-0.0868631,11.4377,3.11962,29.3829,-0.699092,1.98505,-2.86702,-32.2659,-0.0595369,-2.81877,-5.32031,-26.8751,0.196248,-9.58799,6.43723,28.2108,-0.0845484,11.4871,3.21134,29.5127,-0.700579,1.95657,-3.06773,-32.25,-0.0599686,-2.8239,-5.33085,-26.966,0.195276,0.0191888,0.791919,-1.59974,0.0238821,0.799459,-1.59201,0.0166875,-0.807778,1.59279,0.0213725,-0.808158,1.58091,-0.0627685,0.844553,-1.36304,0.117313,0.826122,-1.34386,0.0315627,-0.834928,1.32572,-0.00377087,-0.852885,1.35598,-0.0205301,-0.521836,0.152019,0.0275833,-0.107393,-1.22093,0.0924825,0.223831,
-9.58611,6.6146,28.4026,-0.111778,11.4071,2.96036,29.1384,-0.707679,2.04332,-2.57425,-32.4229,-0.0393128,-2.73949,-5.26634,-26.8812,0.209326,-9.55768,6.5397,28.2699,-0.110413,11.485,3.08635,29.2938,-0.71131,2.02227,-2.77581,-32.3609,-0.0406413,-2.78139,-5.30808,-26.8915,0.206204,0.0186789,0.791513,-1.5995,0.0234047,0.799655,-1.59117,0.0162467,-0.808663,1.59333,0.0209346,-0.808266,1.5807,-0.0630304,0.845153,-1.36193,0.116639,0.825093,-1.3451,0.0317196,-0.833298,1.32525,-0.00344011,-0.852544,1.35607,0.00430138,-0.509111,0.131798,0.0170099,-0.107477,-1.21679,0.0924849,0.226336,
-9.53652,6.77836,28.6181,-0.124921,11.3638,2.80669,28.9255,-0.705859,2.04506,-2.38677,-32.703,0.0210617,-2.60871,-5.13744,-26.9074,0.240447,-9.53655,6.65464,28.3794,-0.12447,11.4566,2.9197,29.0514,-0.716397,2.08183,-2.53922,-32.5042,0.0206839,-2.70047,-5.25439,-26.9015,0.219042,0.018186,0.791112,-1.59926,0.0229121,0.799886,-1.59029,0.0158313,-0.809479,1.59396,0.0205208,-0.808373,1.58057,-0.0630569,0.846165,-1.35993,0.115841,0.824176,-1.34611,0.0313821,-0.832015,1.32354,-0.00270006,-0.851573,1.35603,0.0176411,-0.500008,0.0725927,0.00659761,-0.10728,-1.20587,0.0936544,0.247045,
-9.4735,6.8848,28.7278,-0.127657,11.2846,2.5608,28.6462,-0.714132,2.12211,-2.35216,-32.8918,0.0779752,-2.54921,-5.04222,-26.9525,0.253001,-9.48643,6.81399,28.5879,-0.126935,11.4133,2.75954,28.8456,-0.712551,2.08343,-2.35966,-32.7913,0.0793918,-2.56967,-5.12618,-26.9329,0.251657,0.017707,0.790729,-1.59902,0.022434,0.800155,-1.58945,0.0154298,-0.810163,1.5946,0.0201216,-0.808468,1.5805,-0.0629775,0.846732,-1.35875,0.114743,0.822553,-1.34773,0.0316769,-0.831935,1.32266,-0.002552,-0.850882,1.35589,0.0197961,-0.493127,0.0150826,-0.00553886,-0.107861,-1.20726,0.0930577,0.247463,
-9.47786,6.96813,28.7078,-0.125302,11.1921,2.25095,28.4832,-0.743261,2.24627,-2.33492,-32.9099,0.127385,-2.51778,-5.01259,-27.0839,0.255569,-9.43243,6.91847,28.6923,-0.123736,11.3256,2.45332,28.6878,-0.743272,2.15484,-2.3154,-33.0073,0.131952,-2.51495,-5.0275,-26.9829,0.263633,0.0172155,0.790351,-1.59878,0.0219477,0.800519,-1.58868,0.0150273,-0.810762,1.59529,0.0197207,-0.808583,1.58054,-0.0633694,0.847145,-1.35863,0.113618,0.820905,-1.34943,0.0324076,-0.832003,1.32329,-0.00259654,-0.85077,1.35506,0.0163563,-0.463327,-0.0355222,-0.0166014,-0.108945,-1.20659,0.0918632,0.238968,
-9.54198,6.97468,28.8528,-0.122549,11.1975,2.0447,28.339,-0.715292,2.26093,-2.31264,-33.0463,0.133014,-2.40321,-4.89378,-27.1606,0.272673,-9.46186,6.9833,28.6972,-0.122043,11.2089,2.24688,28.3207,-0.734406,2.27211,-2.28808,-32.9924,0.133432,-2.49346,-4.99581,-27.1147,0.268526,0.0167707,0.789998,-1.59853,0.0215051,0.800925,-1.58791,0.0146387,-0.811289,1.59598,0.0193359,-0.80871,1.58063,-0.0640365,0.847057,-1.35731,0.11353,0.81909,-1.34892,0.0323112,-0.832233,1.32289,-0.00184638,-0.849922,1.35469,0.0125915,-0.479178,-0.0419126,-0.0303541,-0.109957,-1.19447,0.0911009,0.242319,
-9.61963,6.98582,28.8911,-0.119261,11.1254,1.73448,28.4273,-0.729889,2.32657,-2.25686,-33.0631,0.134883,-2.34385,-4.80905,-27.1849,0.287249,-9.53822,6.99273,28.8296,-0.118152,11.2021,1.96178,28.4002,-0.744848,2.27284,-2.28734,-33.092,0.136249,-2.39151,-4.88399,-27.1823,0.284488,0.0165098,0.789769,-1.59835,0.0212457,0.801247,-1.58744,0.0143935,-0.811647,1.59648,0.0190937,-0.808805,1.58073,-0.0647108,0.846985,-1.35678,0.112896,0.817184,-1.3486,0.0327571,-0.831997,1.32316,-0.00144975,-0.849299,1.35469,0.0077695,-0.450393,-0.0453766,-0.0431563,-0.111491,-1.18028,0.089506,0.244093,
-9.71314,7.0178,28.8728,-0.11533,11.0355,1.54281,28.3797,-0.738712,2.37851,-2.22475,-33.0396,0.139895,-2.32043,-4.77581,-27.2307,0.307366,-9.62695,7.01405,28.8541,-0.114298,11.117,1.69761,28.3775,-0.75061,2.3292,-2.231,-33.1165,0.140849,-2.34217,-4.8045,-27.2116,0.305311,0.0162526,0.789484,-1.59811,0.0209898,0.801658,-1.58687,0.0141322,-0.812067,1.5971,0.0188373,-0.808917,1.58089,-0.0654235,0.847003,-1.35661,0.112222,0.815916,-1.34856,0.0331688,-0.831954,1.32382,-0.00126741,-0.84906,1.35454,0.00249109,-0.428459,-0.0516358,-0.0621707,-0.112838,-1.16717,0.0882595,0.245195,
-9.81343,7.07874,28.8512,-0.110911,10.9427,1.35899,28.3418,-0.750449,2.4161,-2.18855,-32.9759,0.145769,-2.3116,-4.77897,-27.3168,0.325929,-9.72327,7.04751,28.834,-0.110151,11.0259,1.49947,28.3511,-0.76188,2.3754,-2.206,-33.0812,0.146132,-2.32366,-4.77329,-27.2599,0.324916,0.0160802,0.789206,-1.59784,0.0208173,0.802062,-1.58638,0.013938,-0.812429,1.59767,0.0186476,-0.809007,1.58107,-0.0661681,0.847249,-1.35645,0.111535,0.81477,-1.34862,0.0335117,-0.831817,1.32472,-0.00116335,-0.849108,1.35409,-0.00298563,-0.404125,-0.0582835,-0.0809751,-0.113897,-1.15457,0.087485,0.244954,
-9.93139,7.16085,28.8178,-0.104196,10.8578,1.18918,28.3366,-0.762999,2.42197,-2.13864,-32.8602,0.152148,-2.2971,-4.80976,-27.5125,0.340833,-9.82381,7.10905,28.811,-0.103949,10.9315,1.31778,28.3205,-0.771971,2.40712,-2.17645,-33.0053,0.152036,-2.32012,-4.77403,-27.3582,0.343055,0.0159799,0.788932,-1.59755,0.0207121,0.802439,-1.58596,0.0138065,-0.812734,1.59817,0.0185188,-0.80909,1.5813,-0.0670581,0.847663,-1.35638,0.110928,0.813724,-1.34848,0.0336425,-0.831504,1.32593,-0.000964206,-0.849401,1.35282,-0.010494,-0.381436,-0.06504,-0.0989627,-0.11469,-1.14443,0.0871078,0.24187,
-10.058,7.24453,28.7744,-0.0941164,10.7767,1.00262,28.3441,-0.773785,2.42005,-2.10556,-32.6863,0.160254,-2.2845,-4.84747,-27.7195,0.353391,-9.94438,7.18979,28.7779,-0.0942133,10.8456,1.13966,28.326,-0.783651,2.40921,-2.13484,-32.8774,0.159755,-2.30987,-4.80931,-27.5477,0.357246,0.0159232,0.78866,-1.59724,0.0206598,0.802864,-1.58561,0.0137346,-0.812978,1.5986,0.0184487,-0.809148,1.58154,-0.0679981,0.848106,-1.35638,0.110361,0.812607,-1.34833,0.0337403,-0.831259,1.32753,-0.000745457,-0.849718,1.35141,-0.0210678,-0.359759,-0.073226,-0.116198,-0.115184,-1.13354,0.0870284,0.237193,
-10.1897,7.32118,28.721,-0.0807197,10.698,0.843771,28.3893,-0.78451,2.41493,-2.09211,-32.5005,0.169491,-2.26344,-4.88801,-27.9524,0.364955,-10.0731,7.26963,28.7345,-0.0810875,10.7618,0.957932,28.3432,-0.794767,2.40552,-2.10918,-32.6935,0.168926,-2.29893,-4.84734,-27.7558,0.367919,0.0159147,0.788396,-1.59692,0.0206512,0.803267,-1.58533,0.0137114,-0.813159,1.59894,0.0184266,-0.809192,1.5818,-0.0689614,0.848522,-1.35647,0.109837,0.81168,-1.34794,0.0338269,-0.831112,1.32914,-0.0004416,-0.850059,1.34979,-0.0349073,-0.337633,-0.0824122,-0.131661,-0.115627,-1.12214,0.0870788,0.233294,
-10.3068,7.38204,28.6634,-0.0667268,10.6315,0.710808,28.4611,-0.79365,2.3966,-2.09709,-32.3223,0.178538,-2.24505,-4.91505,-28.158,0.37602,-10.2076,7.34102,28.6845,-0.0674573,10.6803,0.804456,28.3954,-0.803954,2.39963,-2.1009,-32.4999,0.177728,-2.27982,-4.88937,-27.9834,0.376778,0.015944,0.788162,-1.59662,0.0206799,0.803642,-1.58515,0.0137259,-0.813274,1.59919,0.0184439,-0.809222,1.58206,-0.0697776,0.848852,-1.35662,0.10944,0.810924,-1.3474,0.0338112,-0.831073,1.33061,-0.00014225,-0.850272,1.34835,-0.0491618,-0.317169,-0.0911882,-0.144355,-0.115889,-1.11082,0.0873497,0.231664,
-10.3831,7.42299,28.6268,-0.0523015,10.5876,0.637246,28.5153,-0.802173,2.37296,-2.1112,-32.2069,0.185484,-2.23902,-4.92758,-28.2921,0.388318,-10.3235,7.3948,28.6354,-0.0532043,10.6149,0.682106,28.4688,-0.809426,2.38022,-2.10673,-32.3171,0.184536,-2.26023,-4.91789,-28.1819,0.386933,0.0159932,0.787986,-1.59636,0.0207283,0.80394,-1.58504,0.0137664,-0.813329,1.59934,0.0184826,-0.809237,1.58227,-0.0702612,0.849076,-1.35668,0.109225,0.810574,-1.34702,0.033762,-0.831102,1.33152,4.56832e-05,-0.850352,1.34745,-0.0636479,-0.300277,-0.0977466,-0.156223,-0.115949,-1.10245,0.0877377,0.232094,
-10.5037,7.45411,28.5617,-0.0401961,10.5374,0.603248,28.6142,-0.840924,2.33782,-2.1034,-32.0047,0.190823,-2.2196,-5.0239,-28.5347,0.394011,-10.397,7.43344,28.6039,-0.0410671,10.5736,0.634436,28.5268,-0.843468,2.35605,-2.1201,-32.1988,0.190146,-2.25562,-4.93371,-28.3124,0.39795,0.0160565,0.787834,-1.59613,0.0207907,0.80418,-1.58496,0.0138225,-0.813354,1.59944,0.0185387,-0.809241,1.58246,-0.0711399,0.849242,-1.35701,0.108933,0.810309,-1.3463,0.0336239,-0.830953,1.33313,0.00035936,-0.851099,1.34562,-0.0758504,-0.255376,-0.102765,-0.166718,-0.116046,-1.0963,0.088058,0.227292,
-10.6332,7.48642,28.4818,-0.0222405,10.4917,0.669553,28.7003,-0.886502,2.27033,-2.08992,-31.7572,0.1991,-2.20825,-5.14744,-28.8189,0.402613,-10.5241,7.46511,28.5331,-0.0236991,10.518,0.611378,28.6198,-0.890661,2.31019,-2.1182,-31.9887,0.197535,-2.24512,-5.03447,-28.5615,0.405221,0.0161598,0.787652,-1.59584,0.0208927,0.804433,-1.58492,0.0139364,-0.813355,1.59952,0.0186439,-0.809226,1.58273,-0.0720384,0.849411,-1.35742,0.108725,0.810786,-1.34563,0.0333059,-0.83071,1.33505,0.00068051,-0.852036,1.34349,-0.0933288,-0.202739,-0.109947,-0.17874,-0.115569,-1.08924,0.0891529,0.223873,
-10.8149,7.49951,28.4614,-0.00466517,10.4788,0.588015,28.9512,-0.939497,2.16987,-2.08602,-31.4998,0.208092,-2.15619,-5.29408,-29.2432,0.398335,-10.6517,7.49443,28.4561,-0.00591468,10.4732,0.662923,28.7497,-0.940083,2.24251,-2.11027,-31.7321,0.207215,-2.23706,-5.15958,-28.8435,0.412719,0.0162927,0.787476,-1.59552,0.0210228,0.804653,-1.58496,0.0140815,-0.813314,1.59953,0.0187949,-0.80919,1.58299,-0.0733905,0.849452,-1.35737,0.10878,0.810116,-1.34389,0.0327173,-0.830498,1.33697,0.00137079,-0.853147,1.34017,-0.110617,-0.147161,-0.118522,-0.189535,-0.115282,-1.08666,0.0895704,0.2088,
-10.8763,7.5369,28.3474,0.0128247,10.4364,0.911701,28.9183,-0.985884,2.09207,-2.08455,-31.2429,0.220496,-2.18933,-5.45004,-29.4393,0.413589,-10.8331,7.50342,28.442,0.0105595,10.4603,0.631212,28.9422,-0.990324,2.13957,-2.10619,-31.4736,0.217415,-2.18599,-5.31172,-29.261,0.407461,0.0164253,0.78734,-1.59525,0.0211544,0.804737,-1.58499,0.0142587,-0.813241,1.59948,0.0189697,-0.809124,1.58322,-0.0737415,0.849731,-1.35815,0.10859,0.812435,-1.3441,0.032335,-0.830305,1.33888,0.00135629,-0.854289,1.33868,-0.126735,-0.0934909,-0.128462,-0.199247,-0.113911,-1.07937,0.0920335,0.214342,
-10.9312,7.52818,28.31,0.0329382,10.4324,1.01375,29.007,-1.01527,2.04079,-2.10932,-31.0877,0.232219,-2.19922,-5.57735,-29.5888,0.414275,-10.8896,7.52945,28.3336,0.03122,10.4231,0.931742,28.9359,-1.01455,2.07246,-2.10948,-31.2187,0.23055,-2.20939,-5.46436,-29.4541,0.416338,0.0165663,0.787238,-1.59501,0.0212944,0.804736,-1.58503,0.0144549,-0.813135,1.5994,0.0191632,-0.809037,1.58345,-0.0740822,0.849725,-1.35834,0.108673,0.813108,-1.34351,0.0320778,-0.83029,1.33996,0.00144671,-0.855222,1.33756,-0.146251,-0.063448,-0.139179,-0.202243,-0.113312,-1.07872,0.0930408,0.212032,
-10.9662,7.48481,28.2655,0.0494717,10.4447,1.09887,29.1475,-1.027,2.00388,-2.18684,-30.994,0.242747,-2.18456,-5.6455,-29.6707,0.415787,-10.9422,7.51538,28.3024,0.0482206,10.4214,1.02758,29.0309,-1.02892,2.02967,-2.13672,-31.0637,0.241586,-2.21023,-5.5878,-29.5952,0.413863,0.0166851,0.787193,-1.59482,0.0214126,0.804699,-1.58511,0.0146148,-0.812995,1.59928,0.0193215,-0.808954,1.58362,-0.0742768,0.849478,-1.35864,0.108872,0.813695,-1.34255,0.0318679,-0.830691,1.34052,0.0016656,-0.855696,1.33694,-0.162544,-0.0491144,-0.149201,-0.201888,-0.113072,-1.07612,0.0935463,0.213899,
-10.9865,7.42296,28.2231,0.0641183,10.4619,1.16597,29.2926,-1.03246,1.96579,-2.28058,-30.9425,0.250972,-2.18059,-5.69787,-29.7116,0.419533,-10.9805,7.46684,28.2613,0.0631644,10.4305,1.1098,29.1732,-1.03397,1.99202,-2.21291,-30.9715,0.250276,-2.19656,-5.65558,-29.6776,0.416331,0.0168085,0.787192,-1.59466,0.0215353,0.804645,-1.58523,0.0147686,-0.812831,1.59913,0.0194744,-0.808869,1.58378,-0.0743199,0.849121,-1.35896,0.109141,0.814159,-1.34157,0.0316546,-0.831241,1.34075,0.00180412,-0.856039,1.33666,-0.177133,-0.0418092,-0.157213,-0.202539,-0.113015,-1.07427,0.0937595,0.216994,
-11.0034,7.36119,28.195,0.075281,10.4761,1.23187,29.4194,-1.03385,1.92869,-2.36786,-30.9104,0.256038,-2.19178,-5.7656,-29.7175,0.423483,-11.0025,7.40321,28.2239,0.0747243,10.446,1.17479,29.3183,-1.03414,1.95203,-2.3035,-30.9221,0.255576,-2.19438,-5.71136,-29.7119,0.420437,0.0169351,0.787234,-1.59453,0.0216611,0.804583,-1.58537,0.014912,-0.812653,1.59897,0.0196171,-0.808774,1.5839,-0.0743197,0.84878,-1.3592,0.1094,0.814632,-1.34074,0.0314667,-0.831765,1.34083,0.00183229,-0.856484,1.33661,-0.188327,-0.040078,-0.162164,-0.203585,-0.113046,-1.07393,0.0938736,0.219897,
-11.0074,7.22253,28.3428,0.0870764,10.6179,1.20624,29.6141,-1.04588,1.7907,-2.51553,-31.026,0.257055,-2.17565,-5.89906,-29.7859,0.410004,-11.0116,7.34834,28.189,0.0855249,10.4678,1.23664,29.4407,-1.03059,1.91527,-2.38475,-30.8904,0.257736,-2.20478,-5.7816,-29.7172,0.424562,0.0170525,0.787314,-1.59447,0.0217779,0.804526,-1.58553,0.0150435,-0.812486,1.59882,0.0197475,-0.808676,1.58398,-0.0742794,0.847713,-1.35786,0.110655,0.814376,-1.33931,0.0304344,-0.832846,1.33969,0.00208141,-0.857458,1.33604,-0.200487,-0.0434608,-0.164043,-0.20498,-0.113411,-1.08934,0.0930124,0.205024,
-11.038,7.27463,28.2193,0.08145,10.5331,1.32425,29.5918,-1.03644,1.82235,-2.46051,-30.8706,0.255494,-2.22258,-5.99986,-29.8226,0.41736,-11.0114,7.2003,28.3758,0.0811493,10.6141,1.21322,29.6253,-1.04053,1.77569,-2.52683,-31.0028,0.254594,-2.18995,-5.91935,-29.7806,0.410622,0.0171603,0.787403,-1.59442,0.0218851,0.804467,-1.58568,0.0151801,-0.81232,1.59864,0.0198823,-0.808557,1.58404,-0.0745016,0.848342,-1.35918,0.10998,0.815296,-1.33959,0.0308301,-0.832285,1.34078,0.0018159,-0.858115,1.33569,-0.194434,-0.0492387,-0.161486,-0.205883,-0.112984,-1.08568,0.0940078,0.211477,
-11.0013,7.27952,28.2383,0.0861395,10.5664,1.37171,29.5709,-1.0333,1.79021,-2.45115,-30.8179,0.258145,-2.26277,-6.05231,-29.7727,0.418985,-11.0351,7.26302,28.2279,0.0850923,10.5362,1.32492,29.6005,-1.03016,1.81723,-2.4676,-30.8562,0.257088,-2.22775,-6.01115,-29.8191,0.416432,0.0172127,0.787467,-1.59441,0.0219368,0.80443,-1.58577,0.0152569,-0.81223,1.59853,0.0199645,-0.808471,1.58407,-0.0742236,0.848492,-1.3591,0.110228,0.815684,-1.33985,0.0306088,-0.832142,1.34109,0.00152761,-0.858445,1.33608,-0.198513,-0.0561228,-0.163387,-0.204912,-0.112373,-1.08942,0.0947576,0.214073,
-10.9767,7.23322,28.2921,0.0955222,10.6233,1.35476,29.6141,-1.02554,1.76428,-2.47734,-30.8243,0.264754,-2.25199,-5.90139,-29.7879,0.356677,-10.9927,7.25494,28.252,0.0944697,10.5749,1.36727,29.5872,-1.02221,1.79062,-2.46624,-30.8016,0.263996,-2.26253,-6.00381,-29.7885,0.363239,0.0172581,0.787581,-1.59443,0.0219816,0.804394,-1.5859,0.0153613,-0.81209,1.59836,0.0200598,-0.808401,1.5841,-0.074096,0.848325,-1.35878,0.110626,0.815583,-1.33963,0.0303877,-0.832224,1.3409,0.00161418,-0.857635,1.33609,-0.207416,-0.0679807,-0.169715,-0.143446,-0.111894,-1.09352,0.0950391,0.213232,
-10.9179,7.13469,28.3494,0.105171,10.6925,1.26529,29.6142,-1.012,1.74878,-2.55401,-30.8834,0.273278,-2.24062,-5.52255,-29.7224,0.283484,-10.97,7.20647,28.309,0.103714,10.6297,1.35129,29.6266,-1.01422,1.7635,-2.49398,-30.8129,0.272532,-2.25246,-5.83615,-29.7913,0.289944,0.0172783,0.787716,-1.59448,0.0220019,0.804375,-1.58604,0.015439,-0.811949,1.59821,0.0201367,-0.808493,1.58416,-0.0736653,0.847744,-1.35846,0.111146,0.814865,-1.33974,0.0302656,-0.832715,1.34031,0.00171344,-0.855055,1.33667,-0.216086,-0.0800145,-0.178095,-0.0729321,-0.110915,-1.09202,0.0951831,0.210551,
-10.8732,7.03779,28.4163,0.110944,10.7366,1.24136,29.6032,-1.00578,1.71378,-2.63981,-30.9685,0.280376,-2.24629,-5.28009,-29.6718,0.242653,-10.9193,7.10515,28.3686,0.109949,10.6909,1.26835,29.6168,-1.00495,1.73965,-2.57028,-30.8739,0.280028,-2.25055,-5.47888,-29.7177,0.24793,0.0172892,0.787886,-1.59455,0.0220134,0.804359,-1.58616,0.0155101,-0.811807,1.59807,0.0202074,-0.808674,1.5842,-0.0732806,0.847199,-1.35807,0.111527,0.814641,-1.33985,0.0300548,-0.833286,1.33952,0.00175431,-0.853422,1.33704,-0.221219,-0.0875695,-0.185291,-0.03539,-0.110275,-1.09334,0.0950849,0.207263,
-10.8142,6.94325,28.4773,0.11419,10.7532,1.25534,29.5655,-1.00216,1.68009,-2.72348,-31.0807,0.286701,-2.27721,-5.14306,-29.5794,0.233712,-10.877,7.00767,28.4364,0.11342,10.7327,1.24928,29.5983,-0.999163,1.70453,-2.65603,-30.9628,0.286149,-2.25428,-5.2588,-29.6599,0.234851,0.0173035,0.78808,-1.59465,0.0220284,0.804334,-1.58625,0.0155878,-0.811664,1.59795,0.02028,-0.808885,1.58423,-0.0727558,0.846681,-1.35774,0.1117,0.814686,-1.34012,0.0298552,-0.833839,1.33853,0.00156727,-0.852466,1.3377,-0.223982,-0.0946111,-0.191612,-0.027153,-0.109792,-1.09677,0.0950891,0.206559,
-10.735,6.85991,28.5437,0.115452,10.7635,1.27349,29.4963,-0.998518,1.66341,-2.81053,-31.1972,0.291858,-2.33123,-5.06617,-29.425,0.23335,-10.8133,6.91335,28.4982,0.115126,10.7541,1.26091,29.5576,-0.993034,1.67551,-2.74164,-31.0731,0.291548,-2.28227,-5.13286,-29.5569,0.233633,0.0173181,0.788303,-1.59478,0.0220435,0.804301,-1.5863,0.0156573,-0.811511,1.59784,0.0203532,-0.80908,1.58419,-0.0721046,0.846252,-1.35737,0.111777,0.814786,-1.34063,0.0297561,-0.834402,1.33749,0.00116087,-0.851916,1.33878,-0.224938,-0.104356,-0.196869,-0.0270227,-0.109486,-1.10287,0.0949894,0.206328,
-10.6509,6.79249,28.6033,0.115892,10.7821,1.27525,29.4265,-0.993498,1.66326,-2.89234,-31.2984,0.295552,-2.37775,-5.01696,-29.2653,0.234936,-10.7265,6.83363,28.5619,0.115627,10.7719,1.27593,29.4876,-0.987715,1.66589,-2.82881,-31.1877,0.295455,-2.32876,-5.05886,-29.4031,0.235101,0.0173176,0.78852,-1.59491,0.0220435,0.804268,-1.58632,0.0157117,-0.811363,1.59774,0.0204071,-0.809236,1.58412,-0.0714804,0.845925,-1.35704,0.111857,0.81478,-1.34114,0.0297319,-0.83492,1.33656,0.000750381,-0.85157,1.33992,-0.225257,-0.115958,-0.200813,-0.0288454,-0.109364,-1.10946,0.0947394,0.206091,
-10.553,6.72589,28.6587,0.116395,10.8131,1.25765,29.3558,-0.985662,1.67328,-2.98317,-31.3919,0.298985,-2.41588,-4.94631,-29.087,0.23124,-10.6353,6.76541,28.6214,0.116212,10.7976,1.27401,29.4169,-0.980442,1.67237,-2.91215,-31.2876,0.299007,-2.36876,-5.00891,-29.2408,0.236256,0.017289,0.788754,-1.59505,0.0220157,0.804241,-1.58632,0.0157413,-0.811202,1.59763,0.0204364,-0.809379,1.58401,-0.0708034,0.845609,-1.35674,0.111976,0.814646,-1.34164,0.029733,-0.835501,1.33569,0.000355639,-0.851095,1.34119,-0.22568,-0.129865,-0.204578,-0.0245335,-0.109285,-1.11553,0.0944075,0.206707,
-10.4517,6.6576,28.7161,0.117619,10.8565,1.1975,29.2703,-0.975228,1.69463,-3.07549,-31.4774,0.302054,-2.44202,-4.73042,-28.8995,0.203815,-10.5336,6.7008,28.6746,0.117151,10.8322,1.25427,29.3452,-0.972824,1.68529,-3.00319,-31.382,0.30203,-2.40347,-4.9096,-29.0681,0.205288,0.0172277,0.788975,-1.59519,0.0219553,0.804226,-1.5863,0.0157389,-0.811036,1.59754,0.0204343,-0.809541,1.58388,-0.070131,0.845264,-1.35639,0.112169,0.81417,-1.34225,0.0298044,-0.83609,1.33489,2.79918e-05,-0.849623,1.34258,-0.226609,-0.143562,-0.207942,0.00290826,-0.10899,-1.11879,0.094112,0.206723,
-10.3877,6.58437,28.76,0.118433,10.8901,1.18509,29.229,-0.971475,1.68229,-3.14625,-31.5631,0.304389,-2.43905,-4.63756,-28.852,0.201994,-10.4358,6.63103,28.733,0.118313,10.8722,1.19816,29.2547,-0.967046,1.70469,-3.09376,-31.4686,0.304595,-2.4311,-4.70524,-28.8875,0.202662,0.017146,0.789211,-1.59534,0.0218751,0.804218,-1.58625,0.0157114,-0.810878,1.59744,0.0204065,-0.80976,1.58379,-0.0697391,0.844891,-1.35617,0.112311,0.81406,-1.34245,0.0296136,-0.836519,1.33409,-4.14066e-05,-0.849061,1.34285,-0.227404,-0.152103,-0.210616,0.00474042,-0.108971,-1.12358,0.0937733,0.206734,
-10.2759,6.5188,28.8122,0.120098,10.9033,1.159,29.0868,-0.970087,1.70559,-3.24921,-31.6195,0.307474,-2.49864,-4.49914,-28.6016,0.203356,-10.372,6.55996,28.7758,0.119569,10.9052,1.18967,29.211,-0.966862,1.6899,-3.16597,-31.554,0.307199,-2.43202,-4.62626,-28.8225,0.202394,0.0170515,0.789432,-1.59548,0.0217824,0.804205,-1.58618,0.0156746,-0.810717,1.59735,0.0203693,-0.809929,1.58363,-0.0689475,0.844561,-1.35588,0.112287,0.813799,-1.34347,0.0297409,-0.837202,1.33354,-0.000600103,-0.848005,1.34468,-0.228629,-0.156829,-0.213814,0.00435727,-0.108531,-1.12692,0.0936598,0.207713,
-10.2251,6.47398,28.8597,0.114507,10.8833,1.32887,28.9948,-0.972871,1.70936,-3.28686,-31.6348,0.310325,-2.50776,-4.46988,-28.4942,0.216765,-10.2618,6.47895,28.8523,0.115728,10.9183,1.14946,29.1148,-0.983057,1.71562,-3.27105,-31.6096,0.310052,-2.48851,-4.48736,-28.576,0.209445,0.0169409,0.789664,-1.59561,0.0216745,0.804169,-1.58607,0.0156254,-0.810542,1.59726,0.0203201,-0.810089,1.58345,-0.0686303,0.844555,-1.35587,0.112,0.81497,-1.34385,0.0296983,-0.837324,1.33333,-0.000752997,-0.847857,1.34534,-0.223021,-0.154271,-0.216495,-0.00205247,-0.108514,-1.12714,0.09383,0.214713,
-10.1737,6.3579,28.901,0.126886,10.9331,1.13884,28.9714,-0.978783,1.72417,-3.4423,-31.6968,0.314522,-2.51348,-4.36653,-28.3887,0.214407,-10.2091,6.45946,28.8332,0.126851,10.8985,1.35238,28.9972,-0.97715,1.72503,-3.31326,-31.6267,0.315177,-2.49228,-4.45633,-28.4748,0.221623,0.0168253,0.789905,-1.59575,0.0215667,0.804106,-1.58597,0.0155642,-0.810367,1.59718,0.020255,-0.810228,1.58327,-0.0683358,0.843727,-1.35532,0.112295,0.813095,-1.34375,0.0296879,-0.838385,1.33274,-0.000936024,-0.847113,1.34604,-0.235642,-0.15415,-0.221944,-0.00718415,-0.108756,-1.13293,0.0925782,0.207223,
-10.0963,6.29771,28.8584,0.128167,10.9033,1.32681,28.94,-1.00825,1.76003,-3.56859,-31.7415,0.316996,-2.54139,-4.3192,-28.1903,0.238991,-10.1674,6.3326,28.9083,0.127777,10.9388,1.10617,29.0547,-1.0144,1.73755,-3.46705,-31.6895,0.316259,-2.50026,-4.35429,-28.3669,0.222489,0.0167313,0.790122,-1.59585,0.0214628,0.804028,-1.58585,0.0154909,-0.81018,1.5971,0.0201814,-0.810367,1.58309,-0.0677382,0.843449,-1.35573,0.112002,0.814911,-1.34458,0.0298709,-0.839215,1.33231,-0.00128347,-0.846829,1.3475,-0.236872,-0.11894,-0.223863,-0.0157153,-0.108705,-1.12719,0.093133,0.223276,
-10.0881,6.16793,28.7874,0.132781,10.8921,1.37747,28.947,-1.02803,1.80623,-3.68923,-31.7258,0.316244,-2.53351,-4.031,-28.0796,0.197792,-10.1021,6.27243,28.8469,0.132604,10.8983,1.38732,28.9156,-1.03351,1.77206,-3.59869,-31.7345,0.316757,-2.53089,-4.24835,-28.1868,0.195719,0.016658,0.790366,-1.59593,0.0213947,0.80389,-1.58578,0.0154037,-0.809967,1.59702,0.0201008,-0.810539,1.5829,-0.0676197,0.84259,-1.35622,0.111951,0.81481,-1.34432,0.0301517,-0.839954,1.33237,-0.00130978,-0.845069,1.34839,-0.241606,-0.092188,-0.22357,0.0316167,-0.108825,-1.12021,0.0926741,0.229408,
-10.096,6.08408,28.7247,0.134414,10.8949,1.40619,28.9344,-1.04035,1.81228,-3.77693,-31.6659,0.313584,-2.53224,-3.682,-28.0673,0.149114,-10.0961,6.14663,28.7762,0.133742,10.8842,1.41113,28.9424,-1.04837,1.80439,-3.71671,-31.7161,0.313631,-2.53502,-3.94215,-28.0849,0.150521,0.0166142,0.7906,-1.59596,0.0213507,0.803708,-1.58572,0.0153285,-0.809743,1.59694,0.0200267,-0.810885,1.58277,-0.0676139,0.84208,-1.35663,0.112045,0.814752,-1.34439,0.0302199,-0.840441,1.33278,-0.00128428,-0.842945,1.34854,-0.242735,-0.0708467,-0.220862,0.0811538,-0.108321,-1.1112,0.0927218,0.230267,
-10.1297,5.99855,28.6588,0.135817,10.8807,1.45868,28.9095,-1.04476,1.78712,-3.85329,-31.5864,0.312088,-2.5369,-3.40259,-28.1477,0.130425,-10.1078,6.06766,28.7176,0.134922,10.8842,1.42971,28.9298,-1.05112,1.80336,-3.79513,-31.6597,0.311769,-2.54101,-3.62819,-28.0722,0.134474,0.0166065,0.790771,-1.59596,0.0213425,0.803551,-1.58567,0.0152973,-0.809583,1.59688,0.0199959,-0.811213,1.58271,-0.0677882,0.841516,-1.35711,0.112025,0.81498,-1.34455,0.0300923,-0.840911,1.33338,-0.0012425,-0.841104,1.34792,-0.243346,-0.0593902,-0.219011,0.0966386,-0.107529,-1.10415,0.0930773,0.227064,
-10.1713,5.9287,28.6012,0.136833,10.841,1.51497,28.8698,-1.04839,1.73583,-3.92314,-31.5066,0.310395,-2.56775,-3.1969,-28.2635,0.123034,-10.1485,5.97824,28.6482,0.135825,10.8608,1.48438,28.9011,-1.05285,1.76756,-3.8804,-31.5779,0.309773,-2.55614,-3.35017,-28.1542,0.128021,0.0166328,0.790975,-1.59594,0.0213689,0.803347,-1.58561,0.015296,-0.809353,1.5968,0.0199945,-0.811641,1.58266,-0.0679675,0.841115,-1.3575,0.11187,0.815222,-1.34481,0.0298384,-0.841253,1.33397,-0.00132895,-0.839853,1.34701,-0.24348,-0.0509271,-0.216696,0.0990243,-0.106646,-1.09932,0.0936989,0.222058,
-10.2119,5.86458,28.547,0.13882,10.8009,1.57152,28.8406,-1.04964,1.68331,-3.98658,-31.4324,0.309644,-2.59956,-3.06514,-28.3901,0.127347,-10.189,5.90802,28.5907,0.137848,10.8235,1.53723,28.8653,-1.05198,1.71754,-3.95041,-31.4948,0.309046,-2.5858,-3.15427,-28.2699,0.132225,0.0166918,0.791174,-1.59591,0.0214275,0.803131,-1.58555,0.0153359,-0.809133,1.59672,0.0200335,-0.812066,1.58264,-0.0681492,0.840764,-1.35785,0.111691,0.815497,-1.34502,0.0295628,-0.841537,1.33448,-0.00143408,-0.839133,1.34602,-0.244695,-0.0472258,-0.215327,0.0892535,-0.105875,-1.09686,0.0943169,0.2166,
-10.244,5.86854,28.3373,0.165312,10.7689,1.60947,28.8331,-1.04706,1.63253,-4.06059,-31.3527,0.309565,-2.62647,-2.94465,-28.5166,0.137397,-10.227,5.84224,28.5347,0.140882,10.7859,1.58664,28.841,-1.04907,1.66738,-4.01846,-31.4151,0.309066,-2.61529,-3.02486,-28.3977,0.141329,0.0167756,0.791371,-1.59583,0.0215102,0.802939,-1.5855,0.0154054,-0.80889,1.59663,0.0201018,-0.812498,1.58264,-0.0682721,0.840398,-1.3583,0.111546,0.815689,-1.34508,0.0292679,-0.841869,1.33499,-0.0015364,-0.838473,1.34503,-0.270441,-0.0479113,-0.214649,0.0741892,-0.105129,-1.09497,0.0949159,0.211586,
-10.2684,5.86267,28.4766,0.0879271,10.7822,1.6102,28.8608,-1.0433,1.57125,-4.19174,-31.3551,0.309947,-2.65668,-2.86316,-28.6118,0.14574,-10.2517,5.82614,28.4718,0.0910162,10.7591,1.62094,28.8357,-1.04391,1.61884,-4.09155,-31.3323,0.309372,-2.64063,-2.91457,-28.5231,0.154693,0.0168602,0.791518,-1.59579,0.0215931,0.802767,-1.58547,0.0154855,-0.808651,1.59652,0.0201806,-0.812876,1.58266,-0.0684058,0.840687,-1.35826,0.111745,0.815591,-1.34487,0.0288771,-0.842686,1.33479,-0.00166442,-0.838063,1.3443,-0.192802,-0.0513088,-0.21476,0.0557901,-0.104875,-1.09461,0.0951869,0.20153,
-10.2508,5.97674,28.4308,0.0487511,10.7761,1.68594,28.8456,-1.04702,1.54277,-4.28392,-31.3718,0.308534,-2.70977,-2.83354,-28.6281,0.162987,-10.2739,5.89572,28.4624,0.0505327,10.7737,1.62101,28.8553,-1.03839,1.56118,-4.21908,-31.3348,0.307819,-2.66684,-2.84353,-28.617,0.164789,0.0169371,0.791552,-1.59572,0.0216699,0.802616,-1.58544,0.015564,-0.808418,1.5964,0.0202583,-0.813197,1.58268,-0.0682172,0.841347,-1.35851,0.111745,0.816338,-1.34541,0.0287175,-0.843203,1.33447,-0.0020295,-0.837999,1.34421,-0.153281,-0.0461556,-0.212505,0.0355377,-0.10453,-1.09318,0.0960299,0.198525,
-10.2768,6.03721,28.4199,0.02359,10.7976,1.64513,28.8935,-1.04159,1.51222,-4.35584,-31.3404,0.306477,-2.72324,-2.82014,-28.6991,0.173686,-10.2531,6.002,28.4184,0.0247733,10.7766,1.68089,28.866,-1.0417,1.53732,-4.3127,-31.3488,0.306479,-2.71522,-2.81552,-28.6335,0.181343,0.0170065,0.791519,-1.59564,0.0217385,0.802503,-1.58545,0.0156398,-0.808181,1.59626,0.0203374,-0.813484,1.5827,-0.0684068,0.841628,-1.35849,0.111938,0.815994,-1.34511,0.0285116,-0.84354,1.33452,-0.00209012,-0.838049,1.34366,-0.128139,-0.0532446,-0.210435,0.0161221,-0.104549,-1.09483,0.0960427,0.189808,
-10.2301,6.09967,28.3525,0.00927805,10.8196,1.63642,28.7423,-1.01034,1.52877,-4.52881,-31.3157,0.305834,-2.80554,-2.74124,-28.5897,0.193529,-10.2813,6.06116,28.4096,0.00983392,10.7927,1.68307,28.8244,-1.01771,1.50308,-4.38967,-31.3154,0.305436,-2.73185,-2.80533,-28.7023,0.193376,0.0170677,0.791434,-1.59555,0.0217991,0.802405,-1.58549,0.0157225,-0.80789,1.59608,0.0204146,-0.813784,1.58274,-0.0679798,0.841935,-1.35897,0.112162,0.81554,-1.34567,0.028731,-0.844682,1.3345,-0.00269861,-0.83752,1.3446,-0.113578,-0.0804821,-0.209475,-0.00471492,-0.1043,-1.09082,0.0963593,0.188814,
-10.4112,6.09698,28.4718,0.00165235,10.8992,1.36665,29.0947,-1.01224,1.43165,-4.63483,-31.2699,0.299819,-2.70774,-2.80803,-28.9602,0.185191,-10.2346,6.11177,28.3506,0.002928,10.8149,1.63809,28.7512,-1.00666,1.52067,-4.55163,-31.2966,0.301855,-2.81349,-2.73114,-28.5931,0.211889,0.0171162,0.791346,-1.59548,0.0218474,0.802332,-1.58552,0.0157901,-0.807651,1.59592,0.0204811,-0.813998,1.58277,-0.0694531,0.841805,-1.35796,0.112864,0.813281,-1.34281,0.0279941,-0.845365,1.33471,-0.00181234,-0.838166,1.34155,-0.106909,-0.0843769,-0.205082,-0.0243287,-0.105257,-1.09662,0.0947376,0.160862,
-10.4224,6.14454,28.4408,-0.000260741,10.8928,1.56813,29.2158,-1.0215,1.32684,-4.66066,-31.2401,0.297601,-2.68414,-2.78311,-29.0367,0.20279,-10.4194,6.10434,28.4706,-0.000668774,10.8924,1.3215,29.2132,-1.03885,1.42358,-4.64862,-31.257,0.296528,-2.71586,-2.80393,-28.9564,0.195837,0.0171504,0.791286,-1.59544,0.021882,0.802301,-1.58557,0.0158383,-0.807497,1.59581,0.0205292,-0.814121,1.58279,-0.0694595,0.842132,-1.3582,0.112892,0.81508,-1.34228,0.0272106,-0.845454,1.33485,-0.0015259,-0.837985,1.34087,-0.104422,-0.0687018,-0.201553,-0.0359396,-0.104683,-1.0902,0.096048,0.16685,
-10.4354,6.15656,28.4199,0.000244774,10.8792,1.61663,29.1736,-1.01831,1.2891,-4.73235,-31.2081,0.293441,-2.73986,-2.82078,-29.0365,0.213545,-10.4354,6.15438,28.4378,-9.8782e-05,10.8799,1.57877,29.2197,-1.0212,1.30998,-4.68343,-31.2193,0.293395,-2.70083,-2.78469,-29.028,0.218821,0.0172213,0.791188,-1.59538,0.0219524,0.802214,-1.58561,0.0159331,-0.807262,1.59564,0.0206234,-0.814278,1.58279,-0.0694499,0.842145,-1.35835,0.1129,0.815255,-1.34238,0.0270506,-0.845851,1.33493,-0.00183684,-0.838279,1.34079,-0.10473,-0.0755667,-0.197175,-0.0528819,-0.104486,-1.09387,0.0962663,0.160663,
-10.4552,6.187,28.4291,0.00338858,10.8819,1.64943,29.1712,-1.01435,1.25037,-4.80024,-31.1999,0.290731,-2.76572,-2.87398,-29.0664,0.223277,-10.4413,6.16349,28.4185,0.0031476,10.8738,1.61807,29.1853,-1.01496,1.27854,-4.75677,-31.1862,0.290635,-2.75018,-2.82207,-29.0286,0.227211,0.0172986,0.791097,-1.59533,0.0220251,0.802128,-1.58563,0.0160342,-0.80702,1.59546,0.0207235,-0.814401,1.58277,-0.0695656,0.842336,-1.35825,0.112971,0.815435,-1.34233,0.0268233,-0.846203,1.33481,-0.00195871,-0.838705,1.34048,-0.107795,-0.0829518,-0.194176,-0.0673149,-0.104406,-1.0973,0.0965542,0.155962,
-10.4283,6.20233,28.415,0.00902574,10.9008,1.69535,29.2157,-1.01914,1.20243,-4.75455,-31.2153,0.262464,-2.78604,-2.88604,-29.0164,0.235376,-10.4546,6.18926,28.4315,0.00805999,10.8842,1.59108,29.2996,-1.03105,1.24279,-4.77856,-31.2123,0.267394,-2.77035,-2.87109,-29.061,0.230923,0.017351,0.791021,-1.5953,0.0220817,0.802064,-1.58566,0.0161253,-0.806839,1.59528,0.0208109,-0.814477,1.58275,-0.0693376,0.842443,-1.35838,0.113128,0.81604,-1.34248,0.026498,-0.846003,1.33473,-0.00207699,-0.838824,1.34083,-0.11296,-0.0793311,-0.165113,-0.0756293,-0.103934,-1.09847,0.0973513,0.159747,
-10.382,6.13676,28.27,0.0168412,10.927,1.7298,29.141,-1.02767,1.27411,-4.58044,-31.065,0.202536,-2.85682,-2.95935,-28.8975,0.230156,-10.4196,6.20194,28.4174,0.0158685,10.9079,1.67413,29.2523,-1.01417,1.20667,-4.72488,-31.182,0.205868,-2.78373,-2.88514,-29.0111,0.241444,0.0173931,0.790957,-1.59527,0.0221243,0.801989,-1.58564,0.016206,-0.806759,1.59513,0.0208893,-0.814546,1.58272,-0.0690228,0.841904,-1.35961,0.113271,0.816566,-1.34355,0.0270563,-0.844812,1.33568,-0.00269125,-0.839451,1.34178,-0.120481,-0.081403,-0.105566,-0.0819541,-0.10364,-1.10907,0.0969699,0.148202,
-10.381,6.07322,28.2059,0.0229883,10.9882,1.71743,29.1134,-0.993677,1.30804,-4.43773,-30.972,0.164681,-2.85375,-2.94672,-28.7792,0.230576,-10.3756,6.13339,28.2756,0.0226053,10.9318,1.75302,29.0664,-0.993892,1.27332,-4.54348,-31.0554,0.167072,-2.85787,-2.95723,-28.895,0.234764,0.0174145,0.790911,-1.59525,0.0221456,0.801974,-1.58568,0.0162674,-0.806776,1.59498,0.0209495,-0.814609,1.58268,-0.0690748,0.841408,-1.3602,0.113735,0.81629,-1.34318,0.0273445,-0.843949,1.33637,-0.0026581,-0.839365,1.34275,-0.126564,-0.115916,-0.0683182,-0.086817,-0.103575,-1.10959,0.0963631,0.143759,
-10.4351,6.00629,28.2375,0.0270222,11.0532,1.54666,29.2787,-0.975627,1.29467,-4.38488,-30.9245,0.145638,-2.8102,-2.92339,-28.8092,0.218698,-10.3832,6.06556,28.2119,0.0272381,10.9861,1.70814,29.1071,-0.97769,1.30362,-4.413,-30.9682,0.148097,-2.85851,-2.94176,-28.777,0.230261,0.0174175,0.790895,-1.59526,0.0221494,0.80202,-1.58577,0.0163099,-0.806847,1.59486,0.0209916,-0.814659,1.58265,-0.0695084,0.840919,-1.35999,0.114293,0.814915,-1.34167,0.027274,-0.843729,1.33674,-0.00225106,-0.839218,1.34248,-0.13104,-0.134476,-0.0507085,-0.0859155,-0.104018,-1.1101,0.094929,0.132782,
-10.4269,5.99092,28.1759,0.0285233,11.0479,1.65288,29.2663,-0.974966,1.26658,-4.25127,-30.9197,0.13711,-2.82703,-2.84317,-28.8678,0.19349,-10.4388,6.00012,28.2468,0.027764,11.049,1.52742,29.3015,-0.977037,1.28278,-4.36302,-30.9238,0.136819,-2.82738,-2.92025,-28.7599,0.18098,0.0174257,0.790895,-1.59528,0.0221584,0.80204,-1.58577,0.0163549,-0.806937,1.59477,0.0210395,-0.814726,1.58265,-0.0694225,0.840848,-1.36057,0.114271,0.815979,-1.34197,0.0271384,-0.842813,1.33677,-0.00226484,-0.838921,1.34217,-0.131951,-0.133141,-0.0412351,-0.0539531,-0.103428,-1.10811,0.0958749,0.139537,
-10.3983,5.9243,28.1889,0.0330554,11.0526,1.4889,29.1454,-0.957614,1.29697,-4.18657,-30.9121,0.135967,-2.86859,-2.44939,-28.7133,0.123059,-10.4367,5.9814,28.1798,0.031824,11.0383,1.65211,29.2357,-0.958977,1.25303,-4.2337,-30.9219,0.135846,-2.83817,-2.82266,-28.8033,0.12262,0.0174434,0.790911,-1.5953,0.0221782,0.802115,-1.58583,0.0164187,-0.807066,1.5947,0.0211032,-0.814898,1.58265,-0.0691027,0.840383,-1.3605,0.114375,0.81463,-1.34273,0.0275087,-0.842427,1.33685,-0.00248382,-0.835916,1.34352,-0.135383,-0.149271,-0.0399653,0.00961936,-0.102328,-1.10689,0.0960016,0.132678,
-10.3249,5.86273,28.2585,0.035558,11.0577,1.40253,28.9029,-0.956396,1.33625,-4.20483,-30.9654,0.139073,-2.9343,-2.11915,-28.529,0.0851578,-10.3972,5.91108,28.1978,0.0345098,11.052,1.45148,29.1699,-0.958513,1.28123,-4.17055,-30.9156,0.13935,-2.87781,-2.34192,-28.7512,0.0980987,0.0174692,0.790955,-1.59534,0.0222037,0.802191,-1.5858,0.0165126,-0.807205,1.59464,0.0211965,-0.815206,1.58268,-0.0684875,0.839996,-1.36,0.114454,0.813765,-1.34398,0.0279939,-0.84271,1.33644,-0.00292659,-0.834068,1.34535,-0.137059,-0.148612,-0.0434536,0.0367764,-0.101501,-1.10501,0.0956197,0.121934,
-10.3847,5.82155,28.2285,0.0368841,11.0514,1.38311,29.0453,-0.954114,1.26318,-4.09967,-31.0017,0.143684,-2.88877,-2.11321,-28.6707,0.058202,-10.3327,5.84937,28.2616,0.0366506,11.0519,1.34103,28.9915,-0.952191,1.32115,-4.19462,-30.97,0.143096,-2.95182,-2.13607,-28.4354,0.0624702,0.0175025,0.791018,-1.59538,0.0222371,0.802308,-1.58582,0.0166155,-0.807333,1.5946,0.021299,-0.815499,1.58268,-0.0689216,0.839773,-1.36028,0.11445,0.814134,-1.34355,0.0275177,-0.841922,1.33617,-0.00238688,-0.833826,1.34326,-0.138247,-0.152282,-0.047739,0.0618461,-0.101363,-1.1064,0.0959451,0.120048,
-10.3694,5.71271,28.3041,0.0390765,11.0527,1.06411,29.0469,-0.947842,1.26058,-4.18355,-31.0297,0.151999,-2.91356,-1.986,-28.7079,0.100298,-10.389,5.80636,28.2295,0.03877,11.048,1.37391,29.0258,-0.945419,1.25098,-4.09927,-31.0035,0.152664,-2.89744,-2.07861,-28.7626,0.112186,0.0175301,0.791098,-1.59542,0.0222674,0.802438,-1.58582,0.016723,-0.807436,1.59458,0.0214048,-0.815737,1.5827,-0.0687622,0.838999,-1.35966,0.114488,0.811553,-1.34329,0.0276039,-0.842626,1.33595,-0.0025213,-0.833056,1.34378,-0.140146,-0.161904,-0.0572003,0.00176842,-0.101069,-1.10975,0.0947989,0.102066,
-10.4165,5.72564,28.2716,0.0370286,11.0145,1.20795,29.1203,-0.961681,1.18463,-4.13051,-31.0666,0.157104,-2.87804,-2.22004,-28.8985,0.143411,-10.3733,5.70182,28.3041,0.0374745,11.0491,1.02891,29.0925,-0.968137,1.24857,-4.18322,-31.0283,0.156437,-2.92786,-1.97985,-28.7644,0.149401,0.0175644,0.791185,-1.59545,0.0223002,0.802554,-1.58576,0.0168333,-0.807523,1.59457,0.0215146,-0.815887,1.58274,-0.0690974,0.839198,-1.35992,0.114227,0.812884,-1.34272,0.0270933,-0.842191,1.33563,-0.00208539,-0.834672,1.34191,-0.138532,-0.148146,-0.0618538,-0.0334273,-0.101504,-1.10983,0.0952501,0.109984,
-10.2343,5.68203,28.2248,0.0399059,10.9734,1.11608,28.9314,-0.976331,1.27455,-4.20358,-31.0907,0.165197,-3.02741,-2.01407,-28.4764,0.122847,-10.4085,5.7155,28.2689,0.0385225,11.0225,1.08967,29.3258,-0.999829,1.18695,-4.13597,-31.0586,0.163988,-2.87453,-2.16239,-28.9531,0.130063,0.0175903,0.791269,-1.59546,0.0223264,0.80264,-1.58568,0.0169279,-0.807577,1.59455,0.0216097,-0.815975,1.58272,-0.06762,0.838928,-1.36028,0.113827,0.812618,-1.34501,0.0278498,-0.84275,1.33536,-0.00333123,-0.83313,1.34529,-0.140201,-0.131425,-0.0692237,-0.00835291,-0.100295,-1.10776,0.0959736,0.114494,
-10.1741,5.68027,28.2354,0.0420159,10.9675,1.1386,28.8027,-0.974014,1.33779,-4.20806,-31.1638,0.169176,-3.06827,-1.99305,-28.2852,0.107866,-10.2233,5.66966,28.2206,0.0420686,10.9822,1.04307,29.0371,-0.993368,1.27994,-4.20896,-31.0824,0.168997,-3.02447,-2.0176,-28.4239,0.103919,0.0175979,0.791362,-1.59546,0.0223341,0.802739,-1.58559,0.0170031,-0.807607,1.59451,0.0216848,-0.816094,1.58269,-0.0672036,0.839029,-1.36015,0.113699,0.812938,-1.34599,0.0283427,-0.842734,1.33469,-0.00366666,-0.832992,1.34655,-0.142497,-0.135555,-0.0734083,0.00907766,-0.100482,-1.10957,0.0957678,0.116943,
-10.2032,5.63464,28.1783,0.0420251,11.0022,1.06357,28.8796,-0.967034,1.27427,-4.16002,-31.1514,0.172442,-2.98317,-1.91316,-28.5081,0.0998489,-10.1615,5.67264,28.233,0.0420506,10.9745,1.16087,28.7112,-0.952349,1.34293,-4.21199,-31.1591,0.172083,-3.06003,-1.97508,-28.2937,0.103809,0.0175825,0.791429,-1.59546,0.0223197,0.802805,-1.58547,0.0170375,-0.807616,1.59449,0.0217183,-0.816207,1.58269,-0.0675622,0.838718,-1.36061,0.113896,0.812375,-1.34506,0.027753,-0.84229,1.33474,-0.00303666,-0.832418,1.34461,-0.14266,-0.147036,-0.0767972,0.0160931,-0.100635,-1.11407,0.0956447,0.115942,
-10.1169,5.57625,28.1774,0.040118,11.0101,0.920835,28.7951,-0.960863,1.31273,-4.28114,-31.1727,0.179815,-3.0174,-1.70142,-28.411,0.110229,-10.1977,5.62277,28.1762,0.0397382,11.0067,1.04451,28.8718,-0.961691,1.27716,-4.17177,-31.1429,0.179414,-2.98405,-1.89458,-28.5842,0.0997494,0.0175478,0.791527,-1.59544,0.0222857,0.80294,-1.58541,0.01706,-0.807606,1.59444,0.0217407,-0.816343,1.58267,-0.0669042,0.83834,-1.36059,0.113877,0.811378,-1.34576,0.0280465,-0.843191,1.33448,-0.00335256,-0.831143,1.34632,-0.140276,-0.150388,-0.0843521,0.00515947,-0.100158,-1.11125,0.0954626,0.115388,
-10.0835,5.57402,28.2242,0.0235295,10.9839,0.757766,28.867,-0.971997,1.38462,-4.36967,-31.181,0.181645,-3.06655,-1.60815,-28.2119,0.123819,-10.1169,5.57053,28.1845,0.0265798,11.0097,0.904728,28.7851,-0.959633,1.30967,-4.28994,-31.1664,0.182305,-3.0175,-1.67147,-28.4163,0.122426,0.0175164,0.791611,-1.59542,0.0222546,0.803101,-1.58537,0.0170804,-0.807574,1.59439,0.0217617,-0.816484,1.58266,-0.0666181,0.838431,-1.36038,0.113678,0.810643,-1.34602,0.0286671,-0.843864,1.33436,-0.00376436,-0.830656,1.34808,-0.124084,-0.132259,-0.0869582,-0.00826162,-0.100555,-1.10426,0.094687,0.115557,
-10.1351,5.53279,28.2773,0.0185662,11.053,0.707619,28.8124,-0.943088,1.30936,-4.45874,-31.2723,0.179638,-3.02185,-1.6602,-28.2187,0.111571,-10.0857,5.58891,28.1886,0.0176267,10.9821,0.83019,28.6831,-0.944042,1.37927,-4.37517,-31.1788,0.180847,-3.0715,-1.60768,-28.2037,0.131804,0.0174949,0.791677,-1.5954,0.022233,0.803244,-1.5853,0.0171039,-0.807535,1.59434,0.0217845,-0.816592,1.58262,-0.0670202,0.837871,-1.35947,0.114283,0.809484,-1.34465,0.0280968,-0.844557,1.33358,-0.00333288,-0.830765,1.34734,-0.120088,-0.166108,-0.0862349,-0.00619403,-0.101521,-1.1092,0.0934031,0.105377,
-10.1965,5.55801,28.2668,-0.000572607,11.0039,0.548058,28.8531,-0.94435,1.32705,-4.48341,-31.2401,0.175934,-3.01214,-1.61157,-28.3548,0.120522,-10.1345,5.55658,28.2375,0.0106014,11.0522,0.689325,28.8275,-0.954228,1.30587,-4.46288,-31.2682,0.176768,-3.02787,-1.64061,-28.2484,0.123818,0.0174831,0.791689,-1.59534,0.0222218,0.803348,-1.58522,0.0171252,-0.807503,1.5943,0.0218065,-0.816656,1.58257,-0.0675231,0.838118,-1.35971,0.113886,0.808174,-1.34414,0.028289,-0.84474,1.33382,-0.00320933,-0.830635,1.34668,-0.101213,-0.160725,-0.0830691,-0.0232204,-0.101786,-1.10508,0.0928644,0.097302,
-10.0461,5.56712,28.2142,0.00401534,10.9742,0.859652,28.4912,-0.949009,1.32784,-4.47914,-31.2824,0.174442,-3.1321,-1.63346,-28.0911,0.14645,-10.1945,5.55594,28.2611,0.00280393,11.0063,0.565824,28.7977,-0.949705,1.31776,-4.48285,-31.2354,0.172723,-3.02425,-1.6356,-28.3144,0.125342,0.0174736,0.791721,-1.59533,0.0222114,0.803427,-1.58508,0.0171614,-0.807474,1.59426,0.0218421,-0.816704,1.58251,-0.0662995,0.838206,-1.36009,0.113604,0.810628,-1.34668,0.0283724,-0.844718,1.33343,-0.00413317,-0.830725,1.34876,-0.104691,-0.154838,-0.0796557,-0.0324561,-0.100676,-1.10385,0.094786,0.113994,
-9.96186,5.54142,28.2885,-0.0101732,10.9679,0.805783,28.442,-0.971065,1.36406,-4.43565,-31.3001,0.174171,-3.19152,-1.69133,-27.9712,0.150956,-10.0277,5.56094,28.2148,0.00575636,10.9894,0.789869,28.5846,-0.960262,1.33718,-4.48357,-31.2731,0.173832,-3.12542,-1.64749,-28.057,0.146902,0.0174447,0.791755,-1.59531,0.0221835,0.803508,-1.58495,0.0171894,-0.807449,1.59421,0.0218695,-0.81673,1.58245,-0.065771,0.838394,-1.36019,0.113385,0.810822,-1.34797,0.0285889,-0.844319,1.3332,-0.00471057,-0.831226,1.34972,-0.0903419,-0.141303,-0.0791357,-0.0368468,-0.100515,-1.11237,0.0950353,0.114109,
-10.0117,5.59405,28.2438,-0.0130931,11.0274,0.515459,28.7161,-0.976467,1.37097,-4.49807,-31.2931,0.177195,-3.09621,-1.62979,-28.0416,0.142516,-9.94464,5.59637,28.1934,-0.0110487,10.9844,0.732116,28.4264,-0.958111,1.38197,-4.4479,-31.291,0.178351,-3.17587,-1.69737,-27.9428,0.151598,0.0173763,0.791771,-1.59529,0.0221209,0.803652,-1.58488,0.0171798,-0.807415,1.59416,0.0218598,-0.816762,1.5824,-0.066328,0.838359,-1.35976,0.113735,0.808604,-1.34644,0.0284721,-0.84474,1.33319,-0.00408984,-0.830795,1.34914,-0.0883617,-0.137519,-0.0836701,-0.0386342,-0.101455,-1.11399,0.093525,0.103882,
-9.98941,5.59955,28.2438,-0.0267431,11.0372,0.528714,28.5233,-0.934411,1.38052,-4.62937,-31.3686,0.179616,-3.07439,-1.53692,-27.9415,0.153774,-10.011,5.60472,28.2385,-0.0254409,11.0278,0.55452,28.5026,-0.942388,1.37326,-4.50714,-31.2906,0.179888,-3.09366,-1.62876,-28.0359,0.146096,0.0173109,0.791753,-1.59525,0.022051,0.803771,-1.58477,0.0171451,-0.807363,1.59411,0.0218254,-0.816808,1.58237,-0.0661515,0.838305,-1.35971,0.113809,0.808385,-1.34622,0.0285336,-0.845758,1.33255,-0.00392836,-0.830064,1.35,-0.0751449,-0.172218,-0.0863681,-0.0436215,-0.101888,-1.10663,0.0932477,0.110153,
-9.88198,5.66837,28.1312,-0.0349206,10.9736,0.699229,28.4236,-0.950127,1.41552,-4.64951,-31.4085,0.178816,-3.16587,-1.55358,-27.6251,0.17234,-9.99311,5.60908,28.2366,-0.0347867,11.0333,0.45629,28.6374,-0.957941,1.38131,-4.63496,-31.3644,0.177429,-3.07324,-1.53623,-27.9352,0.161174,0.017265,0.791714,-1.5952,0.022006,0.803904,-1.58468,0.0171174,-0.807308,1.59406,0.0217976,-0.816839,1.58232,-0.0652031,0.838793,-1.36059,0.113329,0.810385,-1.34796,0.02883,-0.845875,1.33217,-0.00468673,-0.829881,1.35195,-0.066751,-0.149461,-0.0842231,-0.0403396,-0.101672,-1.09959,0.0945928,0.132001,
-10.067,5.63751,28.2297,-0.0376355,11.0284,0.314681,28.7531,-0.945072,1.33276,-4.62937,-31.4037,0.1756,-3.02795,-1.61157,-27.9396,0.152989,-9.88102,5.67289,28.1247,-0.0359527,10.9742,0.630556,28.503,-0.951909,1.4229,-4.65332,-31.4083,0.177935,-3.15876,-1.5485,-27.6269,0.177279,0.0172364,0.79167,-1.59514,0.0219764,0.804065,-1.58465,0.0170916,-0.807258,1.59402,0.0217715,-0.816863,1.58227,-0.0667395,0.838505,-1.35972,0.113782,0.807358,-1.34507,0.028096,-0.845667,1.33221,-0.00356571,-0.830235,1.34902,-0.0656831,-0.164768,-0.0831062,-0.0397889,-0.103319,-1.10984,0.0924939,0.113201,
-10.03,5.62307,28.2191,-0.0386635,11.0037,0.330415,28.6415,-0.955153,1.35259,-4.74864,-31.4019,0.177326,-3.05858,-1.54141,-27.7628,0.157938,-10.0746,5.64354,28.2223,-0.0390729,11.0212,0.335809,28.7125,-0.959498,1.32831,-4.63561,-31.4019,0.17689,-3.02997,-1.61792,-27.9636,0.157477,0.0172201,0.791632,-1.5951,0.0219602,0.804179,-1.58458,0.01707,-0.807211,1.594,0.021751,-0.816879,1.58224,-0.066361,0.838333,-1.35975,0.113641,0.807303,-1.34568,0.0283037,-0.846602,1.33221,-0.00378044,-0.829516,1.35038,-0.0641617,-0.146439,-0.0845185,-0.0420116,-0.102825,-1.10159,0.0928072,0.115926,
-10.0269,5.65836,28.1985,-0.040512,10.9657,0.576866,28.5346,-1.01117,1.36646,-4.73069,-31.3624,0.175877,-3.09753,-1.58864,-27.8401,0.187867,-10.029,5.63003,28.215,-0.0406734,11.0029,0.371463,28.6315,-1.00901,1.34824,-4.74722,-31.4021,0.175319,-3.0616,-1.48797,-27.8564,0.181429,0.0172206,0.791595,-1.59506,0.0219596,0.804216,-1.58454,0.0170675,-0.807181,1.59398,0.0217479,-0.816891,1.58222,-0.0663434,0.838566,-1.35989,0.113342,0.808976,-1.34647,0.0284618,-0.846471,1.33254,-0.00407438,-0.830395,1.3506,-0.0620348,-0.0873602,-0.0822022,-0.0674173,-0.102547,-1.09853,0.0936752,0.12045,
-10.1148,5.66947,28.1605,-0.0399631,10.9872,0.841806,28.5815,-1.08099,1.25404,-4.59186,-31.2357,0.175386,-3.04215,-1.83009,-28.1053,0.173144,-10.0182,5.66223,28.1987,-0.0405943,10.9757,0.639485,28.5126,-1.07038,1.36454,-4.72892,-31.3627,0.174013,-3.09963,-1.63243,-27.7701,0.18179,0.0172111,0.79155,-1.59502,0.0219498,0.804129,-1.58444,0.0170731,-0.807151,1.59395,0.0217529,-0.816875,1.58217,-0.0671488,0.838628,-1.36022,0.11344,0.810624,-1.34589,0.0275476,-0.845329,1.33359,-0.00357474,-0.831879,1.34751,-0.0619711,-0.0249084,-0.0803921,-0.0561621,-0.101934,-1.1059,0.0949941,0.116982,
-10.1219,5.66405,28.1436,-0.0364307,11.0082,0.975529,28.5449,-1.11717,1.20708,-4.56353,-31.1314,0.182457,-3.01741,-1.87615,-28.2367,0.163093,-10.1007,5.6702,28.1635,-0.0377272,11.001,0.886534,28.5642,-1.11214,1.25726,-4.59777,-31.2326,0.180837,-3.03902,-1.8323,-28.103,0.170626,0.0171778,0.791512,-1.59499,0.0219171,0.803961,-1.58434,0.0170731,-0.807126,1.59394,0.0217531,-0.816854,1.58214,-0.0673317,0.838584,-1.3604,0.113495,0.811334,-1.34604,0.0271293,-0.845039,1.33443,-0.00338676,-0.832165,1.34624,-0.0643214,0.00816178,-0.0862374,-0.050759,-0.100752,-1.10901,0.0962191,0.112334,
-10.1231,5.67102,28.1845,-0.0327515,11.0421,1.1257,28.539,-1.14038,1.15679,-4.55162,-31.097,0.19139,-2.99179,-1.9321,-28.3731,0.159286,-10.1072,5.66111,28.1527,-0.0335716,11.0227,1.01499,28.5293,-1.13565,1.20931,-4.5727,-31.1282,0.190061,-3.01537,-1.88278,-28.2259,0.159538,0.0171196,0.791484,-1.59498,0.0218598,0.803735,-1.58422,0.017067,-0.807088,1.59392,0.0217474,-0.816836,1.58211,-0.0674734,0.83867,-1.36014,0.113649,0.812235,-1.34595,0.026687,-0.844856,1.33469,-0.00317311,-0.83265,1.34515,-0.0673384,0.0276809,-0.0944061,-0.0497011,-0.10009,-1.1127,0.0969843,0.109585,
-10.0838,5.67075,28.2192,-0.0288382,11.063,1.20978,28.4842,-1.15022,1.13968,-4.57187,-31.0646,0.199745,-3.00316,-1.93246,-28.3597,0.155129,-10.1087,5.66701,28.1929,-0.029656,11.0566,1.15146,28.5281,-1.1464,1.15939,-4.56059,-31.0936,0.198771,-2.98431,-1.91527,-28.4071,0.162136,0.017053,0.791472,-1.595,0.0217943,0.803521,-1.58411,0.0170587,-0.807045,1.5939,0.0217383,-0.816829,1.58211,-0.0672684,0.83871,-1.35994,0.113701,0.812697,-1.34631,0.0265275,-0.844943,1.33493,-0.00331291,-0.832632,1.34524,-0.070608,0.0339923,-0.102256,-0.0471494,-0.0994462,-1.11623,0.0974882,0.107979,
-10.0614,5.64988,28.2738,-0.0231178,11.099,1.16557,28.5445,-1.11104,1.12842,-4.65179,-31.1378,0.209141,-2.98579,-1.94148,-28.3257,0.151157,-10.0741,5.65934,28.2282,-0.0231185,11.0723,1.19319,28.4897,-1.11231,1.14775,-4.59022,-31.0613,0.208913,-2.99514,-1.9308,-28.3549,0.15278,0.0169652,0.791481,-1.59503,0.0217087,0.803313,-1.58401,0.0170397,-0.806973,1.59387,0.0217197,-0.81681,1.58207,-0.0671639,0.83864,-1.35957,0.113922,0.812475,-1.34585,0.026363,-0.845443,1.33429,-0.00323077,-0.832648,1.34533,-0.0767331,-0.00620966,-0.112156,-0.0422599,-0.0998509,-1.11725,0.0969849,0.108897,
-9.99629,5.62224,28.3034,-0.0195203,11.1102,1.085,28.5386,-1.08138,1.15798,-4.77087,-31.2124,0.213702,-3.01592,-1.84577,-28.1874,0.162017,-10.055,5.64141,28.279,-0.0193249,11.1056,1.14891,28.5489,-1.08442,1.13505,-4.66496,-31.1366,0.21391,-2.97602,-1.87474,-28.4462,0.168699,0.0168977,0.791506,-1.59507,0.0216424,0.803213,-1.58395,0.017015,-0.806896,1.59385,0.021695,-0.816814,1.58206,-0.0666633,0.838486,-1.35937,0.113972,0.811944,-1.34594,0.0265606,-0.846316,1.33365,-0.00355196,-0.832094,1.34689,-0.0807477,-0.034674,-0.11741,-0.0490996,-0.100268,-1.11605,0.096292,0.112917,
-9.96028,5.59174,28.3482,-0.017002,11.1318,1.01759,28.5548,-1.05918,1.181,-4.86383,-31.2993,0.214048,-3.03323,-1.76465,-28.1235,0.177083,-9.99215,5.61223,28.3097,-0.0165278,11.1144,1.07091,28.542,-1.06212,1.16294,-4.78231,-31.2123,0.214837,-3.00997,-1.80419,-28.2633,0.175819,0.016836,0.791547,-1.59512,0.0215816,0.803158,-1.58391,0.016987,-0.806806,1.59382,0.0216672,-0.816813,1.58204,-0.0663959,0.83832,-1.35906,0.114118,0.811507,-1.34583,0.0267143,-0.84699,1.33293,-0.00374002,-0.831731,1.34799,-0.0839152,-0.0551709,-0.118606,-0.0617668,-0.100917,-1.11435,0.0954424,0.115316,
-9.94871,5.57442,28.3645,-0.0155926,11.1347,1.00315,28.5817,-1.0492,1.16796,-4.91447,-31.3499,0.212256,-3.04262,-1.82662,-28.0073,0.175391,-9.95883,5.5819,28.3554,-0.0150888,11.1334,1.008,28.5578,-1.04805,1.18286,-4.87334,-31.3003,0.212784,-3.0313,-1.76647,-28.1212,0.181465,0.0167789,0.791605,-1.59517,0.021525,0.803135,-1.58388,0.0169572,-0.806706,1.59381,0.0216374,-0.816808,1.582,-0.0662991,0.838267,-1.35899,0.114141,0.811462,-1.34563,0.0265984,-0.84733,1.33251,-0.00382144,-0.831916,1.34833,-0.0859007,-0.066922,-0.117279,-0.0557303,-0.101493,-1.11612,0.0949774,0.119661,
-9.93644,5.55094,28.3726,-0.0134388,11.1397,0.970995,28.5865,-1.0443,1.16063,-4.95995,-31.3752,0.209659,-3.04883,-1.82323,-27.9832,0.179964,-9.94461,5.5648,28.3697,-0.0133659,11.1373,0.99682,28.5835,-1.04309,1.17137,-4.92322,-31.35,0.21012,-3.03874,-1.78902,-28.0792,0.188776,0.016734,0.79167,-1.59523,0.021478,0.803135,-1.58387,0.0169317,-0.80661,1.59379,0.0216121,-0.816803,1.58198,-0.0662193,0.838161,-1.35898,0.114168,0.811243,-1.34561,0.0265169,-0.847627,1.33229,-0.00389287,-0.831885,1.34853,-0.0883247,-0.0731963,-0.114936,-0.0584724,-0.101764,-1.11749,0.0947226,0.121492,
-9.86053,5.51975,28.414,-0.0113991,11.1397,0.919321,28.4951,-1.03843,1.21926,-5.04689,-31.4301,0.204715,-3.11532,-1.81326,-27.6722,0.178275,-9.93384,5.5429,28.3796,-0.011538,11.1422,0.964929,28.589,-1.04053,1.16249,-4.96359,-31.3768,0.205541,-3.04931,-1.84264,-27.9459,0.183108,0.0166924,0.791735,-1.59528,0.0214372,0.803146,-1.58386,0.0169067,-0.80653,1.59379,0.0215866,-0.81679,1.58194,-0.0656025,0.837976,-1.3587,0.114149,0.810861,-1.34639,0.026995,-0.848316,1.33184,-0.00443487,-0.831567,1.35067,-0.0903643,-0.077144,-0.110437,-0.0562592,-0.101763,-1.11557,0.0942775,0.122016,
-9.8509,5.50481,28.4322,-0.0103108,11.1506,0.913487,28.5027,-1.03794,1.23389,-5.05289,-31.4552,0.195983,-3.12418,-1.85234,-27.6336,0.181819,-9.8561,5.51133,28.4193,-0.00998629,11.1443,0.913162,28.5005,-1.03699,1.22202,-5.04556,-31.4331,0.196876,-3.11154,-1.80287,-27.6983,0.183487,0.0166543,0.791807,-1.59534,0.0214014,0.803168,-1.58387,0.0168838,-0.806462,1.59378,0.0215651,-0.81679,1.58194,-0.0655598,0.837931,-1.3586,0.114202,0.810866,-1.34638,0.0270924,-0.848376,1.33166,-0.00453314,-0.831906,1.35107,-0.0919284,-0.0786816,-0.102236,-0.0592664,-0.102239,-1.11662,0.0937474,0.122552,
-9.8684,5.41595,28.3747,-0.00869468,11.2016,0.823808,28.5632,-1.04333,1.22174,-5.13054,-31.4116,0.174012,-3.09897,-1.84995,-27.8273,0.188615,-9.84456,5.49583,28.4361,-0.00828164,11.157,0.905106,28.5084,-1.03615,1.23746,-5.06136,-31.4272,0.178908,-3.1222,-1.83833,-27.6652,0.188234,0.0166129,0.79188,-1.59539,0.0213604,0.803202,-1.58388,0.0168577,-0.806418,1.59378,0.0215402,-0.816798,1.58197,-0.0657782,0.837268,-1.35911,0.114556,0.810199,-1.34593,0.0269333,-0.848935,1.33173,-0.00436714,-0.832292,1.35028,-0.0941288,-0.0805807,-0.0815343,-0.0763051,-0.102823,-1.12391,0.0924773,0.112309,
-9.96058,5.45205,28.3275,-0.00961927,11.1763,0.866158,28.6591,-1.04267,1.16633,-4.92336,-31.3729,0.1798,-3.04249,-1.92389,-28.0544,0.182938,-9.87202,5.41245,28.3793,-0.0096847,11.1985,0.820932,28.5643,-1.04356,1.2136,-5.08382,-31.4908,0.179671,-3.10238,-1.86755,-27.7993,0.186012,0.0165868,0.79193,-1.59543,0.0213348,0.803229,-1.5839,0.0168444,-0.806419,1.59381,0.0215267,-0.816807,1.582,-0.0665103,0.837606,-1.35956,0.114379,0.810572,-1.34515,0.0265459,-0.847585,1.33269,-0.00384725,-0.832615,1.34787,-0.0931195,-0.0802134,-0.0864784,-0.0687113,-0.102739,-1.12289,0.0933217,0.114227,
-9.9494,5.45309,28.4119,-0.00623775,11.1956,0.882784,28.7203,-1.03603,1.05852,-4.83281,-31.4126,0.165739,-2.9929,-1.78743,-28.1253,0.213588,-9.9659,5.44269,28.3361,-0.00736018,11.1708,0.863932,28.6603,-1.04094,1.15839,-4.90887,-31.3851,0.175134,-3.05415,-1.91914,-28.0648,0.186446,0.0165665,0.791997,-1.59548,0.021315,0.803263,-1.58392,0.016843,-0.806443,1.59384,0.0215266,-0.816814,1.58204,-0.0663929,0.837694,-1.35893,0.114566,0.810738,-1.34465,0.0257006,-0.846755,1.33204,-0.00336914,-0.831819,1.34794,-0.0955701,-0.0821579,-0.0709151,-0.0830235,-0.101808,-1.11819,0.0948239,0.130564,
-9.99769,5.38521,28.3466,-0.00446062,11.1589,0.852193,28.6835,-1.07306,1.11529,-4.81974,-31.3311,0.172284,-3.04242,-1.95315,-28.1857,0.180733,-9.95054,5.44862,28.4161,-0.00404873,11.1948,0.895355,28.7251,-1.05681,1.05484,-4.80535,-31.4528,0.168913,-2.99542,-1.8166,-28.0834,0.210895,0.0165584,0.792048,-1.59553,0.0213066,0.80329,-1.58396,0.0168515,-0.806467,1.59385,0.0215353,-0.816818,1.58207,-0.0667766,0.837178,-1.35952,0.114276,0.810343,-1.34497,0.0262343,-0.846943,1.33322,-0.00372994,-0.832804,1.3468,-0.0979159,-0.0593112,-0.0791057,-0.0753959,-0.102376,-1.13237,0.0931786,0.105337,
-9.99248,5.38978,28.3615,-0.00263099,11.179,1.0366,28.6406,-1.09835,1.07531,-4.75003,-31.2615,0.166157,-3.04485,-1.96692,-28.2933,0.204618,-9.99257,5.3788,28.3574,-0.00368838,11.1633,0.89145,28.6703,-1.10271,1.11137,-4.83531,-31.2698,0.153283,-3.05153,-1.95666,-28.1936,0.186913,0.0165443,0.792116,-1.59559,0.0212932,0.803233,-1.58396,0.016876,-0.806512,1.59387,0.0215605,-0.816801,1.5821,-0.0667852,0.837277,-1.35949,0.1144,0.811541,-1.34521,0.0259431,-0.846451,1.33375,-0.00368608,-0.833182,1.34656,-0.0987512,-0.0280538,-0.0715338,-0.0928172,-0.101382,-1.1264,0.0946232,0.111801,
-9.89719,5.38927,28.4602,0.00109167,11.2039,1.14777,28.5582,-1.11204,1.06772,-4.713,-31.2639,0.153037,-3.08167,-1.95588,-28.1116,0.21963,-9.98235,5.38196,28.3714,-0.0001086,11.1893,1.06446,28.6328,-1.11419,1.07339,-4.76627,-31.2056,0.152847,-3.04284,-1.96082,-28.3201,0.211362,0.0165202,0.792183,-1.59566,0.02127,0.803121,-1.58393,0.0169064,-0.806575,1.5939,0.0215901,-0.816781,1.58213,-0.0660794,0.837343,-1.35876,0.114516,0.812226,-1.34583,0.0258961,-0.846023,1.33327,-0.00401072,-0.833161,1.34835,-0.101485,-0.0114704,-0.0575073,-0.0999111,-0.100393,-1.12351,0.0955301,0.119718,
-9.94616,5.35521,28.398,0.00475491,11.2245,1.22582,28.6239,-1.13176,1.05664,-4.59534,-31.1852,0.152124,-3.05416,-2.14858,-28.3168,0.197988,-9.88191,5.37954,28.4671,0.00492314,11.219,1.16682,28.5528,-1.11882,1.07115,-4.69476,-31.281,0.152887,-3.07876,-1.96084,-28.1191,0.220991,0.0164762,0.792254,-1.59573,0.021227,0.802987,-1.58389,0.0169277,-0.806645,1.59391,0.0216113,-0.816751,1.58217,-0.0666112,0.837147,-1.35935,0.114566,0.812703,-1.34523,0.0257821,-0.845214,1.33409,-0.00379455,-0.834427,1.34613,-0.105609,-0.00434974,-0.0573855,-0.0908647,-0.100854,-1.13611,0.0947389,0.107123,
-9.92704,5.32233,28.395,0.0095275,11.2719,1.27152,28.6613,-1.12983,0.997382,-4.53145,-31.1713,0.157267,-3.01538,-2.1368,-28.4423,0.197984,-9.9339,5.34239,28.4103,0.00845292,11.2369,1.24291,28.6183,-1.13144,1.05768,-4.58873,-31.1896,0.156211,-3.0545,-2.1698,-28.293,0.19119,0.0164108,0.792333,-1.59581,0.0211589,0.802841,-1.58386,0.0169368,-0.806719,1.59394,0.0216207,-0.816711,1.5822,-0.0665601,0.836991,-1.35947,0.114838,0.81294,-1.34487,0.0252791,-0.844744,1.33425,-0.00344916,-0.834177,1.34546,-0.109553,-0.00472464,-0.0616408,-0.0851856,-0.100026,-1.13456,0.0956263,0.112798,
-9.90389,5.30035,28.4171,0.0138598,11.2851,1.30801,28.6606,-1.12895,0.983956,-4.49433,-31.1824,0.160626,-3.00649,-2.09995,-28.4903,0.214485,-9.91625,5.30835,28.406,0.0133965,11.2802,1.28509,28.653,-1.12693,0.995698,-4.52206,-31.1787,0.160263,-3.01188,-2.0953,-28.4695,0.213686,0.0163354,0.792426,-1.59589,0.0210896,0.802706,-1.58381,0.0169461,-0.806798,1.59397,0.02163,-0.816684,1.58226,-0.0664605,0.836931,-1.35938,0.114873,0.813125,-1.34481,0.0251823,-0.844517,1.33422,-0.0034005,-0.834246,1.34536,-0.113692,-0.00790288,-0.064974,-0.101226,-0.0998319,-1.13686,0.0956517,0.11326,
-9.87485,5.27119,28.44,0.0173748,11.2963,1.34777,28.6456,-1.12678,0.973842,-4.47458,-31.1971,0.165214,-3.02045,-2.12805,-28.4685,0.216568,-9.8975,5.28752,28.4271,0.0170571,11.2911,1.31905,28.6529,-1.12508,0.981093,-4.49167,-31.1838,0.164962,-3.00894,-2.11171,-28.4806,0.215247,0.0162748,0.792511,-1.59597,0.0210304,0.802592,-1.58377,0.0169584,-0.806858,1.59399,0.021642,-0.816647,1.58228,-0.0662752,0.836799,-1.35928,0.114912,0.813359,-1.34487,0.0251227,-0.844378,1.33411,-0.00349199,-0.834416,1.34554,-0.117068,-0.0121376,-0.0695959,-0.102302,-0.0996937,-1.13892,0.0956181,0.114266,
-9.75167,5.24266,28.4904,0.0216896,11.2941,1.36466,28.5004,-1.12039,1.03997,-4.5238,-31.2331,0.1716,-3.11979,-2.08424,-28.1645,0.222095,-9.86573,5.25634,28.4505,0.0210989,11.3053,1.35711,28.6377,-1.12121,0.973273,-4.47507,-31.1983,0.171297,-3.02027,-2.12999,-28.4808,0.219942,0.0162048,0.792615,-1.59606,0.020962,0.802476,-1.58371,0.0169725,-0.806909,1.59402,0.0216566,-0.816601,1.58231,-0.0653263,0.836693,-1.35895,0.114816,0.813419,-1.34601,0.0256797,-0.84479,1.33382,-0.00431196,-0.833996,1.34818,-0.120992,-0.0181358,-0.0761598,-0.104362,-0.0993024,-1.13853,0.0954405,0.117733,
-9.81073,5.22669,28.4989,0.0244748,11.3308,1.43862,28.6358,-1.1186,0.974015,-4.44583,-31.2687,0.176973,-3.04802,-2.24647,-28.4301,0.226523,-9.73752,5.22556,28.498,0.0251286,11.3075,1.36962,28.4965,-1.11358,1.04314,-4.5239,-31.236,0.17695,-3.11547,-2.08835,-28.1692,0.22649,0.0161238,0.792734,-1.59614,0.0208875,0.80236,-1.58366,0.0169827,-0.806956,1.59404,0.0216652,-0.816546,1.58234,-0.0659315,0.836709,-1.35895,0.115006,0.813991,-1.34484,0.0251106,-0.84414,1.33355,-0.00374511,-0.835279,1.34596,-0.124556,-0.0254006,-0.0818825,-0.107778,-0.100081,-1.144,0.0950907,0.118745,
-9.7024,5.16008,28.4943,0.0288251,11.3457,1.37703,28.5532,-1.11045,0.998233,-4.52173,-31.2963,0.184055,-3.0977,-2.17683,-28.2189,0.224594,-9.80217,5.21323,28.5077,0.027868,11.3381,1.44259,28.6322,-1.11159,0.976377,-4.45153,-31.2676,0.183481,-3.05205,-2.30085,-28.333,0.209823,0.0160591,0.792824,-1.59621,0.0208192,0.802285,-1.58362,0.0169815,-0.806976,1.59405,0.0216651,-0.816489,1.58234,-0.0651228,0.836275,-1.35906,0.115047,0.81345,-1.3455,0.0252809,-0.84472,1.33331,-0.00415708,-0.834578,1.34755,-0.128334,-0.0330219,-0.0889924,-0.103474,-0.0995086,-1.14347,0.0950626,0.12112,
-9.66762,5.15404,28.5311,0.0317399,11.3436,1.329,28.5731,-1.07134,1.0285,-4.56699,-31.3837,0.190461,-3.10227,-2.17915,-28.1268,0.230339,-9.69988,5.14404,28.4992,0.0321814,11.347,1.35309,28.5565,-1.0754,1.00116,-4.52871,-31.2965,0.190851,-3.09753,-2.21988,-28.1424,0.21221,0.0159757,0.792948,-1.59629,0.0207409,0.802222,-1.58356,0.016975,-0.806984,1.59407,0.0216586,-0.81644,1.58237,-0.0648699,0.836369,-1.35879,0.115002,0.813278,-1.34536,0.025495,-0.845032,1.3326,-0.00423013,-0.83457,1.34833,-0.131948,-0.0712055,-0.0961153,-0.103562,-0.100208,-1.14255,0.0943454,0.126776,
-9.612,5.1013,28.5153,0.0363849,11.3307,1.17076,28.6042,-1.02643,1.0682,-4.65454,-31.4894,0.195249,-3.11264,-2.0752,-27.9531,0.240773,-9.67137,5.13714,28.5302,0.0367954,11.3409,1.29183,28.5822,-1.03187,1.03308,-4.57652,-31.3846,0.195727,-3.10082,-2.21778,-28.0519,0.218448,0.0159118,0.793079,-1.59635,0.0206782,0.802263,-1.58355,0.0169573,-0.806972,1.59408,0.021641,-0.816402,1.5824,-0.0643902,0.836078,-1.35891,0.114903,0.812301,-1.34518,0.0257748,-0.845678,1.33172,-0.00436582,-0.83371,1.3498,-0.137411,-0.113077,-0.101866,-0.104217,-0.101026,-1.13951,0.0933829,0.136556,
-9.58583,5.06673,28.5024,0.0393901,11.3079,1.0578,28.6331,-0.996572,1.09599,-4.72574,-31.5773,0.196684,-3.12139,-2.02529,-27.8315,0.254721,-9.61999,5.08611,28.5133,0.0400037,11.3234,1.13994,28.6121,-1.00084,1.06826,-4.66143,-31.4901,0.197477,-3.11594,-2.11668,-27.8788,0.232715,0.0158718,0.793212,-1.59639,0.0206378,0.802368,-1.58356,0.0169366,-0.806945,1.5941,0.0216206,-0.816371,1.58242,-0.0641189,0.835924,-1.35899,0.114762,0.811642,-1.34501,0.025996,-0.846211,1.33101,-0.00445032,-0.83327,1.35083,-0.141325,-0.1402,-0.104186,-0.108987,-0.101935,-1.13677,0.0924982,0.145733,
-9.57323,5.04076,28.4785,0.0420729,11.2754,1.0023,28.5891,-0.970701,1.10811,-4.76254,-31.622,0.196441,-3.13676,-2.0034,-27.7594,0.268906,-9.59502,5.05444,28.4989,0.0423587,11.299,1.03253,28.6392,-0.98116,1.09308,-4.73016,-31.5769,0.196875,-3.12786,-2.06825,-27.7585,0.248332,0.0158558,0.793342,-1.59641,0.0206209,0.802505,-1.58357,0.0169223,-0.806913,1.59411,0.0216064,-0.81634,1.58245,-0.0639461,0.835822,-1.35915,0.114554,0.811177,-1.34498,0.0261188,-0.846475,1.33063,-0.00455862,-0.833051,1.35145,-0.144612,-0.164127,-0.104411,-0.115619,-0.102539,-1.13483,0.0920299,0.153287,
-9.61184,4.9952,28.4164,0.0469414,11.24,1.07782,28.6943,-1.02578,1.10331,-4.77432,-31.5779,0.19733,-3.11814,-2.04457,-27.8116,0.281677,-9.58558,5.02986,28.4688,0.0467383,11.2633,1.00743,28.6487,-1.02644,1.106,-4.76809,-31.6206,0.197033,-3.14234,-2.04494,-27.6884,0.262714,0.0158629,0.793466,-1.59642,0.0206271,0.8026,-1.5836,0.0169149,-0.806877,1.59412,0.0215991,-0.81631,1.58248,-0.064176,0.83554,-1.35958,0.11435,0.811752,-1.3446,0.0260882,-0.846522,1.33099,-0.00439366,-0.833367,1.35106,-0.149705,-0.105634,-0.105229,-0.122318,-0.102763,-1.13142,0.092101,0.159359,
-9.63965,4.96197,28.3591,0.0517209,11.2042,1.16183,28.7315,-1.05792,1.10061,-4.77463,-31.4953,0.198869,-3.11032,-2.03595,-27.8833,0.296125,-9.62243,4.98418,28.4048,0.0510694,11.2297,1.10733,28.7053,-1.06032,1.09947,-4.78044,-31.5751,0.19842,-3.12111,-2.08535,-27.818,0.287136,0.0158889,0.793591,-1.59639,0.0206516,0.802609,-1.58365,0.0169136,-0.806838,1.59412,0.0215977,-0.816281,1.58252,-0.064332,0.835355,-1.35995,0.114127,0.812187,-1.34435,0.0260908,-0.846471,1.33166,-0.0043377,-0.833272,1.35073,-0.154182,-0.0700371,-0.106331,-0.132795,-0.102461,-1.12796,0.0925379,0.16333,
-9.66987,4.93542,28.2813,0.0557211,11.1868,1.31354,28.7539,-1.07253,1.0726,-4.75876,-31.4374,0.201826,-3.09144,-2.13545,-28.0038,0.302652,-9.64761,4.95232,28.3524,0.0551602,11.1963,1.18645,28.7302,-1.07514,1.09554,-4.7806,-31.4913,0.200986,-3.12236,-2.07948,-27.79,0.284689,0.0159233,0.793694,-1.59636,0.020685,0.802559,-1.58367,0.0169205,-0.806795,1.59412,0.0216049,-0.816251,1.58255,-0.0645309,0.83522,-1.36053,0.114035,0.813244,-1.34415,0.0258926,-0.846286,1.33211,-0.0041121,-0.834055,1.34958,-0.157973,-0.0518477,-0.108643,-0.13442,-0.102252,-1.12438,0.0931829,0.168232,
-9.74009,4.92778,28.2201,0.0602343,11.1723,1.4022,28.8534,-1.08165,0.994132,-4.68725,-31.3609,0.20603,-3.04012,-2.23388,-28.1917,0.29323,-9.67535,4.92624,28.2759,0.0595196,11.1804,1.3291,28.7578,-1.07941,1.06838,-4.76496,-31.4323,0.20496,-3.09543,-2.17808,-27.9325,0.292554,0.0159537,0.793787,-1.59632,0.0207174,0.802487,-1.5837,0.0169309,-0.806754,1.59411,0.0216157,-0.816227,1.58259,-0.0650607,0.835243,-1.361,0.113973,0.81384,-1.34336,0.0252815,-0.845633,1.3327,-0.00364133,-0.834452,1.34728,-0.16218,-0.044563,-0.111987,-0.122038,-0.101946,-1.12621,0.0940432,0.171192,
-9.75519,4.90264,28.1864,0.0674341,11.1482,1.44908,28.8701,-1.08154,0.966288,-4.70501,-31.293,0.215135,-3.03829,-2.22352,-28.2628,0.297374,-9.74772,4.91683,28.2148,0.0664173,11.1654,1.41523,28.8589,-1.08222,0.989552,-4.70013,-31.3512,0.21396,-3.04453,-2.22768,-28.2106,0.297427,0.0159987,0.793888,-1.59628,0.0207593,0.802394,-1.58373,0.0169501,-0.806697,1.59408,0.0216356,-0.8162,1.58264,-0.065117,0.835135,-1.36124,0.113837,0.814111,-1.34327,0.0250959,-0.845663,1.33318,-0.00357882,-0.834346,1.34671,-0.168831,-0.0439512,-0.120425,-0.123876,-0.101397,-1.12549,0.09471,0.173498,
-9.71144,4.87633,28.1974,0.0749021,11.1271,1.49295,28.8173,-1.07519,1.00246,-4.77474,-31.2743,0.224407,-3.08966,-2.165,-28.2318,0.320082,-9.762,4.88672,28.183,0.0740799,11.1414,1.4608,28.8782,-1.07886,0.962316,-4.71945,-31.2819,0.223544,-3.04432,-2.21466,-28.36,0.304388,0.0160466,0.794006,-1.59624,0.0208066,0.802296,-1.58377,0.0169769,-0.806623,1.59404,0.0216616,-0.816171,1.58268,-0.0647082,0.835057,-1.36112,0.113706,0.814382,-1.34378,0.025424,-0.846113,1.33324,-0.0039864,-0.834242,1.348,-0.175962,-0.0469046,-0.129501,-0.143668,-0.10106,-1.1221,0.0949063,0.176414,
-9.68835,4.85021,28.1867,0.0827619,11.1177,1.54745,28.8159,-1.06788,1.02758,-4.81874,-31.2478,0.230307,-3.12207,-2.21811,-28.0943,0.324236,-9.71404,4.86142,28.1923,0.0823667,11.1249,1.49912,28.8291,-1.06989,1.00209,-4.78746,-31.2635,0.229976,-3.0876,-2.15039,-28.2471,0.33214,0.0160961,0.794128,-1.5962,0.0208552,0.802198,-1.58382,0.0170026,-0.806532,1.59398,0.0216864,-0.816148,1.58272,-0.0644801,0.834973,-1.36116,0.113659,0.814774,-1.3439,0.0256439,-0.846367,1.33337,-0.0042652,-0.834505,1.3487,-0.183858,-0.0525307,-0.135459,-0.144677,-0.101096,-1.12041,0.0948486,0.179559,
-9.69281,4.8236,28.1568,0.0907231,11.1201,1.58738,28.8797,-1.05961,1.01194,-4.82313,-31.2198,0.23554,-3.11049,-2.24374,-28.1572,0.335213,-9.68761,4.83362,28.1823,0.0902302,11.1183,1.54888,28.8304,-1.06053,1.03033,-4.83032,-31.2388,0.235187,-3.11886,-2.17845,-28.1813,0.342067,0.0161355,0.79425,-1.59616,0.020894,0.802118,-1.58389,0.0170195,-0.806441,1.59392,0.0217032,-0.816122,1.58276,-0.0645098,0.834897,-1.36138,0.113686,0.815091,-1.34349,0.0254982,-0.846301,1.33352,-0.00418648,-0.834738,1.3483,-0.191827,-0.0603459,-0.140491,-0.150913,-0.101104,-1.11996,0.0950491,0.184299,
-9.69306,4.78627,28.0953,0.100268,11.0936,1.59648,28.9042,-1.05265,1.03086,-4.85346,-31.1439,0.240833,-3.10826,-2.17795,-28.1633,0.335955,-9.69494,4.80178,28.1542,0.0995708,11.1183,1.58978,28.8969,-1.05084,1.01865,-4.84421,-31.1999,0.239697,-3.10455,-2.24284,-28.1633,0.33962,0.0161708,0.794393,-1.59612,0.0209282,0.802049,-1.58398,0.017023,-0.806341,1.59386,0.0217063,-0.816099,1.5828,-0.0644849,0.834785,-1.36188,0.113491,0.815142,-1.34343,0.0256081,-0.846381,1.33399,-0.00419605,-0.834041,1.34799,-0.201213,-0.0696084,-0.145646,-0.149407,-0.100945,-1.12226,0.0951869,0.186548,
-9.73628,4.69335,28.0409,0.100335,11.1298,1.61363,29.0693,-1.04031,0.982282,-4.92757,-31.2078,0.247347,-3.03607,-2.37429,-28.3486,0.347862,-9.70047,4.83507,27.9557,0.128259,11.0898,1.59588,28.9204,-1.04353,1.03566,-4.86989,-31.1344,0.246763,-3.10118,-2.16365,-28.2083,0.352828,0.0162081,0.794538,-1.59607,0.0209636,0.801993,-1.58408,0.0170176,-0.806236,1.5938,0.021701,-0.816076,1.58284,-0.064777,0.833993,-1.36207,0.113846,0.815277,-1.3422,0.025185,-0.846869,1.3334,-0.00361408,-0.83563,1.34649,-0.201896,-0.0794804,-0.15271,-0.160212,-0.101562,-1.11979,0.0946369,0.18765,
-9.6861,4.94817,28.2124,-0.00423452,11.152,1.67864,29.1588,-1.02449,0.875332,-4.93315,-31.4566,0.242082,-3.01138,-2.14248,-28.3079,0.392578,-9.74157,4.75582,28.0743,0.000577242,11.1227,1.61724,29.0817,-1.03144,0.984467,-4.94083,-31.2,0.252885,-3.03268,-2.3213,-28.4538,0.368354,0.016253,0.794572,-1.59608,0.0210085,0.801948,-1.58418,0.0170127,-0.806135,1.59375,0.0216964,-0.816049,1.58287,-0.064308,0.835544,-1.36091,0.114102,0.815789,-1.34156,0.0242837,-0.846817,1.33129,-0.00343234,-0.834162,1.34775,-0.0968449,-0.0890451,-0.145519,-0.181453,-0.101079,-1.11354,0.0965631,0.211125,
-9.77764,5.16639,28.1798,-0.0678519,11.1469,1.64789,29.2521,-1.02732,0.886169,-5.0312,-31.5029,0.26491,-3.01599,-2.30173,-28.4606,0.371401,-9.6932,5.02693,28.1963,-0.0629043,11.1462,1.68244,29.1678,-1.01442,0.87761,-4.98763,-31.3744,0.2498,-3.01255,-2.21218,-28.1817,0.378619,0.0163025,0.794408,-1.59605,0.0210537,0.801907,-1.58428,0.0170058,-0.806021,1.59368,0.0216901,-0.816005,1.58286,-0.0650142,0.836665,-1.36103,0.114106,0.815508,-1.34085,0.0243402,-0.847503,1.33092,-0.00349053,-0.835232,1.34608,-0.0349949,-0.0998799,-0.169901,-0.181685,-0.102847,-1.1272,0.0950093,0.189716,
-9.71124,5.32504,28.185,-0.104353,11.149,1.57943,29.1198,-1.00797,0.99492,-5.2549,-31.5842,0.277746,-3.11823,-2.31985,-28.0068,0.355141,-9.78722,5.22439,28.1682,-0.102276,11.138,1.65068,29.2597,-1.01691,0.886785,-5.03076,-31.5351,0.279707,-3.0131,-2.36481,-28.3521,0.362007,0.0163505,0.794162,-1.59599,0.0211003,0.801873,-1.58437,0.0169885,-0.805903,1.59364,0.0216713,-0.815954,1.58285,-0.0643783,0.837471,-1.36088,0.1142,0.814908,-1.34203,0.0252259,-0.849329,1.33046,-0.00437627,-0.834845,1.34893,0.00123998,-0.110948,-0.183058,-0.172474,-0.103113,-1.11892,0.0946882,0.182667,
-9.72575,5.5231,28.2542,-0.121306,11.1639,1.65658,29.1445,-0.9983,1.02586,-5.30901,-31.6857,0.277265,-3.12972,-2.36928,-28.0382,0.390917,-9.7132,5.36653,28.1771,-0.1193,11.1468,1.5797,29.1265,-1.00363,1.00174,-5.27714,-31.5466,0.269783,-3.11258,-2.28154,-28.0994,0.37972,0.0163879,0.793924,-1.59594,0.0211367,0.801851,-1.58444,0.0169691,-0.805804,1.59358,0.0216526,-0.815913,1.58285,-0.0644775,0.838747,-1.36023,0.114345,0.815547,-1.34188,0.025433,-0.849741,1.32962,-0.00453356,-0.835735,1.34977,0.0171753,-0.11544,-0.182601,-0.204596,-0.104131,-1.11374,0.0946641,0.186321,
-9.78737,5.61025,28.151,-0.129101,11.1406,1.60372,29.2578,-1.02415,1.09025,-5.37498,-31.5969,0.273229,-3.15242,-2.5656,-28.0286,0.360805,-9.73263,5.56705,28.2461,-0.127806,11.1569,1.66266,29.1572,-0.997925,1.03162,-5.31448,-31.691,0.276798,-3.12457,-2.44615,-27.9046,0.374567,0.0164378,0.793583,-1.59587,0.0211849,0.801826,-1.58454,0.0169367,-0.805696,1.59354,0.0216197,-0.815831,1.58281,-0.0649422,0.839078,-1.36102,0.114209,0.815449,-1.34187,0.0258878,-0.850214,1.33034,-0.00478276,-0.836798,1.34886,0.0238587,-0.0966241,-0.179625,-0.190914,-0.105243,-1.12077,0.0936035,0.169891,
-9.82475,5.80687,28.299,-0.128583,11.2026,1.89949,29.4906,-1.0463,0.889426,-5.23926,-31.8012,0.268849,-2.96707,-2.56543,-28.1034,0.407453,-9.79235,5.64652,28.1494,-0.129723,11.1356,1.67316,29.21,-1.04629,1.0994,-5.33525,-31.6121,0.272674,-3.14461,-2.58447,-28.0213,0.365137,0.0164866,0.793238,-1.5958,0.0212343,0.801761,-1.58467,0.016894,-0.80561,1.59353,0.0215742,-0.815752,1.5828,-0.0652163,0.840393,-1.35977,0.114766,0.817656,-1.34025,0.0241406,-0.849104,1.32844,-0.0033198,-0.83663,1.3481,0.0243895,-0.0563709,-0.171498,-0.194239,-0.104194,-1.10267,0.0973512,0.213214,
-9.89064,5.86496,28.2391,-0.1202,11.1808,2.03069,29.4833,-1.06071,0.849284,-5.24442,-31.7655,0.273502,-2.90837,-2.6835,-28.426,0.401809,-9.82351,5.8388,28.2959,-0.120469,11.2058,1.98456,29.3701,-1.03511,0.900412,-5.27335,-31.8037,0.277007,-2.95752,-2.56465,-28.1279,0.414501,0.0165268,0.792886,-1.59574,0.0212732,0.801622,-1.58473,0.0168408,-0.805513,1.59352,0.0215255,-0.815678,1.5828,-0.0657786,0.840597,-1.36024,0.114551,0.81817,-1.33962,0.0236997,-0.84877,1.32858,-0.00291537,-0.837532,1.34545,0.0155592,-0.0596341,-0.176393,-0.19813,-0.10464,-1.12035,0.0971093,0.203679,
-9.8411,5.99953,28.3666,-0.108989,11.2165,2.1855,29.4638,-1.04071,0.763632,-5.26939,-31.9109,0.28799,-2.83487,-2.59848,-28.2842,0.435786,-9.89102,5.89205,28.2398,-0.110859,11.1802,2.06903,29.4525,-1.0534,0.857157,-5.2637,-31.7658,0.284935,-2.90007,-2.67409,-28.4304,0.413018,0.0165583,0.792561,-1.5957,0.0213025,0.801473,-1.58482,0.0167786,-0.8054,1.5935,0.0214643,-0.815589,1.58277,-0.0653618,0.841485,-1.3592,0.11486,0.819131,-1.33954,0.0229201,-0.848771,1.3273,-0.00236459,-0.836738,1.3465,0.00568254,-0.0667655,-0.188226,-0.202953,-0.103306,-1.10747,0.0997641,0.232834,
-9.8784,6.09007,28.4121,-0.0957185,11.2069,2.25412,29.4966,-1.0484,0.740024,-5.30648,-31.9387,0.301735,-2.80626,-2.77599,-28.4545,0.431673,-9.8357,6.0187,28.3688,-0.0959775,11.2219,2.19575,29.4691,-1.03523,0.772459,-5.29227,-31.9148,0.302716,-2.82499,-2.62113,-28.2931,0.439701,0.0165735,0.792283,-1.59567,0.0213182,0.80133,-1.58489,0.0167185,-0.805258,1.59348,0.0214052,-0.815469,1.58273,-0.0657192,0.842073,-1.35884,0.114735,0.819606,-1.33931,0.0226466,-0.84884,1.32701,-0.0022034,-0.837935,1.34499,-0.00822273,-0.0726598,-0.202226,-0.203819,-0.103941,-1.12106,0.099509,0.227854,
-9.91472,6.08366,28.2854,-0.0800765,11.1762,2.16379,29.3329,-1.05283,0.868238,-5.50824,-31.684,0.318429,-2.91826,-2.97551,-28.5539,0.394512,-9.87013,6.10721,28.4184,-0.0801349,11.2151,2.25813,29.4993,-1.03525,0.744902,-5.32671,-31.9492,0.319393,-2.80083,-2.79938,-28.443,0.433106,0.0165683,0.79202,-1.59566,0.0213126,0.801198,-1.58495,0.0166502,-0.805075,1.59342,0.0213388,-0.815325,1.58266,-0.0660949,0.841872,-1.35996,0.114407,0.818817,-1.3407,0.0236698,-0.850334,1.32922,-0.00318312,-0.83936,1.34399,-0.02466,-0.0865635,-0.220849,-0.204281,-0.104736,-1.1394,0.09758,0.190231,
-9.83589,6.197,28.4556,-0.0678051,11.2139,2.2033,29.1712,-1.02826,0.919619,-5.6496,-31.7096,0.323499,-2.99115,-2.95729,-28.3373,0.426378,-9.90663,6.09705,28.3032,-0.0690797,11.1839,2.16438,29.3419,-1.04084,0.870973,-5.52572,-31.6769,0.322125,-2.91462,-2.95011,-28.6348,0.413783,0.016547,0.79179,-1.59568,0.0212913,0.801094,-1.58501,0.0165916,-0.804891,1.59337,0.02128,-0.81518,1.58261,-0.0655138,0.842695,-1.35869,0.114646,0.819146,-1.34213,0.0240703,-0.851361,1.32895,-0.00384313,-0.839521,1.3467,-0.0363246,-0.0993498,-0.224786,-0.229134,-0.10413,-1.12761,0.0987134,0.197244,
-9.84097,6.27064,28.5672,-0.0553573,11.242,2.24582,29.1892,-1.02467,0.915857,-5.65153,-31.7283,0.322786,-3.00194,-3.11776,-28.3615,0.427445,-9.825,6.20321,28.4733,-0.0555798,11.2247,2.19829,29.1844,-1.01816,0.926287,-5.65925,-31.7077,0.323108,-2.98454,-2.97086,-28.3366,0.428532,0.016517,0.791616,-1.59573,0.0212614,0.801029,-1.58507,0.0165454,-0.804743,1.59333,0.0212334,-0.815049,1.58257,-0.0656537,0.84325,-1.35792,0.114782,0.819549,-1.3421,0.0239803,-0.851297,1.32878,-0.00399235,-0.84078,1.34658,-0.0494503,-0.110279,-0.224333,-0.233101,-0.104808,-1.13495,0.0984525,0.194344,
-9.83946,6.29849,28.6164,-0.0405835,11.2803,2.2184,29.2344,-1.01563,0.886245,-5.66822,-31.7356,0.326103,-2.96824,-3.19371,-28.3669,0.414331,-9.82514,6.27238,28.5845,-0.0414602,11.2576,2.23376,29.206,-1.01194,0.927821,-5.66341,-31.7288,0.325655,-2.98998,-3.1237,-28.3668,0.425936,0.0164653,0.791475,-1.59581,0.0212101,0.800996,-1.58515,0.0164892,-0.804607,1.59329,0.0211772,-0.814926,1.58253,-0.0657693,0.843467,-1.35766,0.114974,0.819422,-1.34187,0.0236353,-0.851331,1.32872,-0.00380769,-0.841063,1.346,-0.0643039,-0.123913,-0.227445,-0.218989,-0.104887,-1.13954,0.0986575,0.195342,
-9.90799,6.34029,28.6805,-0.0256368,11.3282,2.25187,29.405,-1.00705,0.756549,-5.47826,-31.8233,0.295225,-2.83795,-3.29904,-28.6259,0.415622,-9.82839,6.2956,28.6399,-0.0264404,11.2912,2.20563,29.25,-1.00283,0.893555,-5.61873,-31.7971,0.303396,-2.96001,-3.20542,-28.3626,0.412125,0.016393,0.79136,-1.59592,0.0211384,0.800996,-1.58525,0.0164231,-0.804494,1.59327,0.0211094,-0.814811,1.58252,-0.066434,0.843845,-1.35734,0.115282,0.819811,-1.34058,0.0224998,-0.850175,1.32843,-0.00277667,-0.841689,1.34351,-0.0792586,-0.137493,-0.195557,-0.210515,-0.104895,-1.14454,0.0996682,0.205107,
-9.93172,6.16713,28.5832,-0.00879508,11.3953,2.05056,29.4679,-1.0171,0.819995,-5.15608,-31.6253,0.193583,-2.84261,-3.37408,-28.6171,0.385372,-9.89851,6.3339,28.7005,-0.00984554,11.3372,2.21783,29.4546,-0.998312,0.764943,-5.39727,-31.8112,0.200173,-2.83106,-3.31158,-28.6223,0.41497,0.0163117,0.791279,-1.59604,0.0210585,0.80103,-1.58536,0.0163531,-0.804595,1.59333,0.0210392,-0.814691,1.5825,-0.066707,0.842463,-1.35833,0.115759,0.818436,-1.34053,0.0229545,-0.848203,1.32998,-0.00287069,-0.842137,1.34342,-0.0961692,-0.145706,-0.0959132,-0.206972,-0.104964,-1.16281,0.0976696,0.1784,
-9.86577,6.1016,28.5613,-0.000555106,11.4057,2.01675,29.3413,-0.997074,0.969057,-5.04701,-31.5895,0.142191,-2.91919,-3.31139,-28.1747,0.392958,-9.93825,6.1639,28.6014,-0.00130523,11.3869,2.0408,29.4337,-1.00505,0.815546,-5.07733,-31.6461,0.145767,-2.84644,-3.39301,-28.6102,0.3898,0.0162545,0.791229,-1.59618,0.0210029,0.801089,-1.58546,0.016301,-0.804856,1.5934,0.020986,-0.814571,1.58248,-0.0660975,0.84195,-1.35867,0.115909,0.818262,-1.34162,0.0242268,-0.847984,1.33045,-0.00345049,-0.841578,1.34727,-0.104234,-0.156689,-0.0456175,-0.216023,-0.104789,-1.15376,0.0965737,0.176935,
-9.91157,6.08026,28.5609,0.00138251,11.4197,2.05809,29.3872,-0.979176,1.0202,-4.7743,-31.5644,0.114076,-2.91504,-3.40315,-28.2153,0.419039,-9.87051,6.10149,28.5704,0.00214394,11.4005,2.03058,29.2996,-0.979645,0.965434,-4.99448,-31.6121,0.117219,-2.91632,-3.27645,-28.2826,0.419989,0.0162355,0.791206,-1.59628,0.020984,0.801141,-1.58556,0.0162754,-0.805102,1.59348,0.0209625,-0.814494,1.5825,-0.0664364,0.841775,-1.35876,0.116073,0.818513,-1.34092,0.0246906,-0.846191,1.33087,-0.00342921,-0.842588,1.34778,-0.107089,-0.174061,-0.0187456,-0.242039,-0.105707,-1.15324,0.0953307,0.177,
-9.92708,6.0404,28.5288,0.00551985,11.406,2.00408,29.4239,-0.967443,1.05421,-4.58001,-31.5755,0.102211,-2.90734,-3.43301,-28.1882,0.428874,-9.91895,6.07543,28.57,0.0055933,11.4122,2.04311,29.3892,-0.969068,1.01764,-4.72334,-31.5923,0.103256,-2.91719,-3.41485,-28.2307,0.425188,0.0162302,0.79119,-1.5964,0.0209791,0.801222,-1.58565,0.0162598,-0.805452,1.59361,0.0209473,-0.814373,1.58251,-0.0665022,0.841482,-1.3591,0.116021,0.818214,-1.34066,0.0249976,-0.845032,1.33103,-0.00334555,-0.842742,1.34816,-0.111476,-0.184186,-0.00745038,-0.248932,-0.105956,-1.15163,0.094761,0.179941,
-10.0113,6.0448,28.5016,0.00851658,11.3778,2.01116,29.5374,-0.960082,1.01538,-4.4031,-31.6035,0.10263,-2.8347,-3.56902,-28.3156,0.416732,-9.93744,6.03666,28.5334,0.00875118,11.3956,1.99614,29.4175,-0.959161,1.04934,-4.54798,-31.5965,0.102477,-2.91483,-3.50063,-28.0842,0.410725,0.0162381,0.791186,-1.59649,0.0209872,0.801306,-1.58573,0.0162543,-0.805742,1.59372,0.0209421,-0.814271,1.58252,-0.0671158,0.841557,-1.35938,0.115877,0.818358,-1.33968,0.0247157,-0.843846,1.33098,-0.00266003,-0.843316,1.34625,-0.114929,-0.19265,-0.00790868,-0.231051,-0.106412,-1.15273,0.0947215,0.185681,
-9.96994,6.0509,28.4922,0.0148951,11.3121,1.90735,29.4481,-0.949117,1.06663,-4.30214,-31.6148,0.112113,-2.8633,-3.41754,-28.2914,0.441801,-10.0191,6.03979,28.504,0.0140385,11.3699,1.98682,29.5451,-0.951267,1.01154,-4.36966,-31.6303,0.111176,-2.83785,-3.55157,-28.4001,0.421214,0.0162634,0.791191,-1.59659,0.0210124,0.801428,-1.58581,0.0162568,-0.806119,1.5939,0.0209452,-0.814142,1.58258,-0.0667109,0.841653,-1.35947,0.115388,0.817728,-1.34052,0.0251712,-0.843306,1.33113,-0.00290009,-0.842283,1.34738,-0.120808,-0.201509,-0.0170419,-0.248967,-0.105912,-1.15063,0.0950707,0.192834,
-9.96659,6.03577,28.5138,0.0217208,11.2747,1.83198,29.4329,-0.940848,1.13317,-4.25193,-31.7092,0.125529,-2.8568,-3.56338,-28.2739,0.458684,-9.97795,6.04581,28.4881,0.0221099,11.3032,1.91706,29.3839,-0.929432,1.06451,-4.27673,-31.6408,0.125424,-2.86587,-3.44065,-28.3084,0.458339,0.0163021,0.791207,-1.59666,0.021053,0.801565,-1.58588,0.0162672,-0.806466,1.59411,0.020955,-0.814002,1.58266,-0.0666164,0.841564,-1.35926,0.115152,0.817375,-1.34082,0.0257422,-0.843116,1.33056,-0.00282707,-0.843287,1.34765,-0.128312,-0.206,-0.0312915,-0.26517,-0.106591,-1.14685,0.094237,0.193513,
-10.0036,6.09222,28.4306,0.0182229,11.2178,1.89182,29.5202,-0.940433,1.1043,-4.09447,-31.7423,0.141258,-2.80546,-3.72615,-28.3966,0.464627,-9.97374,6.03817,28.5106,0.019032,11.2697,1.78607,29.4867,-0.944038,1.13343,-4.23078,-31.7307,0.139355,-2.85827,-3.6352,-28.1868,0.445604,0.0163466,0.791221,-1.59671,0.0210944,0.801743,-1.58597,0.0162756,-0.806798,1.5943,0.0209648,-0.813824,1.58273,-0.0668578,0.842021,-1.35993,0.114732,0.818243,-1.34052,0.0254984,-0.841983,1.33048,-0.00235986,-0.844105,1.34603,-0.125106,-0.204453,-0.046145,-0.254548,-0.106883,-1.14489,0.0951133,0.21008,
