FengTian-Bit/rl_sar_bitter/src/rl_sar/models/bitter/csv_data/csv_standup.csv
joint_tau_cal_0,joint_tau_cal_1,joint_tau_cal_2,joint_tau_cal_3,joint_tau_cal_4,joint_tau_cal_5,joint_tau_cal_6,joint_tau_cal_7,joint_tau_cal_8,joint_tau_cal_9,joint_tau_cal_10,joint_tau_cal_11,joint_tau_cal_12,joint_tau_cal_13,joint_tau_cal_14,joint_tau_cal_15,joint_tau_est_0,joint_tau_est_1,joint_tau_est_2,joint_tau_est_3,joint_tau_est_4,joint_tau_est_5,joint_tau_est_6,joint_tau_est_7,joint_tau_est_8,joint_tau_est_9,joint_tau_est_10,joint_tau_est_11,joint_tau_est_12,joint_tau_est_13,joint_tau_est_14,joint_tau_est_15,joint_pos_0,joint_pos_1,joint_pos_2,joint_pos_4,joint_pos_5,joint_pos_6,joint_pos_8,joint_pos_9,joint_pos_10,joint_pos_12,joint_pos_13,joint_pos_14,joint_pos_target_0,joint_pos_target_1,joint_pos_target_2,joint_pos_target_4,joint_pos_target_5,joint_pos_target_6,joint_pos_target_8,joint_pos_target_9,joint_pos_target_10,joint_pos_target_12,joint_pos_target_13,joint_pos_target_14,joint_vel_3,joint_vel_7,joint_vel_11,joint_vel_15,joint_vel_target_3,joint_vel_target_7,joint_vel_target_11,joint_vel_target_15,
0,0.31416,-0.62832,0,0,0.31416,-0.62832,0,0,-0.31416,0.62832,0,0,-0.31416,0.62832,0,0,0,0,0,0,0,0,0,0,0,0,0,0,0,0,0,0,0,0,0,0,0,0,0,0,0,0,0,0,0.0007854,-0.0015708,0,0.0007854,-0.0015708,0,-0.0007854,0.0015708,0,-0.0007854,0.0015708,0,0,0,0,0,0,0,0,
0.0401637,0.598601,-1.30097,-0.0468672,-0.0348908,0.596784,-1.30166,-0.0618375,0.0310329,-0.624382,1.92002,0.0533874,-0.0321539,-0.904757,1.37416,0.0540486,0.0392615,-0.0252823,-0.0401153,-0.0536635,-0.0348654,-0.0255415,-0.0428974,-0.0421748,0.0318023,-0.267517,0.0174765,0.0325429,-0.0264491,0.0397466,0.65038,0.0335342,-7.01383e-06,0.000260567,-0.000501128,7.70055e-06,0.000247545,-0.000475485,-4.47891e-06,-0.000232896,0.00034404,7.2408e-06,-0.000173821,0.000428855,0,0.0047124,-0.0094248,0,0.0047124,-0.0094248,0,-0.0047124,0.0094248,0,-0.0047124,0.0094248,0.0234336,0.0309188,-0.0266937,-0.0270243,0,0,0,0,
0.0759752,0.253965,-0.745231,-0.0212671,-0.0722944,0.214399,-1.24152,-0.00354254,0.0686349,-0.507915,0.73707,0.0264261,-0.0822938,-0.201445,1.27694,0.00444922,0.0579791,0.201855,-0.627558,-0.0239032,-0.0826293,-0.0636872,-0.000385402,-0.00539519,0.0544783,0.119866,0.635391,0.00367821,-0.0667228,0.06543,0.00373389,0.00773477,-5.89381e-05,0.00228315,-0.00438754,5.9354e-05,0.00236383,-0.00432101,-5.7049e-05,-0.00222017,0.00434991,5.7289e-05,-0.00231613,0.00420366,0,0.0086394,-0.0172788,0,0.0086394,-0.0172788,0,-0.0086394,0.0172788,0,-0.0086394,0.0172788,0.0106336,0.00177127,-0.013213,-0.00222461,0,0,0,0,
0.0836559,0.168934,-0.624381,-0.00104938,-0.0818213,0.167194,-0.625799,-5.73079e-05,0.0846101,-0.162926,0.627972,0.000510134,-0.0815113,-0.164375,0.627519,0.000402183,0.0847058,-0.146436,0.00397273,-0.00384825,-0.0827625,-0.147521,0.00143535,-0.00261451,0.0857665,0.152026,0.000718922,0.00313531,-0.0824305,0.151163,-0.000756692,0.0030772,-0.000120578,0.0057417,-0.0110887,0.00012011,0.00571007,-0.011025,-0.000118075,-0.00569534,0.0109609,0.000119534,-0.0056776,0.010932,0,0.0125664,-0.0251328,0,0.0125664,-0.0251328,0,-0.0125664,0.0251328,0,-0.0125664,0.0251328,0.000524689,2.8654e-05,-0.000255067,-0.000201091,0,0,0,0,
0.0788182,0.173133,-0.623469,-0.000829984,-0.0723197,0.166211,-0.614083,-0.00421839,0.0805057,-0.1616,0.612884,0.00123487,-0.0713655,-0.175565,0.629158,0.00807361,0.0780446,-0.140136,-0.000188305,-0.0034275,-0.0740403,-0.149551,0.00996175,-0.00734137,0.081638,0.150666,-0.0167616,0.00425514,-0.0722772,0.13307,0.0153244,0.0109502,-0.000152528,0.00933355,-0.0181367,0.000154273,0.00931163,-0.0179549,-0.000151287,-0.00923609,0.018048,0.000152016,-0.00919245,0.01797,0,0.0164934,-0.0329868,0,0.0164934,-0.0329868,0,-0.0164934,0.0329868,0,-0.0164934,0.0329868,0.000414992,0.0021092,-0.000617433,-0.00403681,0,0,0,0,
0.061801,0.187412,-0.624967,-0.00561029,-0.057501,0.19944,-0.637377,-0.0100724,0.0618253,-0.201298,0.612991,0.0108035,-0.0572551,-0.189453,0.605655,0.00923567,0.0624566,-0.118182,-0.0470782,-0.008181,-0.0579668,-0.103782,-0.0353897,-0.0103228,0.0599357,0.10292,0.00642836,0.0116648,-0.0597146,0.111322,-0.00611208,0.0116172,-0.000158465,0.0130338,-0.0253567,0.000158831,0.012994,-0.0254078,-0.000156891,-0.0129818,0.0255067,0.000156676,-0.0129504,0.02544,0,0.0204204,-0.0408408,0,0.0204204,-0.0408408,0,-0.0204204,0.0408408,0,-0.0204204,0.0408408,0.00280514,0.00503619,-0.00540177,-0.00461783,0,0,0,0,
0.0504871,0.203846,-0.601818,-0.0119014,-0.0476222,0.207297,-0.601504,-0.00822769,0.0482032,-0.205212,0.64124,0.0109152,-0.0483112,-0.220485,0.650453,0.0191318,0.0498836,-0.107641,0.00816774,-0.0155846,-0.0489363,-0.0879515,0.00947962,-0.0120409,0.0498503,0.0970008,0.0829585,0.0145769,-0.0491888,0.0491368,0.113258,0.0203107,-0.00014563,0.0164388,-0.0321856,0.000145353,0.0162588,-0.0321092,-0.00014383,-0.0163108,0.0319099,0.000143248,-0.0162101,0.0318472,0,0.0243474,-0.0486948,0,0.0243474,-0.0486948,0,-0.0243474,0.0486948,0,-0.0243474,0.0486948,0.00595072,0.00411385,-0.00545759,-0.0095659,0,0,0,0,
0.0300927,0.225868,-0.569907,0.004612,-0.0266943,0.219367,-0.573007,0.00416603,0.0285206,-0.221171,0.573288,0.000718495,-0.0297028,-0.220238,0.573887,-0.00204433,0.0315804,-0.089745,0.0574467,0.00208075,-0.0280881,-0.0963008,0.0542903,0.00157251,0.0300156,0.0947069,-0.0541189,0.00395854,-0.031123,0.0955294,-0.0534057,0.000851716,-0.000122905,0.0203311,-0.0401936,0.000121391,0.020308,-0.0401246,-0.000120924,-0.0202816,0.0400691,0.000120961,-0.0201688,0.0398365,0,0.0282744,-0.0565488,0,0.0282744,-0.0565488,0,-0.0282744,0.0565488,0,-0.0282744,0.0565488,-0.002306,-0.00208302,-0.000359248,0.00102216,0,0,0,0,
0.0130633,0.333371,-0.709586,-0.0087575,-0.00825373,0.33029,-0.631987,0.0110811,0.0122992,-0.326206,1.20218,-0.0130203,-0.00357446,-0.572174,0.722695,-0.00731622,0.00876305,0.253864,-0.554297,0.0122135,-0.00333265,0.250631,-0.0842958,0.00951744,0.00752147,-0.257002,-0.0735379,-0.0111104,-0.00430002,0.0586376,0.57417,-0.00522137,-9.23934e-05,0.0239309,-0.0474946,9.20525e-05,0.0239131,-0.047586,-9.0538e-05,-0.0239535,0.0473667,9.15205e-05,-0.0238345,0.0474297,0,0.0322014,-0.0644028,0,0.0322014,-0.0644028,0,-0.0322014,0.0644028,0,-0.0322014,0.0644028,0.00437875,-0.00554054,0.00651016,0.00365811,0,0,0,0,
0.00114897,0.26523,-0.548989,-0.00212578,-0.00197578,0.265052,-0.549682,-0.00531299,0.00117396,-0.282014,0.549513,0.00480715,-0.000521609,-0.281819,0.569546,0.00473837,0.00243208,-0.0456151,0.0697803,-0.00513865,-0.00326757,-0.0457831,0.0689761,-0.00816178,0.00260935,0.0142573,-0.0559931,0.00750477,-0.0019033,0.0144758,-0.0177786,0.00750797,-5.91741e-05,0.0279287,-0.055608,5.85182e-05,0.0279133,-0.0555577,-5.79249e-05,-0.0277975,0.0554897,5.76865e-05,-0.0277705,0.0552842,0,0.0361284,-0.0722568,0,0.0361284,-0.0722568,0,-0.0361284,0.0722568,0,-0.0361284,0.0722568,0.00106289,0.0026565,-0.00240357,-0.00236919,0,0,0,0,
0.0167236,0.267352,-0.576938,-0.0282696,-0.0185417,0.268072,-0.576937,-0.0281966,0.0185608,-0.268955,0.577747,0.0280153,-0.0182989,-0.269076,0.575388,0.028037,0.0166842,-0.0272427,0.00924473,-0.0334174,-0.0183586,-0.0267947,0.00958295,-0.0333636,0.0183489,0.026751,-0.0102104,0.0332425,-0.0190674,0.026752,-0.0124092,0.0332609,-4.4052e-05,0.0304122,-0.0606354,4.41879e-05,0.030401,-0.0605989,-4.44811e-05,-0.0303694,0.060551,4.41846e-05,-0.0303495,0.0605144,0,0.0400554,-0.0801107,0,0.0400554,-0.0801107,0,-0.0400554,0.0801107,0,-0.0400554,0.0801107,0.0141348,0.0140983,-0.0140076,-0.0140185,0,0,0,0,
-0.807535,-36.1178,35.4196,8.32114,0.778742,-1.91526,37.5887,-11.6387,-0.675841,4.19641,-47.6529,12.425,-0.70888,38.754,-37.5438,-7.62088,-0.862168,-41.8866,45.8095,7.92898,0.800082,-7.59947,48.2854,-12.334,-0.647197,10.2742,-59.8113,13.1662,-0.739337,44.9734,-47.6014,-7.22606,-0.000195118,0.0763339,-0.137282,0.000235259,0.0690352,-0.144583,-0.000309921,-0.0706252,0.150814,-0.000241147,-0.0776611,0.14486,0,0.0439824,-0.0879647,0,0.0439824,-0.0879647,0,-0.0439824,0.0879647,0,-0.0439824,0.0879647,-4.16057,5.81937,-6.21252,3.81044,0,0,0,0,
0.0562266,-6.79775,-7.22424,3.82616,-1.52762,13.1648,5.53769,-1.13001,1.26339,-13.6876,-5.50258,1.4085,-0.218243,5.96766,7.40779,-3.70095,-0.0268086,-7.15319,-6.37189,4.83191,-1.61079,13.0069,5.95018,-1.27197,1.3205,-13.5544,-5.89355,1.58452,-0.148187,6.3343,6.48596,-4.74987,-0.000112034,0.0798419,-0.132288,0.000375202,0.0558432,-0.135467,-0.000627721,-0.0568999,0.141351,-0.000223171,-0.0807089,0.139047,0,0.0479094,-0.0958187,0,0.0479094,-0.0958187,0,-0.0479094,0.0958187,0,-0.0479094,0.0958187,-1.91308,0.565004,-0.70425,1.85048,0,0,0,0,
0.715876,-10.7937,6.411,1.29233,-1.45647,13.4258,4.12928,-0.0315061,1.60076,-13.8309,-4.40041,0.0492447,-0.294089,10.2303,-6.72208,-1.25292,0.731468,-11.0066,6.66419,1.39401,-1.38563,13.1253,4.75677,-0.0391759,1.53702,-13.528,-4.99827,0.0586023,-0.303368,10.4525,-6.96967,-1.3574,-0.000525312,0.078259,-0.125056,0.000927667,0.0470136,-0.130016,-0.00118488,-0.0475999,0.134817,8.57129e-05,-0.0785245,0.130187,0,0.0518364,-0.103673,0,0.0518364,-0.103673,0,-0.0518364,0.103673,0,-0.0518364,0.103673,-0.646166,0.0157531,-0.0246223,0.626459,0,0,0,0,
-0.0282719,-10.8571,9.58058,-0.572903,-3.99373,13.5819,3.69593,0.000217899,3.86053,-14.0284,-3.95609,0.00842255,0.302032,10.297,-10.1265,0.516807,0.00134374,-11.167,10.136,-0.531593,-3.89796,13.3089,4.29733,-0.00475129,3.7682,-13.7855,-4.52431,0.00942146,0.277316,10.6006,-10.6569,0.473001,-0.000585223,0.0789535,-0.126097,0.00235676,0.0408386,-0.12717,-0.00247692,-0.0410525,0.130863,8.37459e-05,-0.0788552,0.130312,0,0.0557634,-0.111527,0,0.0557634,-0.111527,0,-0.0557634,0.111527,0,-0.0557634,0.111527,0.286451,-0.00010895,-0.00421128,-0.258404,0,0,0,0,
-0.29846,-7.92152,6.14869,-1.19275,-1.56005,9.04319,6.23408,-1.37903,1.50139,-9.81494,-7.0598,1.58569,0.215136,7.39846,-6.99444,1.17359,-0.306671,-8.30812,6.83277,-1.18288,-1.56669,8.8378,6.7634,-1.43128,1.48632,-9.59537,-7.65676,1.64776,0.199499,7.76384,-7.66199,1.16225,-0.000130354,0.0794944,-0.128061,0.00296434,0.038951,-0.127999,-0.00299143,-0.0384075,0.131268,0.000147012,-0.0790255,0.131908,0,0.0596904,-0.119381,0,0.0596904,-0.119381,0,-0.0596904,0.119381,0,-0.0596904,0.119381,0.596377,0.689514,-0.792845,-0.586796,0,0,0,0,
-0.331198,-6.98688,5.54188,-1.45943,-1.60457,7.34987,6.99684,-0.558937,1.60089,-8.12927,-7.44034,0.621453,0.315862,6.30043,-6.22711,1.47982,-0.323323,-7.28947,6.10164,-1.45407,-1.60232,7.11531,7.53751,-0.582601,1.59993,-7.89977,-7.97052,0.648709,0.314418,6.61004,-6.79574,1.47387,4.80694e-05,0.0797031,-0.130331,0.00314614,0.0395641,-0.130766,-0.0032407,-0.0386703,0.133516,-8.83115e-05,-0.0789311,0.13365,0,0.0636174,-0.127235,0,0.0636174,-0.127235,0,-0.0636174,0.127235,0,-0.0636174,0.127235,0.729715,0.279468,-0.310727,-0.739909,0,0,0,0,
-0.331872,-6.33973,5.38201,-1.60757,-1.59695,6.38777,7.55267,-0.209279,1.61504,-7.07634,-8.08877,0.21464,0.332013,5.58075,-5.9973,1.6524,-0.334658,-6.6468,5.95575,-1.60631,-1.59955,6.13783,8.11454,-0.220407,1.61551,-6.84241,-8.63677,0.226423,0.331591,5.88836,-6.56331,1.65079,0.000235435,0.0803187,-0.133813,0.00335536,0.0415848,-0.135114,-0.00341205,-0.0404819,0.137623,-0.000252556,-0.0792842,0.136703,0,0.0675444,-0.135089,0,0.0675444,-0.135089,0,-0.0675444,0.135089,0,-0.0675444,0.135089,0.803787,0.10464,-0.10732,-0.826202,0,0,0,0,
-0.169588,-5.75568,5.13716,-1.68737,-1.43141,5.65922,7.796,-0.101113,1.62351,-6.28119,-8.50265,0.0906739,0.379923,5.37417,-6.2705,1.62748,-0.150488,-6.05136,5.67193,-1.68667,-1.41132,5.38549,8.36196,-0.106988,1.65384,-6.02263,-9.06993,0.0972045,0.406801,5.53576,-6.63277,1.55772,0.000333365,0.0812873,-0.137921,0.0034616,0.0445552,-0.140263,-0.00356303,-0.0433336,0.142549,-0.000383996,-0.0800349,0.140469,0,0.0714714,-0.142943,0,0.0714714,-0.142943,0,-0.0714714,0.142943,0,-0.0714714,0.142943,0.843683,0.0505565,-0.045337,-0.813741,0,0,0,0,
-0.401154,-5.21167,5.20484,-1.69352,-1.65421,5.33126,7.78233,-0.0520153,1.27204,-5.83893,-8.20462,0.0246038,0.00289354,5.71102,-6.11319,1.26862,-0.407414,-4.83462,4.48031,-1.75242,-1.65957,5.08441,8.29179,-0.0552405,1.27795,-5.58518,-8.75066,0.0278201,0.00476027,6.00588,-6.69758,1.28175,0.000446743,0.0826299,-0.142898,0.00357874,0.0480302,-0.146044,-0.0035523,-0.0467782,0.148325,-0.000376904,-0.0817782,0.145573,0,0.0753984,-0.150797,0,0.0753984,-0.150797,0,-0.0753984,0.150797,0,-0.0753984,0.150797,0.846761,0.0260076,-0.0123019,-0.634309,0,0,0,0,
-0.265917,-6.0597,6.03312,-1.33153,-1.51973,5.14876,7.45811,-0.0142311,1.3552,-5.6727,-7.8984,-0.00687086,0.0832029,6.04713,-6.40772,1.05068,-0.277726,-6.33628,6.6114,-1.34699,-1.53106,4.87514,8.03634,-0.0189287,1.34288,-5.3975,-8.46557,-0.00273302,0.0717116,6.33105,-6.9914,1.06608,0.00051135,0.084784,-0.149043,0.00364391,0.0516637,-0.15245,-0.00350175,-0.0503943,0.154251,-0.0003282,-0.0841348,0.151255,0,0.0793254,-0.158651,0,0.0793254,-0.158651,0,-0.0793254,0.158651,0,-0.0793254,0.158651,0.665767,0.00711553,0.00343543,-0.525339,0,0,0,0,
-0.135381,-7.52375,8.44619,-1.27393,-1.39735,4.77094,7.41772,-0.0072926,1.46567,-5.32726,-7.99902,-0.0061627,0.200345,6.24598,-6.43221,0.869571,-0.174844,-6.41545,6.42737,-1.15209,-1.42779,4.531,7.97027,-0.0101979,1.42698,-5.02894,-8.57435,-0.0038701,0.154275,6.54692,-6.99272,0.877141,0.000503331,0.0874528,-0.155422,0.00363614,0.0554901,-0.158825,-0.00351366,-0.0542137,0.160532,-0.000339017,-0.08693,0.157333,0,0.0832524,-0.166505,0,0.0832524,-0.166505,0,-0.0832524,0.166505,0,-0.0832524,0.166505,0.636964,0.0036463,0.00308135,-0.434786,0,0,0,0,
-0.128297,-6.518,5.97688,-0.915857,-1.38379,4.47465,7.38769,-0.0108375,1.47257,-4.96861,-8.05885,0.00101188,0.199686,6.41376,-6.48201,0.79714,-0.128925,-6.78721,6.52676,-0.924197,-1.38357,4.20913,7.94064,-0.013111,1.47322,-4.70187,-8.61623,0.00350541,0.200599,6.69031,-7.0389,0.801592,0.000446027,0.09054,-0.162105,0.00357974,0.0595081,-0.165464,-0.00357356,-0.0582342,0.167196,-0.000397124,-0.0900939,0.163881,0,0.0871794,-0.174359,0,0.0871794,-0.174359,0,-0.0871794,0.174359,0,-0.0871794,0.174359,0.457929,0.00541875,-0.00050594,-0.39857,0,0,0,0,
-0.11828,-6.65133,6.07375,-0.827766,-1.37092,4.12511,7.40659,-0.0313722,1.44479,-4.61743,-8.04066,0.0213606,0.17168,6.45176,-6.44472,0.779354,-0.121391,-6.91971,6.62644,-0.832649,-1.37304,3.85573,7.92836,-0.0337493,1.44335,-4.34754,-8.56862,0.0225889,0.16855,6.71734,-6.97876,0.782104,0.000415092,0.0937766,-0.169064,0.00354851,0.063709,-0.172164,-0.00359043,-0.0624429,0.173873,-0.000412626,-0.0933364,0.170426,0,0.0911064,-0.182213,0,0.0911064,-0.182213,0,-0.0911064,0.182213,0,-0.0911064,0.182213,0.413883,0.0156861,-0.0106803,-0.389677,0,0,0,0,
-0.0893134,-6.74992,6.06569,-0.802788,-1.34588,3.85311,7.44036,-0.0525065,1.43258,-4.33806,-8.07329,0.0386287,0.160444,6.55289,-6.5929,0.787397,-0.0907402,-7.02296,6.61351,-0.806086,-1.34691,3.58739,7.99334,-0.0548194,1.43209,-4.07234,-8.62668,0.0411027,0.16024,6.8278,-7.14079,0.789649,0.000380298,0.0972174,-0.175732,0.00351711,0.0677095,-0.179121,-0.0035906,-0.066451,0.180799,-0.000412131,-0.0968916,0.177541,0,0.0950334,-0.190067,0,0.0950334,-0.190067,0,-0.0950334,0.190067,0,-0.0950334,0.190067,0.401394,0.0262533,-0.0193143,-0.393699,0,0,0,0,
-0.0726174,-6.79912,6.08609,-0.811831,-1.32829,3.58366,7.42508,-0.074048,1.42503,-4.05555,-8.05122,0.0613893,0.152176,6.54927,-6.52632,0.81058,-0.0737158,-7.06894,6.62684,-0.81438,-1.32866,3.32113,7.97293,-0.0763628,1.425,-3.79289,-8.5984,0.063759,0.152278,6.81925,-7.06427,0.812569,0.000348217,0.100532,-0.182365,0.00348407,0.0716683,-0.185749,-0.00358523,-0.0704204,0.187398,-0.000406066,-0.100026,0.183787,0,0.0989605,-0.197921,0,0.0989605,-0.197921,0,-0.0989605,0.197921,0,-0.0989605,0.197921,0.405916,0.037024,-0.0306946,-0.40529,0,0,0,0,
-0.0630741,-6.84527,6.13601,-0.825664,-1.31924,3.30311,7.44855,-0.0922295,1.41092,-3.76627,-8.04597,0.082635,0.137097,6.5965,-6.64962,0.83243,-0.0628793,-7.11399,6.67547,-0.827966,-1.31842,3.04274,7.99381,-0.0950391,1.41301,-3.52139,-8.56012,0.0835304,0.137659,6.86092,-7.19149,0.834055,0.000312664,0.103997,-0.189267,0.0034493,0.0757631,-0.192629,-0.00357732,-0.0745268,0.194247,-0.0003967,-0.103463,0.190927,0,0.102887,-0.205775,0,0.102887,-0.205775,0,-0.102887,0.205775,0,-0.102887,0.205775,0.412832,0.0461148,-0.0413175,-0.416215,0,0,0,0,
-0.0498087,-6.90156,6.22562,-0.840746,-1.30645,2.99742,7.49986,-0.111159,1.39825,-3.43929,-8.1189,0.100905,0.124113,6.65726,-6.667,0.853026,-0.0509206,-7.17346,6.76739,-0.842875,-1.30694,2.73481,8.04697,-0.113446,1.3983,-3.17613,-8.66612,0.103253,0.124212,6.92962,-7.20716,0.854963,0.000276926,0.107719,-0.196669,0.00341449,0.0801365,-0.200001,-0.00356411,-0.0789205,0.201598,-0.000382906,-0.107166,0.197961,0,0.106814,-0.213629,0,0.106814,-0.213629,0,-0.106814,0.213629,0,-0.106814,0.213629,0.420373,0.0555793,-0.0504523,-0.426513,0,0,0,0,
-0.0383455,-6.93254,6.29971,-0.859299,-1.29533,2.71106,7.53463,-0.127394,1.38192,-3.13726,-8.15102,0.118328,0.107271,6.69678,-6.74782,0.875334,-0.0394692,-7.20541,6.84267,-0.86129,-1.29588,2.4478,8.08197,-0.129637,1.38202,-2.87335,-8.69879,0.120603,0.107386,6.97022,-7.28948,0.877163,0.000242418,0.111507,-0.204213,0.00338094,0.0845741,-0.207501,-0.00354578,-0.0833819,0.209082,-0.000363416,-0.110944,0.205466,0,0.110741,-0.221483,0,0.110741,-0.221483,0,-0.110741,0.221483,0,-0.110741,0.221483,0.42965,0.063697,-0.0591638,-0.437667,0,0,0,0,
-0.026378,-6.96276,6.38714,-0.880485,-1.28377,2.42319,7.57406,-0.145468,1.36494,-2.88152,-8.12223,0.136901,0.0899548,6.74351,-6.86805,0.900009,-0.0270315,-7.23655,6.9296,-0.882316,-1.28427,2.1593,8.12101,-0.146056,1.36551,-2.63899,-8.63356,0.137631,0.0905141,7.01738,-7.41076,0.901745,0.000208685,0.115348,-0.211876,0.00334954,0.0890638,-0.21511,-0.0035228,-0.0877056,0.216356,-0.000339251,-0.114784,0.213113,0,0.114668,-0.229337,0,0.114668,-0.229337,0,-0.114668,0.229337,0,-0.114668,0.229337,0.440242,0.072734,-0.0684503,-0.450004,0,0,0,0,
-0.0149041,-6.93641,6.38792,-0.904731,-1.27245,2.18661,7.54922,-0.161765,1.34807,-2.579,-8.17006,0.153738,0.0723649,6.72697,-6.87179,0.926566,-0.0156312,-7.20799,6.92561,-0.906432,-1.27269,1.92527,8.09142,-0.163912,1.34868,-2.31735,-8.71411,0.155923,0.072865,6.99879,-7.40987,0.928144,0.00017746,0.119049,-0.219286,0.00331782,0.0933874,-0.222459,-0.00349669,-0.0922586,0.224035,-0.000311923,-0.118491,0.220518,0,0.118595,-0.237191,0,0.118595,-0.237191,0,-0.118595,0.237191,0,-0.118595,0.237191,0.452365,0.0808826,-0.0768688,-0.463283,0,0,0,0,
-0.00340871,-6.90726,6.50058,-0.930036,-1.26063,1.96307,7.60403,-0.176982,1.33099,-2.34408,-8.19026,0.170434,0.0547825,6.73901,-6.86196,0.953658,-0.00234274,-7.16691,7.03913,-0.930995,-1.26176,1.72344,8.14686,-0.179044,1.33125,-2.10294,-8.73319,0.172485,0.0549014,7.0113,-7.37884,0.955097,0.00014722,0.122773,-0.22712,0.00328843,0.0977368,-0.230217,-0.0034655,-0.0966346,0.231763,-0.000279473,-0.122386,0.227983,0,0.122523,-0.245045,0,0.122523,-0.245045,0,-0.122523,0.245045,0,-0.122523,0.245045,0.465018,0.0884911,-0.0852171,-0.476829,0,0,0,0,
0.00938519,-6.93554,6.57425,-0.953579,-1.24808,1.65018,7.6328,-0.194449,1.31291,-2.01906,-8.2098,0.188636,0.0361446,6.73202,-7.03382,0.982056,0.00841663,-7.20783,7.11167,-0.954417,-1.24869,1.38865,8.17505,-0.194957,1.31326,-1.75716,-8.75142,0.190666,0.0363096,7.00467,-7.5694,0.983409,0.00011396,0.126841,-0.235,0.00325593,0.102492,-0.238013,-0.0034322,-0.101418,0.239526,-0.000244866,-0.126288,0.236182,0,0.12645,-0.252899,0,0.12645,-0.252899,0,-0.12645,0.252899,0,-0.12645,0.252899,0.476789,0.0972244,-0.094318,-0.491028,0,0,0,0,
0.0192852,-6.91624,6.64997,-0.977445,-1.23654,1.39328,7.65817,-0.208467,1.29513,-1.79439,-8.25241,0.205659,0.0181761,6.68508,-7.05254,1.01197,0.0214589,-7.18815,7.18553,-0.978798,-1.23704,1.13202,8.19847,-0.2103,1.29565,-1.55378,-8.7936,0.207478,0.0175991,6.94432,-7.56728,1.01319,8.54675e-05,0.130737,-0.242914,0.00322653,0.107052,-0.245834,-0.0033953,-0.105815,0.247337,-0.000208239,-0.130025,0.243748,0,0.130377,-0.260753,0,0.130377,-0.260753,0,-0.130377,0.260753,0,-0.130377,0.260753,0.488723,0.104233,-0.102829,-0.505986,0,0,0,0,
0.0306515,-6.86182,6.67986,-1.00553,-1.22216,1.17037,7.65231,-0.226981,1.27937,-1.50222,-8.22907,0.224928,0.00146441,6.67782,-7.16669,1.04297,0.0300439,-7.13162,7.21174,-1.00687,-1.22285,0.911237,8.18918,-0.228902,1.27984,-1.24272,-8.76526,0.226795,0.00160118,6.94775,-7.69694,1.04411,5.48924e-05,0.134465,-0.250527,0.00319667,0.111424,-0.253356,-0.00335979,-0.110423,0.254846,-0.000169768,-0.133936,0.251711,0,0.134304,-0.268607,0,0.134304,-0.268607,0,-0.134304,0.268607,0,-0.134304,0.268607,0.502765,0.113491,-0.112464,-0.521487,0,0,0,0,
0.0186186,-6.8233,6.75043,-1.03411,-1.21703,0.9391,7.66646,-0.244746,1.25522,-1.25134,-8.23737,0.244135,-0.0234472,6.6472,-7.24152,1.07562,0.0178742,-7.09361,7.28279,-1.03553,-1.22004,0.683726,8.19564,-0.24643,1.25394,-0.993832,-8.77113,0.245948,-0.0266219,6.90845,-7.75629,1.07609,2.93676e-05,0.138208,-0.258208,0.00316581,0.115819,-0.26094,-0.00332326,-0.114857,0.262423,-0.00013196,-0.137694,0.259402,0,0.138231,-0.276461,0,0.138231,-0.276461,0,-0.138231,0.276461,0,-0.138231,0.276461,0.517056,0.122373,-0.122067,-0.53781,0,0,0,0,
0.03852,-6.81307,6.8056,-1.06,-1.19742,0.657417,7.76376,-0.261286,1.24433,-0.956501,-8.33855,0.262852,-0.0339773,6.6378,-7.40318,1.10626,0.0346276,-7.08544,7.31891,-1.06133,-1.19931,0.39876,8.29823,-0.261588,1.24374,-0.696579,-8.8747,0.264578,-0.0350347,6.90823,-7.93068,1.1072,-2.69247e-05,0.142136,-0.265958,0.00313762,0.120435,-0.26893,-0.00328005,-0.119512,0.270397,-8.74945e-05,-0.141632,0.2675,0,0.142158,-0.284315,0,0.142158,-0.284315,0,-0.142158,0.284315,0,-0.142158,0.284315,0.529999,0.130643,-0.131426,-0.553131,0,0,0,0,
0.0775613,-6.74059,6.94413,-1.08748,-1.18176,0.432585,7.78063,-0.277618,1.22765,-0.714829,-8.35311,0.282425,-0.0493188,6.5778,-7.4704,1.13821,0.0765431,-7.01111,7.47385,-1.0887,-1.18212,0.173941,8.31384,-0.279328,1.22868,-0.45639,-8.88759,0.284118,-0.0490839,6.84901,-7.9997,1.13923,-5.29985e-05,0.145889,-0.274091,0.00310431,0.124861,-0.276612,-0.00324334,-0.123977,0.278073,-5.00025e-05,-0.145403,0.275304,0,0.146085,-0.292169,0,0.146085,-0.292169,0,-0.146085,0.292169,0,-0.146085,0.292169,0.543738,0.138809,-0.141212,-0.569103,0,0,0,0,
0.0936205,-6.65788,6.96703,-1.11671,-1.16947,0.232653,7.76476,-0.296952,1.20727,-0.499302,-8.33178,0.303822,-0.0334752,6.49127,-7.48344,1.17134,0.0931059,-6.92483,7.48928,-1.11778,-1.16962,-0.0229926,8.2944,-0.298726,1.20857,-0.243584,-8.86069,0.305509,-0.0400582,6.75795,-8.00538,1.17224,-8.24155e-05,0.14948,-0.281576,0.00307426,0.129103,-0.283999,-0.00320392,-0.128258,0.285451,-1.51512e-05,-0.149004,0.282797,0,0.150012,-0.300023,0,0.150012,-0.300023,0,-0.150012,0.300023,0,-0.150012,0.300023,0.558355,0.148476,-0.151911,-0.58567,0,0,0,0,
0.112079,-6.62494,7.11231,-1.14525,-1.1525,-0.0267499,7.86024,-0.314118,1.19326,-0.22333,-8.42489,0.323476,-0.0835888,6.46224,-7.64294,1.20473,0.11125,-6.89376,7.63747,-1.14638,-1.15308,-0.283193,8.38903,-0.315781,1.19411,0.0328152,-8.95431,0.325057,-0.082055,6.73171,-8.16821,1.20564,-0.000119187,0.153266,-0.2895,0.00303802,0.133584,-0.291822,-0.00316612,-0.132777,0.293265,3.49343e-05,-0.152805,0.290743,0,0.153939,-0.307877,0,0.153939,-0.307877,0,-0.153939,0.307877,0,-0.153939,0.307877,0.572627,0.157059,-0.161738,-0.602363,0,0,0,0,
0.128362,-6.53646,7.1535,-1.17339,-1.13642,-0.237355,7.77782,-0.332608,1.17827,0.00134739,-8.43987,0.344552,-0.103573,6.32784,-7.69016,1.23826,0.127564,-6.80342,7.6745,-1.17446,-1.13704,-0.49238,8.26888,-0.334299,1.1792,0.256163,-8.96719,0.346086,-0.102845,6.58294,-8.21127,1.23856,-0.000152237,0.156893,-0.297129,0.00300436,0.137887,-0.298996,-0.00312808,-0.137118,0.300794,7.32474e-05,-0.15627,0.29839,0,0.157866,-0.315731,0,0.157866,-0.315731,0,-0.157866,0.315731,0,-0.157866,0.315731,0.586697,0.166304,-0.172276,-0.619132,0,0,0,0,
0.145053,-6.46536,7.21296,-1.20331,-1.12142,-0.448373,7.90604,-0.352492,1.16375,0.224418,-8.45838,0.366745,-0.120247,6.30051,-7.75077,1.27172,0.144252,-6.7293,7.7281,-1.20432,-1.12205,-0.700653,8.42721,-0.354055,1.16614,0.477551,-8.98101,0.368286,-0.119653,6.56521,-8.2667,1.27246,-0.00018834,0.160387,-0.3045,0.00297125,0.142036,-0.306645,-0.00309344,-0.141303,0.308074,0.000111025,-0.159944,0.305776,0,0.161793,-0.323585,0,0.161793,-0.323585,0,-0.161793,0.323585,0,-0.161793,0.323585,0.601656,0.176246,-0.183373,-0.635862,0,0,0,0,
0.138405,-6.38554,7.27121,-1.22895,-1.12854,-1.20708,9.07252,-0.4664,1.11052,0.470887,-8.55503,0.388719,-0.174143,6.20602,-7.8614,1.30493,0.164199,-6.64443,7.79595,-1.23029,-1.10532,-1.3396,9.35607,-0.445267,1.14244,0.701273,-9.01992,0.387473,-0.145019,6.47516,-8.36618,1.30507,-0.000218974,0.16408,-0.312315,0.0029424,0.146458,-0.314447,-0.00304404,-0.145737,0.315813,0.000160052,-0.163641,0.31362,0,0.16572,-0.331439,0,0.16572,-0.331439,0,-0.16572,0.331439,0,-0.16572,0.331439,0.614476,0.2332,-0.194359,-0.652464,0,0,0,0,
0.204825,-6.1701,7.14377,-1.25259,-1.06471,-0.454045,7.41339,-0.422791,1.14606,0.48613,-8.18285,0.396873,-0.141556,6.00065,-7.69334,1.33053,0.200359,-6.33784,7.4711,-1.24392,-1.06858,-0.671685,7.86818,-0.42351,1.13993,0.6748,-8.58604,0.392516,-0.144205,6.16767,-8.02808,1.32195,-0.000256759,0.167581,-0.319768,0.00290637,0.15062,-0.321849,-0.00300326,-0.149992,0.323264,0.000202547,-0.167147,0.321102,0,0.169647,-0.339293,0,0.169647,-0.339293,0,-0.169647,0.339293,0,-0.169647,0.339293,0.626293,0.211396,-0.198437,-0.665264,0,0,0,0,
0.189743,-6.14734,7.05937,-1.28685,-1.07936,-0.591343,7.38689,-0.464352,1.10529,0.834205,-8.48814,0.439138,-0.1817,5.96278,-7.78565,1.36863,0.172769,-6.39644,7.52769,-1.28692,-1.09697,-0.876416,7.96861,-0.472968,1.08638,1.04389,-8.9351,0.43704,-0.198967,6.20386,-8.26756,1.36867,-0.000288935,0.170634,-0.325879,0.00287583,0.154215,-0.328294,-0.002968,-0.153644,0.329671,0.000239536,-0.170194,0.327612,0,0.173574,-0.347147,0,0.173574,-0.347147,0,-0.173574,0.347147,0,-0.173574,0.347147,0.643423,0.232176,-0.219569,-0.684313,0,0,0,0,
0.296372,-6.22586,7.71751,-1.31127,-0.970655,-1.40364,7.86291,-0.57,1.16113,1.085,-8.48178,0.488559,-0.132545,6.04004,-8.13419,1.39923,0.300123,-6.48627,8.22725,-1.31215,-1.00091,-1.23903,8.13316,-0.520964,1.13016,1.82627,-9.33912,0.509527,-0.124884,6.31611,-8.65236,1.39918,-0.000350627,0.17486,-0.335276,0.00282017,0.159179,-0.336864,-0.00293273,-0.158524,0.338678,0.000277253,-0.174414,0.336238,0,0.177501,-0.355001,0,0.177501,-0.355001,0,-0.177501,0.355001,0,-0.177501,0.355001,0.655636,0.285,-0.24428,-0.699616,0,0,0,0,
0.299867,-6.0834,7.78494,-1.33462,-0.975727,-1.36347,8.57815,-0.606221,1.10503,1.62375,-8.80343,0.606118,-0.182357,5.88407,-8.33515,1.42871,0.297234,-6.35856,8.29799,-1.33545,-1.00732,-1.24594,8.35511,-0.563394,1.07843,1.91805,-10.2135,0.604338,-0.208249,6.15503,-8.86544,1.4292,-0.000407526,0.178826,-0.343799,0.00276516,0.163821,-0.345731,-0.00288738,-0.163471,0.347517,0.000324239,-0.178363,0.345158,0,0.181428,-0.362855,0,0.181428,-0.362855,0,-0.181428,0.362855,0,-0.181428,0.362855,0.66731,0.303111,-0.303059,-0.714355,0,0,0,0,
0.289293,-5.9131,7.81478,-1.3588,-0.98166,-1.39674,8.53429,-0.653112,1.0518,1.18484,-8.75915,0.601642,-0.235781,5.67711,-8.37785,1.46036,0.278127,-6.18382,8.33944,-1.3606,-0.993842,-1.65662,9.05551,-0.65326,1.04106,1.59746,-10.1724,0.654633,-0.250981,5.94546,-8.89644,1.46091,-0.000459247,0.182701,-0.352209,0.00271223,0.168364,-0.354101,-0.00284116,-0.168281,0.355471,0.000372567,-0.182217,0.353581,0,0.185355,-0.370709,0,0.185355,-0.370709,0,-0.185355,0.370709,0,-0.185355,0.370709,0.679401,0.326556,-0.300821,-0.730181,0,0,0,0,
0.318968,-5.78259,7.98972,-1.38859,-0.952784,-1.49023,8.60585,-0.686787,1.03247,1.83446,-9.69316,0.692097,-0.256572,5.53648,-8.58872,1.49631,0.30026,-6.06292,8.51585,-1.38964,-0.972022,-1.74894,9.11686,-0.686533,1.0167,2.09389,-10.2128,0.687833,-0.272288,5.80965,-9.11981,1.49726,-0.000516792,0.186669,-0.360909,0.00265699,0.17301,-0.362738,-0.0027901,-0.172811,0.364101,0.000425873,-0.186155,0.36229,0,0.189282,-0.378563,0,0.189282,-0.378563,0,-0.189282,0.378563,0,-0.189282,0.378563,0.694293,0.343393,-0.346048,-0.748157,0,0,0,0,
0.363274,-5.60776,8.08556,-1.41742,-0.909511,-1.60573,8.74276,-0.723133,1.03253,1.49203,-8.86737,0.677748,-0.256779,5.33122,-8.65941,1.53146,0.359028,-5.8769,8.60605,-1.41881,-0.914119,-1.86362,9.26035,-0.723712,1.02772,2.17531,-10.2191,0.728172,-0.263284,5.60842,-9.18927,1.53235,-0.000573091,0.190403,-0.369178,0.00260279,0.177392,-0.37095,-0.00274016,-0.177267,0.372299,0.00047796,-0.189852,0.370564,0,0.193209,-0.386417,0,0.193209,-0.386417,0,-0.193209,0.386417,0,-0.193209,0.386417,0.708712,0.361566,-0.338874,-0.765731,0,0,0,0,
0.399089,-5.45776,8.11589,-1.449,-0.877279,-1.91191,8.89685,-0.750402,1.02463,1.52547,-8.9324,0.691043,-0.265775,5.15559,-8.70742,1.56852,0.382879,-5.72179,8.60323,-1.44923,-0.894703,-2.06756,8.6557,-0.708214,1.01099,1.92223,-10.2839,0.711241,-0.283101,5.43087,-9.2131,1.56814,-0.00063114,0.194091,-0.37704,0.00254696,0.181734,-0.378749,-0.0026948,-0.18167,0.380099,0.00052532,-0.193505,0.378447,0,0.197136,-0.394271,0,0.197136,-0.394271,0,-0.197136,0.394271,0,-0.197136,0.394271,0.724502,0.375201,-0.345522,-0.784261,0,0,0,0,
0.355005,-5.2729,8.27026,-1.47764,-0.918622,-1.52809,8.32002,-0.735852,0.934865,1.7427,-9.04247,0.722829,-0.356929,4.93531,-8.90982,1.6029,0.366616,-5.53422,8.77674,-1.47774,-0.90821,-2.13488,9.53052,-0.780561,0.943729,1.89008,-9.35214,0.71521,-0.347687,5.19337,-9.40099,1.60291,-0.000688441,0.197591,-0.385287,0.00249187,0.185883,-0.386982,-0.00264019,-0.185862,0.388266,0.000582029,-0.196963,0.386715,0,0.201063,-0.402125,0,0.201063,-0.402125,0,-0.201063,0.402125,0,-0.201063,0.402125,0.738819,0.367926,-0.361415,-0.80145,0,0,0,0,
0.414479,-5.10603,8.44156,-1.50788,-0.861643,-1.65822,8.50353,-0.753923,0.967273,2.09737,-9.63251,0.791874,-0.330782,5.16281,-9.10029,1.47902,0.41665,-5.37265,8.93977,-1.50806,-0.862422,-1.95524,9.09354,-0.763763,0.966186,2.37916,-10.2054,0.795765,-0.335839,5.39242,-9.54653,1.48792,-0.000746214,0.201241,-0.393549,0.0024365,0.190214,-0.39521,-0.00259287,-0.190076,0.396159,0.000634642,-0.20063,0.394611,0,0.20499,-0.409979,0,0.20499,-0.409979,0,-0.20499,0.409979,0,-0.20499,0.409979,0.753941,0.376962,-0.395937,-0.739508,0,0,0,0,
0.382924,-4.94075,8.59471,-1.53793,-0.897506,-2.25712,9.6326,-0.828447,0.929752,1.8872,-8.95936,0.736403,-0.367212,5.33221,-9.22521,1.3049,0.415295,-5.1931,9.09852,-1.53806,-0.866182,-2.42485,9.98512,-0.817218,0.964537,2.14304,-9.46641,0.740523,-0.333257,5.58484,-9.72088,1.31172,-0.000791852,0.204715,-0.401474,0.00239399,0.194337,-0.403106,-0.00254559,-0.194478,0.404413,0.000684738,-0.204336,0.402975,0,0.208916,-0.417833,0,0.208916,-0.417833,0,-0.208916,0.417833,0,-0.208916,0.417833,0.768966,0.414224,-0.368202,-0.652451,0,0,0,0,
0.40664,-4.64698,8.43418,-1.56444,-0.874158,-1.64489,8.33587,-0.769196,0.948878,2.04375,-8.98757,0.728323,-0.352567,5.27678,-8.98771,1.2316,0.399285,-4.89511,8.90961,-1.56453,-0.884777,-1.90541,8.87836,-0.778546,0.93903,2.44113,-9.78948,0.74737,-0.365157,5.51907,-9.48135,1.23569,-0.000818543,0.207854,-0.408668,0.00237017,0.198048,-0.410235,-0.0025033,-0.198311,0.411575,0.000730738,-0.207769,0.410173,0,0.212843,-0.425687,0,0.212843,-0.425687,0,-0.212843,0.425687,0,-0.212843,0.425687,0.782222,0.384598,-0.364161,-0.615798,0,0,0,0,
0.462648,-4.84216,8.77117,-1.49645,-0.824533,-2.34097,9.50364,-0.837003,1.00074,2.83765,-10.3063,0.794222,-0.302654,5.37637,-9.14526,1.20839,0.45059,-5.09584,9.27672,-1.5027,-0.838553,-2.47236,9.76869,-0.823519,0.987132,3.07957,-10.798,0.795123,-0.315264,5.62938,-9.65294,1.21133,-0.000852125,0.211119,-0.416037,0.00234097,0.201852,-0.417527,-0.00247681,-0.202236,0.418895,0.000761238,-0.211299,0.417476,0,0.21677,-0.433541,0,0.21677,-0.433541,0,-0.21677,0.433541,0,-0.21677,0.433541,0.748225,0.418501,-0.397111,-0.604195,0,0,0,0,
0.348299,-5.16537,9.04599,-1.33043,-0.933964,-2.64807,9.18841,-0.865497,0.900089,2.97937,-10.6533,0.800198,-0.406159,5.55336,-9.47074,1.14376,0.352838,-5.41272,9.56874,-1.34036,-0.927962,-3.07308,10.5908,-0.890469,0.907264,3.12851,-11.1438,0.789561,-0.400808,5.81894,-10.0093,1.15394,-0.000882813,0.215087,-0.424658,0.002315,0.206345,-0.42651,-0.00245882,-0.206793,0.42784,0.000784116,-0.215494,0.426096,0,0.220697,-0.441395,0,0.220697,-0.441395,0,-0.220697,0.441395,0,-0.220697,0.441395,0.665214,0.432748,-0.400099,-0.571882,0,0,0,0,
0.405749,-5.33744,9.16302,-1.21375,-0.881319,-2.87635,10.0023,-0.7992,0.944703,2.99476,-10.4909,0.79391,-0.361561,5.68604,-9.64949,1.06714,0.425919,-5.60372,9.70162,-1.21881,-0.860985,-3.13735,10.5446,-0.802719,0.973703,2.82042,-10.1511,0.747106,-0.337969,5.94471,-10.158,1.07098,-0.000917445,0.219357,-0.433603,0.00228497,0.210969,-0.434913,-0.00245249,-0.21146,0.436251,0.000795638,-0.219858,0.43495,0,0.224624,-0.449249,0,0.224624,-0.449249,0,-0.224624,0.449249,0,-0.224624,0.449249,0.606876,0.3996,-0.396955,-0.53357,0,0,0,0,
0.398314,-5.34914,9.22234,-1.17221,-0.911735,-2.5721,9.84407,-0.735192,0.916022,2.65983,-9.76581,0.74892,-0.412277,5.72242,-9.75096,1.03941,0.429234,-5.60525,9.74069,-1.17419,-0.891936,-3.21983,10.4403,-0.778273,0.949203,2.78116,-10.0226,0.752932,-0.392259,5.97773,-10.2485,1.04063,-0.000944943,0.223593,-0.442366,0.00226192,0.215565,-0.443211,-0.00243816,-0.216031,0.444946,0.000816533,-0.224185,0.44369,0,0.228551,-0.457102,0,0.228551,-0.457102,0,-0.228551,0.457102,0,-0.228551,0.457102,0.586103,0.367596,-0.37446,-0.519704,0,0,0,0,
0.439282,-5.4811,9.39529,-1.1403,-0.851458,-2.65337,9.12354,-0.740279,0.934586,3.00903,-10.4287,0.815711,-0.375726,5.71272,-9.83535,1.04275,0.449161,-5.76711,9.97645,-1.15023,-0.842724,-3.29706,10.3928,-0.782087,0.947411,2.86858,-10.1648,0.773896,-0.364482,5.96654,-10.3341,1.04413,-0.00096663,0.227485,-0.450374,0.00224415,0.219739,-0.451433,-0.00241404,-0.220156,0.452836,0.000842677,-0.228104,0.45162,0,0.232478,-0.464956,0,0.232478,-0.464956,0,-0.232478,0.464956,0,-0.232478,0.464956,0.57015,0.37014,-0.407856,-0.521374,0,0,0,0,
0.450659,-5.52937,9.34613,-1.05631,-0.842132,-2.63147,8.96247,-0.74339,0.914096,2.66269,-9.67227,0.787773,-0.39675,5.69221,-9.89789,1.05276,0.447469,-5.78362,9.85214,-1.05966,-0.844387,-3.02363,9.74132,-0.759065,0.910057,3.07275,-10.4837,0.805199,-0.401308,5.95258,-10.4074,1.05358,-0.000999905,0.231578,-0.458653,0.00221498,0.224072,-0.459588,-0.00239682,-0.224424,0.461056,0.000864175,-0.232185,0.459925,0,0.236405,-0.47281,0,0.236405,-0.47281,0,-0.236405,0.47281,0,-0.236405,0.47281,0.528153,0.371695,-0.393887,-0.526382,0,0,0,0,
0.464455,-5.44808,9.10675,-1.04219,-0.829655,-3.10264,9.73994,-0.823624,0.904653,2.552,-9.38252,0.808285,-0.41048,5.51706,-9.63528,1.07337,0.485533,-5.68539,9.59924,-1.04442,-0.811061,-3.30709,10.175,-0.820912,0.925829,2.92934,-10.1217,0.823014,-0.39211,5.76794,-10.118,1.0736,-0.00102267,0.234958,-0.465433,0.00219564,0.227625,-0.466301,-0.0023745,-0.227903,0.467772,0.000890171,-0.235509,0.466714,0,0.240332,-0.480664,0,0.240332,-0.480664,0,-0.240332,0.480664,0,-0.240332,0.480664,0.521093,0.411812,-0.404142,-0.536683,0,0,0,0,
0.447847,-5.69694,9.54926,-1.04555,-0.847868,-3.30318,10.0408,-0.843596,0.861314,3.31307,-10.7957,0.873708,-0.451977,5.69135,-10.1053,1.09892,0.447172,-5.95455,10.0613,-1.04693,-0.84813,-3.54735,10.6096,-0.84725,0.863695,3.46561,-11.1011,0.830918,-0.451549,5.95026,-10.6133,1.09982,-0.00104835,0.239182,-0.473868,0.00217419,0.231832,-0.474651,-0.00234408,-0.232226,0.476133,0.000924864,-0.23964,0.475162,0,0.244259,-0.488518,0,0.244259,-0.488518,0,-0.244259,0.488518,0,-0.244259,0.488518,0.522773,0.421798,-0.436854,-0.54946,0,0,0,0,
0.452405,-5.69308,9.58033,-1.05867,-0.845531,-3.0633,9.45126,-0.828203,0.862731,3.31576,-10.7971,0.904682,-0.45399,5.63241,-10.1643,1.12278,0.453882,-5.94515,10.0833,-1.0593,-0.846032,-3.69861,10.6888,-0.868499,0.852042,3.45034,-11.0693,0.891961,-0.464827,5.8836,-10.6609,1.12322,-0.00107338,0.24322,-0.481936,0.0021535,0.236434,-0.483012,-0.00231634,-0.236345,0.484134,0.000957178,-0.243575,0.483247,0,0.248186,-0.496372,0,0.248186,-0.496372,0,-0.248186,0.496372,0,-0.248186,0.496372,0.529336,0.414101,-0.452341,-0.561392,0,0,0,0,
0.485691,-5.74999,9.82744,-1.07771,-0.814386,-3.47469,10.2204,-0.887181,0.872402,3.02364,-10.2755,0.882154,-0.446184,5.65013,-10.4464,1.14521,0.488949,-6.01449,10.3545,-1.0787,-0.810981,-3.75073,10.845,-0.893797,0.874807,3.67187,-11.5374,0.923871,-0.44593,5.9228,-10.9734,1.1462,-0.00110134,0.247765,-0.491064,0.00213058,0.240777,-0.491699,-0.00229104,-0.240992,0.49322,0.00098746,-0.248005,0.492416,0,0.252113,-0.504226,0,0.252113,-0.504226,0,-0.252113,0.504226,0,-0.252113,0.504226,0.538854,0.443591,-0.441077,-0.572604,0,0,0,0,
0.5211,-5.68455,9.84358,-1.1029,-0.778529,-3.57235,10.3959,-0.922479,0.893211,2.989,-10.2166,0.902086,-0.427642,5.55105,-10.4519,1.1722,0.526344,-5.93926,10.3537,-1.10379,-0.776432,-3.72223,10.6996,-0.910565,0.898551,3.62551,-11.4543,0.942792,-0.423747,5.81726,-10.9638,1.17251,-0.00112315,0.251679,-0.498983,0.0021134,0.24504,-0.499532,-0.00226771,-0.244992,0.501093,0.00101553,-0.251815,0.500367,0,0.25604,-0.51208,0,0.25604,-0.51208,0,-0.25604,0.51208,0,-0.25604,0.51208,0.551451,0.461239,-0.451043,-0.586098,0,0,0,0,
0.46125,-5.56741,9.54661,-1.13049,-0.841327,-3.09586,9.96648,-0.942849,0.816364,3.31247,-10.4867,0.955735,-0.513252,5.31497,-10.294,1.19855,0.454862,-5.82015,10.0197,-1.12958,-0.848885,-3.70393,10.5131,-0.946244,0.812257,3.45352,-10.2399,0.915073,-0.492181,5.50611,-10.775,1.19346,-0.00113934,0.255039,-0.50543,0.00210116,0.248547,-0.50595,-0.00224573,-0.248425,0.50748,0.00103956,-0.254902,0.50722,0,0.259967,-0.519934,0,0.259967,-0.519934,0,-0.259967,0.519934,0,-0.259967,0.519934,0.565244,0.471424,-0.477867,-0.599276,0,0,0,0,
0.506372,-5.49683,9.59118,-1.15943,-0.806941,-3.05955,9.22749,-0.921665,0.847434,3.35353,-10.7968,0.995394,-0.475975,5.30061,-10.1762,1.22627,0.473558,-5.73944,10.0571,-1.15907,-0.834069,-3.19858,9.51847,-0.914367,0.816134,3.58688,-11.2816,0.995706,-0.510132,5.52668,-10.6405,1.22579,-0.00115299,0.258114,-0.512066,0.00209141,0.251737,-0.512502,-0.00222544,-0.251578,0.514086,0.00106601,-0.25808,0.51348,0,0.263894,-0.527788,0,0.263894,-0.527788,0,-0.263894,0.527788,0,-0.263894,0.527788,0.579715,0.460833,-0.497697,-0.613133,0,0,0,0,
0.539934,-5.76056,10.2735,-1.1893,-0.766441,-3.78906,10.6516,-0.995676,0.866189,3.17702,-10.523,0.970536,-0.459765,5.52505,-10.9055,1.25888,0.542811,-6.01337,10.7785,-1.18971,-0.766513,-3.93778,10.9503,-0.983779,0.869012,3.79301,-11.723,1.00925,-0.458289,5.78737,-11.4104,1.2588,-0.00117675,0.262807,-0.521624,0.00207273,0.256644,-0.522028,-0.00219798,-0.256398,0.523595,0.00109864,-0.262656,0.523058,0,0.267821,-0.535641,0,0.267821,-0.535641,0,-0.267821,0.535641,0,-0.267821,0.535641,0.594652,0.497838,-0.485268,-0.629441,0,0,0,0,
0.533856,-5.68364,10.352,-1.2171,-0.775745,-3.79036,10.7251,-1.02477,0.843954,3.5731,-11.4173,1.04115,-0.485821,5.41747,-11.0257,1.28739,0.532417,-5.94308,10.8584,-1.21723,-0.779329,-4.03228,11.2015,-1.02261,0.842653,3.86115,-11.9887,1.04499,-0.489754,5.67787,-11.5304,1.2874,-0.00119716,0.267025,-0.530288,0.00205745,0.261052,-0.530655,-0.00217431,-0.260741,0.532235,0.00112763,-0.266774,0.531757,0,0.271748,-0.543495,0,0.271748,-0.543495,0,-0.271748,0.543495,0,-0.271748,0.543495,0.608552,0.512384,-0.520577,-0.643695,0,0,0,0,
0.524609,-5.63122,10.5283,-1.24673,-0.787622,-3.74077,10.7171,-1.04751,0.821222,3.59252,-11.5981,1.07093,-0.502364,5.33757,-11.131,1.31566,0.519658,-5.90129,11.0488,-1.24691,-0.794979,-4.01793,11.2624,-1.04965,0.816148,3.8608,-12.1218,1.07165,-0.509338,5.60665,-11.6353,1.31579,-0.00121923,0.27132,-0.539204,0.00204059,0.265358,-0.539158,-0.00215536,-0.264983,0.540745,0.00115308,-0.270973,0.540336,0,0.275675,-0.551349,0,0.275675,-0.551349,0,-0.275675,0.551349,0,-0.275675,0.551349,0.623366,0.523757,-0.535467,-0.657831,0,0,0,0,
0.538966,-5.47456,10.5008,-1.27677,-0.775303,-3.75111,10.8724,-1.07238,0.825749,3.47465,-11.5088,1.08681,-0.508103,5.19907,-11.2186,1.34545,0.538451,-5.73371,11.0049,-1.27677,-0.775937,-4.03553,11.4361,-1.07538,0.825205,3.73907,-12.0314,1.08809,-0.509817,5.46644,-11.7197,1.34532,-0.00124266,0.275156,-0.547251,0.00202263,0.26977,-0.54795,-0.00213772,-0.269154,0.549175,0.00117517,-0.274903,0.548813,0,0.279602,-0.559203,0,0.279602,-0.559203,0,-0.279602,0.559203,0,-0.279602,0.559203,0.638386,0.536189,-0.543406,-0.672723,0,0,0,0,
0.55843,-5.30894,10.4927,-1.30789,-0.759979,-3.66212,10.8309,-1.10517,0.83278,3.37192,-11.4484,1.11192,-0.508339,4.96586,-11.2088,1.37673,0.551144,-5.51561,10.8933,-1.30289,-0.765755,-3.75653,11.0149,-1.08737,0.824224,3.60412,-11.908,1.11002,-0.509309,5.17403,-11.6146,1.37167,-0.00126191,0.278927,-0.555239,0.00200822,0.273539,-0.555523,-0.00212205,-0.273077,0.557162,0.00119574,-0.278418,0.556846,0,0.283529,-0.567057,0,0.283529,-0.567057,0,-0.283529,0.567057,0,-0.283529,0.567057,0.653945,0.552583,-0.555958,-0.688363,0,0,0,0,
0.530088,-5.17537,10.4543,-1.33495,-0.787527,-3.23392,10.0704,-1.09112,0.789614,3.33799,-11.4732,1.13884,-0.547593,4.79273,-11.1658,1.40323,0.528638,-5.42024,10.9327,-1.33426,-0.793669,-3.79345,11.1661,-1.12563,0.791237,3.47148,-11.741,1.12616,-0.552107,5.03091,-11.6347,1.40301,-0.00127739,0.282334,-0.562507,0.00199734,0.277127,-0.562777,-0.00210465,-0.276621,0.564405,0.00121814,-0.281752,0.564134,0,0.287455,-0.574911,0,0.287455,-0.574911,0,-0.287455,0.574911,0,-0.287455,0.574911,0.667474,0.545562,-0.56942,-0.701617,0,0,0,0,
0.533967,-5.19125,10.7763,-1.36627,-0.785144,-3.32829,10.3733,-1.11911,0.778523,3.44535,-11.8046,1.1679,-0.559601,4.78531,-11.489,1.43541,0.529442,-5.44651,11.2688,-1.36581,-0.791371,-3.90292,11.4924,-1.15452,0.777615,3.59436,-12.0952,1.15576,-0.565479,5.02787,-11.9644,1.43488,-0.00129732,0.286143,-0.570659,0.00198252,0.281139,-0.570916,-0.00208785,-0.280599,0.572547,0.00124016,-0.285484,0.572306,0,0.291382,-0.582765,0,0.291382,-0.582765,0,-0.291382,0.582765,0,-0.291382,0.582765,0.683136,0.559555,-0.583951,-0.717705,0,0,0,0,
0.569972,-5.17564,11.126,-1.39839,-0.752709,-3.69621,11.323,-1.18437,0.803421,3.4459,-12.0427,1.19151,-0.538944,4.75184,-11.8487,1.45124,0.581759,-5.43569,11.6294,-1.39764,-0.74134,-3.97902,11.8994,-1.18778,0.823463,3.39016,-11.9208,1.15465,-0.529372,4.94512,-12.2269,1.44888,-0.0013234,0.290305,-0.579627,0.00196212,0.285348,-0.579896,-0.00207443,-0.284956,0.58151,0.00125963,-0.289555,0.581276,0,0.295309,-0.590619,0,0.295309,-0.590619,0,-0.295309,0.590619,0,-0.295309,0.590619,0.699194,0.592184,-0.595753,-0.72562,0,0,0,0,
0.583665,-5.03054,11.2992,-1.43188,-0.740352,-3.73295,11.6596,-1.22584,0.82212,3.35824,-12.1115,1.22445,-0.524715,4.76993,-12.0378,1.42162,0.583875,-5.29157,11.801,-1.43174,-0.745093,-3.89119,11.9638,-1.21315,0.82296,3.65039,-12.6803,1.22779,-0.525807,5.0225,-12.5282,1.42287,-0.00134625,0.294214,-0.58814,0.00194517,0.289656,-0.588392,-0.00206626,-0.289075,0.590066,0.00127392,-0.29346,0.589846,0,0.299236,-0.598473,0,0.299236,-0.598473,0,-0.299236,0.598473,0,-0.299236,0.598473,0.715942,0.61292,-0.612225,-0.71081,0,0,0,0,
0.557141,-4.84448,11.3153,-1.46194,-0.770767,-3.5063,11.4381,-1.24041,0.786378,3.37147,-12.4088,1.26684,-0.555817,4.6199,-12.0574,1.41828,0.555351,-5.10359,11.8119,-1.46144,-0.773054,-3.79635,12.004,-1.244,0.789599,3.52766,-12.7053,1.25408,-0.557667,4.87841,-12.5597,1.41957,-0.00136118,0.297879,-0.596208,0.00193581,0.293528,-0.596463,-0.00205739,-0.292921,0.598127,0.00128866,-0.297155,0.597944,0,0.303163,-0.606327,0,0.303163,-0.606327,0,-0.303163,0.606327,0,-0.303163,0.606327,0.730971,0.620204,-0.633421,-0.70914,0,0,0,0,
0.594539,-4.82866,11.5812,-1.44729,-0.736074,-3.57862,11.8852,-1.28426,0.828129,3.20482,-12.3788,1.2901,-0.52751,4.30704,-11.7585,1.40091,0.597388,-5.0825,12.0837,-1.45045,-0.734302,-3.82591,12.3702,-1.28245,0.834061,3.48692,-12.9258,1.29252,-0.520855,4.78637,-12.6933,1.42959,-0.00137867,0.301685,-0.604632,0.00192445,0.29753,-0.604874,-0.00205182,-0.296933,0.606599,0.00129944,-0.300993,0.606375,0,0.30709,-0.61418,0,0.30709,-0.61418,0,-0.30709,0.61418,0,-0.30709,0.61418,0.723644,0.642132,-0.645048,-0.700454,0,0,0,0,
0.542202,-4.76179,11.7089,-1.43047,-0.7913,-3.30896,11.6783,-1.29454,0.778542,3.19661,-12.7009,1.32902,-0.572243,4.62126,-12.4486,1.3657,0.537394,-5.01886,12.2088,-1.43152,-0.796671,-3.59474,12.2302,-1.29744,0.779193,3.35749,-13.003,1.31642,-0.578312,4.86565,-12.9355,1.36783,-0.00139054,0.305516,-0.613057,0.00191873,0.301481,-0.613258,-0.00204862,-0.300865,0.614989,0.00130897,-0.304879,0.614836,0,0.311017,-0.622034,0,0.311017,-0.622034,0,-0.311017,0.622034,0,-0.311017,0.622034,0.715236,0.647269,-0.66451,-0.68285,0,0,0,0,
0.590388,-4.58912,11.6723,-1.43218,-0.744089,-3.20146,11.7316,-1.31997,0.828199,2.93391,-12.4469,1.34215,-0.527969,4.53196,-12.4169,1.34935,0.578202,-4.83933,12.154,-1.43271,-0.762919,-3.16733,11.6551,-1.28645,0.816954,3.22826,-13.0237,1.34665,-0.540808,4.7804,-12.9054,1.35019,-0.00139609,0.30899,-0.620702,0.00191819,0.305023,-0.620837,-0.00204359,-0.30442,0.622624,0.00132029,-0.308426,0.622497,0,0.314944,-0.629888,0,0.314944,-0.629888,0,-0.314944,0.629888,0,-0.314944,0.629888,0.716092,0.659985,-0.671073,-0.674676,0,0,0,0,
0.578195,-4.5598,11.8593,-1.44091,-0.759924,-3.1717,11.9672,-1.35106,0.822579,2.9466,-12.8237,1.38342,-0.533012,4.50476,-12.6551,1.36071,0.581772,-4.82153,12.3686,-1.44293,-0.761004,-3.456,12.5142,-1.35511,0.824312,3.24243,-13.2975,1.38154,-0.536128,4.75356,-13.1434,1.36116,-0.00140603,0.312707,-0.628862,0.0019132,0.308955,-0.629275,-0.00204511,-0.308319,0.630661,0.00132513,-0.312184,0.630602,0,0.318871,-0.637742,0,0.318871,-0.637742,0,-0.318871,0.637742,0,-0.318871,0.637742,0.720455,0.675528,-0.691708,-0.680355,0,0,0,0,
0.553386,-4.42659,11.8047,-1.4497,-0.790879,-3.01395,11.9941,-1.34217,0.818054,2.33833,-12.1039,1.36061,-0.549079,4.3422,-12.5888,1.37992,0.545683,-4.67339,12.2776,-1.44984,-0.793377,-2.98688,11.9349,-1.34349,0.816477,2.84001,-12.5944,1.36271,-0.548113,4.55046,-12.9977,1.37622,-0.0014043,0.316372,-0.636539,0.00192143,0.312487,-0.636911,-0.0020432,-0.311658,0.638701,0.00133333,-0.315756,0.638334,0,0.322798,-0.645596,0,0.322798,-0.645596,0,-0.322798,0.645596,0,-0.322798,0.645596,0.724848,0.671086,-0.680307,-0.689961,0,0,0,0,
0.509749,-4.40849,12.0928,-1.42828,-0.833564,-2.93908,12.1459,-1.41,0.742176,2.58977,-12.7084,1.42254,-0.62255,4.38965,-12.8453,1.3787,0.507253,-4.65786,12.5858,-1.4318,-0.837568,-3.21357,12.6816,-1.41289,0.74255,2.85857,-13.2347,1.42534,-0.626707,4.64152,-13.3419,1.38265,-0.00138643,0.319728,-0.644298,0.00194528,0.315884,-0.644289,-0.00202231,-0.315202,0.64606,0.00135976,-0.319393,0.646189,0,0.326725,-0.65345,0,0.326725,-0.65345,0,-0.326725,0.65345,0,-0.326725,0.65345,0.714141,0.705002,-0.71127,-0.68935,0,0,0,0,
0.557248,-4.13121,11.5865,-1.41373,-0.787811,-2.63864,11.6486,-1.42702,0.759183,2.25169,-12.1614,1.43556,-0.60757,4.11752,-12.3464,1.36428,0.558778,-4.35742,12.0411,-1.41617,-0.789417,-2.85919,12.0821,-1.42602,0.763517,2.51067,-12.6761,1.44001,-0.607772,4.34335,-12.7986,1.36658,-0.00137938,0.32229,-0.649869,0.00195658,0.318426,-0.649802,-0.00200297,-0.317725,0.651546,0.00138347,-0.321991,0.651758,0,0.330652,-0.661304,0,0.330652,-0.661304,0,-0.330652,0.661304,0,-0.330652,0.661304,0.706865,0.713509,-0.71778,-0.68214,0,0,0,0,
0.559156,-4.29678,11.9872,-1.40746,-0.788741,-2.4318,11.344,-1.40164,0.733127,2.06033,-11.9027,1.41202,-0.634986,4.31128,-12.7962,1.36475,0.56116,-4.52068,12.4284,-1.40796,-0.787666,-2.69163,11.869,-1.40748,0.734132,2.32217,-12.4334,1.41816,-0.636095,4.53585,-13.2383,1.36464,-0.00138073,0.325743,-0.657283,0.00196025,0.321839,-0.657139,-0.00197753,-0.321101,0.658825,0.00141388,-0.325493,0.659184,0,0.334579,-0.669158,0,0.334579,-0.669158,0,-0.334579,0.669158,0,-0.334579,0.669158,0.703728,0.70082,-0.70601,-0.682376,0,0,0,0,
0.594645,-4.49875,12.4095,-1.39143,-0.755656,-2.75575,12.2088,-1.47017,0.741956,2.40662,-12.9156,1.48489,-0.628478,4.42858,-13.2534,1.38587,0.595579,-4.73602,12.8827,-1.3947,-0.758293,-3.01429,12.7162,-1.47217,0.743205,2.67261,-13.4349,1.48747,-0.630771,4.66611,-13.7179,1.386,-0.0013942,0.329558,-0.665386,0.00195205,0.325563,-0.665109,-0.00195647,-0.324789,0.666763,0.00144021,-0.329311,0.667255,0,0.338506,-0.677012,0,0.338506,-0.677012,0,-0.338506,0.677012,0,-0.338506,0.677012,0.695715,0.735085,-0.742447,-0.692933,0,0,0,0,
0.620144,-4.51515,12.5467,-1.37944,-0.736668,-2.60843,12.1958,-1.49206,0.752524,2.24688,-12.864,1.50582,-0.625116,4.38801,-13.3815,1.41031,0.605061,-4.70816,12.9239,-1.37651,-0.749252,-2.54516,12.0526,-1.45458,0.736674,2.47696,-13.3154,1.50511,-0.633796,4.58526,-13.7707,1.40583,-0.00141004,0.333222,-0.673102,0.00194172,0.3291,-0.672698,-0.00193688,-0.328316,0.674378,0.00146538,-0.332973,0.675011,0,0.342433,-0.684866,0,0.342433,-0.684866,0,-0.342433,0.684866,0,-0.342433,0.684866,0.68972,0.74603,-0.752912,-0.705154,0,0,0,0,
0.602373,-4.60629,12.8276,-1.3841,-0.752232,-2.66145,12.5558,-1.52577,0.726511,1.97292,-12.5562,1.49264,-0.65365,4.41243,-13.639,1.43447,0.617936,-4.84236,13.297,-1.38439,-0.736631,-2.93063,13.0827,-1.52859,0.736984,2.20249,-13.0059,1.49394,-0.638808,4.65659,-14.0995,1.43384,-0.00142592,0.336955,-0.680939,0.00193164,0.332697,-0.680433,-0.00191736,-0.331874,0.682072,0.00149117,-0.336678,0.68287,0,0.34636,-0.692719,0,0.34636,-0.692719,0,-0.34636,0.692719,0,-0.34636,0.692719,0.69205,0.762884,-0.746318,-0.717234,0,0,0,0,
0.636167,-4.78401,13.4919,-1.41239,-0.719454,-2.76113,13.2109,-1.56869,0.74733,2.26536,-13.6111,1.56436,-0.631146,4.56237,-14.3136,1.47591,0.639179,-5.03134,13.9729,-1.41176,-0.720219,-2.92714,13.5139,-1.55505,0.751514,2.52355,-14.101,1.56344,-0.62797,4.81521,-14.7954,1.47464,-0.00144932,0.341547,-0.690591,0.0019155,0.337089,-0.689928,-0.00190016,-0.336266,0.691605,0.0015155,-0.341222,0.692546,0,0.350287,-0.700573,0,0.350287,-0.700573,0,-0.350287,0.700573,0,-0.350287,0.700573,0.706194,0.784346,-0.78218,-0.737953,0,0,0,0,
0.624777,-4.73144,13.8005,-1.44668,-0.736673,-2.49425,13.2351,-1.59337,0.732891,2.12454,-13.9141,1.60499,-0.649141,4.46975,-14.6399,1.51793,0.626682,-4.9899,14.2973,-1.44615,-0.735114,-2.78934,13.7971,-1.59711,0.735139,2.3883,-14.4096,1.60436,-0.64851,4.72952,-15.1338,1.5171,-0.00147333,0.346023,-0.700105,0.00189895,0.34136,-0.6993,-0.00188969,-0.34052,0.700981,0.00153366,-0.345642,0.702085,0,0.354214,-0.708427,0,0.354214,-0.708427,0,-0.354214,0.708427,0,-0.354214,0.708427,0.723338,0.796684,-0.802496,-0.758965,0,0,0,0,
0.646897,-4.57607,13.8055,-1.481,-0.715648,-2.27533,13.0616,-1.61277,0.750227,1.88686,-13.9807,1.6349,-0.634772,4.23402,-14.6394,1.55618,0.639598,-4.83174,14.2802,-1.48022,-0.719645,-2.46547,13.1847,-1.58977,0.750065,2.15138,-14.4809,1.63454,-0.63611,4.48302,-15.1196,1.55528,-0.00149505,0.350159,-0.708597,0.00188325,0.345282,-0.707628,-0.00188384,-0.344443,0.709763,0.00154701,-0.349529,0.710597,0,0.358141,-0.716281,0,0.358141,-0.716281,0,-0.358141,0.716281,0,-0.358141,0.716281,0.740501,0.806386,-0.81745,-0.778088,0,0,0,0,
0.722137,-4.3398,14.0414,-1.51208,-0.644563,-1.99265,13.3535,-1.64317,0.77738,2.34993,-14.3184,1.39547,-0.611201,4.06145,-14.8445,1.59449,0.721452,-4.59436,14.5254,-1.51145,-0.649383,-2.24611,13.8359,-1.64261,0.780051,2.57939,-14.8163,1.41025,-0.613078,4.31684,-15.3283,1.59356,-0.00153098,0.354166,-0.717789,0.00185551,0.349096,-0.716668,-0.00188453,-0.348432,0.718516,0.00155387,-0.353673,0.719797,0,0.362068,-0.724135,0,0.362068,-0.724135,0,-0.362068,0.724135,0,-0.362068,0.724135,0.756041,0.821584,-0.697734,-0.797246,0,0,0,0,
0.726343,-4.13503,14.1582,-1.53417,-0.641717,-2.59269,13.7865,-1.35232,0.689139,2.66702,-14.4882,1.19913,-0.697932,3.79053,-15.006,1.62418,0.724816,-4.39898,14.6604,-1.53441,-0.644069,-2.82888,14.2875,-1.36517,0.691495,2.91101,-14.9852,1.20563,-0.697241,4.05565,-15.503,1.62419,-0.00158582,0.358217,-0.726811,0.0018076,0.353226,-0.725716,-0.00187297,-0.352775,0.72753,0.00157183,-0.357665,0.728822,0,0.365994,-0.731989,0,0.365994,-0.731989,0,-0.365994,0.731989,0,-0.365994,0.731989,0.767087,0.676161,-0.599563,-0.812092,0,0,0,0,
0.738141,-3.89192,14.1695,-1.55372,-0.634015,-2.8144,13.8293,-1.19143,0.655002,2.83345,-14.5812,1.10289,-0.736712,3.51406,-15.0518,1.64606,0.735466,-4.1537,14.6696,-1.55379,-0.63714,-3.05646,14.3214,-1.19695,0.656174,3.06489,-15.0604,1.10835,-0.740389,3.76933,-15.5353,1.64535,-0.00163342,0.361971,-0.735264,0.00176665,0.35732,-0.734206,-0.00183588,-0.35694,0.73598,0.00161505,-0.36135,0.737303,0,0.369921,-0.739843,0,0.369921,-0.739843,0,-0.369921,0.739843,0,-0.369921,0.739843,0.776859,0.595713,-0.551443,-0.823028,0,0,0,0,
0.780795,-3.67527,14.3075,-1.57391,-0.593631,-3.03921,14.0814,-1.10106,0.672468,3.02451,-14.7527,1.03438,-0.722831,3.26668,-15.1575,1.66544,0.78231,-3.93928,14.8101,-1.57388,-0.593038,-3.28018,14.5757,-1.10625,0.675352,3.27286,-15.248,1.0369,-0.721584,3.53285,-15.6575,1.66541,-0.00168938,0.365805,-0.743998,0.00171801,0.36163,-0.742969,-0.001804,-0.361357,0.744786,0.00165403,-0.365113,0.746062,0,0.373848,-0.747697,0,0.373848,-0.747697,0,-0.373848,0.747697,0,-0.373848,0.747697,0.786954,0.550532,-0.517191,-0.832719,0,0,0,0,
0.775662,-3.43793,14.3694,-1.59266,-0.59812,-3.16974,14.2137,-1.03955,0.670058,3.39092,-15.383,1.01995,-0.716206,2.99212,-15.2271,1.68346,0.761429,-3.70584,14.8727,-1.59301,-0.614877,-3.4204,14.7103,-1.04303,0.661,3.74685,-16.111,1.04147,-0.731254,3.25535,-15.7337,1.68409,-0.0017337,0.369549,-0.752609,0.0016808,0.365984,-0.751693,-0.0017748,-0.365752,0.753502,0.00169072,-0.368778,0.754687,0,0.377775,-0.755551,0,0.377775,-0.755551,0,-0.377775,0.755551,0,-0.377775,0.755551,0.796331,0.519773,-0.509975,-0.841732,0,0,0,0,
0.770396,-3.17569,14.315,-1.60909,-0.612534,-3.49571,14.394,-0.898625,0.700807,3.52837,-15.1652,0.856842,-0.702286,2.62792,-15.1524,1.69844,0.769796,-3.44226,14.8043,-1.60908,-0.616098,-3.7271,14.8826,-0.905411,0.701197,3.76093,-15.652,0.861493,-0.706626,2.88752,-15.6456,1.69882,-0.0017748,0.373349,-0.761063,0.00164781,0.370387,-0.760383,-0.0017657,-0.370202,0.762166,0.00170641,-0.372332,0.763146,0,0.381702,-0.763405,0,0.381702,-0.763405,0,-0.381702,0.763405,0,-0.381702,0.763405,0.804544,0.449313,-0.428421,-0.849222,0,0,0,0,
0.780629,-2.87985,14.4312,-1.62508,-0.604232,-3.80631,14.6386,-0.80728,0.734445,3.81566,-15.4426,0.800451,-0.669424,2.33628,-15.2331,1.71044,0.780785,-3.1464,14.9381,-1.62528,-0.605107,-4.05047,15.1377,-0.81033,0.734529,4.06138,-15.9422,0.802484,-0.671609,2.60455,-15.7405,1.71097,-0.00180709,0.376891,-0.769759,0.00162219,0.375011,-0.769292,-0.00177249,-0.374872,0.771112,0.00170761,-0.375942,0.77183,0,0.385629,-0.771258,0,0.385629,-0.771258,0,-0.385629,0.771258,0,-0.385629,0.771258,0.812538,0.40364,-0.400226,-0.855221,0,0,0,0,
0.787226,-2.54222,14.3377,-1.64071,-0.600026,-3.91091,14.6503,-0.78318,0.751839,3.92571,-15.4897,0.792626,-0.657237,1.96301,-15.0958,1.72232,0.788803,-2.79872,14.8262,-1.64096,-0.603455,-4.14822,15.1369,-0.784174,0.753522,4.1621,-15.9714,0.793071,-0.660716,2.22047,-15.5844,1.72245,-0.00183524,0.380209,-0.77762,0.00160133,0.379234,-0.777364,-0.00178857,-0.379127,0.77923,0.00169877,-0.379173,0.779666,0,0.389556,-0.779112,0,0.389556,-0.779112,0,-0.389556,0.779112,0,-0.389556,0.779112,0.820357,0.39159,-0.396313,-0.861158,0,0,0,0,
0.795521,-2.21872,14.2449,-1.64511,-0.594223,-3.91699,14.6454,-0.782143,0.765527,3.94403,-15.3551,0.799968,-0.643544,1.67226,-14.9605,1.72036,0.795277,-2.46538,14.7339,-1.64529,-0.597706,-4.14692,15.1263,-0.782252,0.767315,4.17251,-15.8226,0.799945,-0.645723,1.9312,-15.4505,1.72109,-0.00185957,0.383058,-0.784761,0.00158438,0.382878,-0.784706,-0.00180614,-0.382797,0.786222,0.00168693,-0.382104,0.78677,0,0.393483,-0.786966,0,0.393483,-0.786966,0,-0.393483,0.786966,0,-0.393483,0.786966,0.822554,0.391072,-0.399984,-0.860181,0,0,0,0,
0.823504,-2.11554,14.5093,-1.66156,-0.568185,-4.25065,15.0332,-0.798521,0.791448,4.28978,-15.9369,0.825095,-0.619649,1.6145,-15.3296,1.70512,0.820992,-2.38058,15.0096,-1.6618,-0.571659,-4.49335,15.5209,-0.798053,0.788062,4.53248,-16.4223,0.82441,-0.630138,1.72368,-15.5675,1.70414,-0.00189044,0.386736,-0.793112,0.00155958,0.387581,-0.793295,-0.00183324,-0.387534,0.795259,0.00166841,-0.385536,0.795061,0,0.39741,-0.79482,0,0.39741,-0.79482,0,-0.39741,0.79482,0,-0.39741,0.79482,0.83078,0.39926,-0.412548,-0.85256,0,0,0,0,
0.747505,-1.87062,14.6902,-1.68124,-0.648305,-4.31145,15.2209,-0.817777,0.765797,4.41436,-16.1317,0.855707,-0.652119,1.90356,-15.4906,1.47997,0.745963,-2.13379,15.1895,-1.68153,-0.650915,-4.55942,15.7161,-0.817759,0.764005,4.66274,-16.6274,0.855121,-0.658097,2.14567,-15.9813,1.48837,-0.00189335,0.390226,-0.801468,0.00156421,0.392033,-0.801867,-0.00184579,-0.392037,0.803893,0.00166393,-0.389209,0.803519,0,0.401337,-0.802674,0,0.401337,-0.802674,0,-0.401337,0.802674,0,-0.401337,0.802674,0.84062,0.408889,-0.427853,-0.739985,0,0,0,0,
0.743324,-1.56613,14.6692,-1.69686,-0.657076,-4.3308,15.2396,-0.836607,0.791458,4.45519,-16.2549,0.88896,-0.628907,2.17415,-15.5517,1.26367,0.748343,-1.82123,15.1542,-1.69683,-0.657533,-4.57258,15.7259,-0.836293,0.795218,4.69536,-16.735,0.888086,-0.630537,2.40361,-16.0425,1.27528,-0.00189189,0.393522,-0.809408,0.00157328,0.396224,-0.809998,-0.00186979,-0.39628,0.812096,0.00164726,-0.392832,0.81145,0,0.405264,-0.810528,0,0.405264,-0.810528,0,-0.405264,0.810528,0,-0.405264,0.810528,0.848429,0.418303,-0.44448,-0.631835,0,0,0,0,
0.767802,-1.84905,15.2952,-1.62031,-0.637142,-4.3746,15.26,-0.852359,0.834467,4.45656,-16.3476,0.916405,-0.592778,2.55441,-15.6437,1.0294,0.766478,-2.13445,15.8896,-1.64272,-0.639916,-4.6187,15.755,-0.852315,0.832442,4.70405,-16.8325,0.916052,-0.601229,2.77346,-16.117,1.04181,-0.00188193,0.397051,-0.817827,0.00159114,0.400379,-0.818089,-0.00189268,-0.40048,0.820288,0.00163391,-0.396676,0.819407,0,0.409191,-0.818382,0,0.409191,-0.818382,0,-0.409191,0.818382,0,-0.409191,0.818382,0.810157,0.42618,-0.458203,-0.514698,0,0,0,0,
0.751521,-1.82935,15.12,-1.40538,-0.655907,-4.46944,15.3878,-0.869987,0.803623,4.485,-16.3433,0.932583,-0.62274,2.89866,-15.7124,0.842914,0.756386,-2.06741,15.6159,-1.41163,-0.654977,-4.71794,15.8863,-0.869632,0.808052,4.73832,-16.8272,0.932639,-0.62108,3.13928,-16.2089,0.848991,-0.0018875,0.400443,-0.825866,0.00159395,0.404702,-0.826515,-0.00192655,-0.40484,0.828493,0.00160671,-0.400907,0.82774,0,0.413118,-0.826236,0,0.413118,-0.826236,0,-0.413118,0.826236,0,-0.413118,0.826236,0.702692,0.434994,-0.466291,-0.421457,0,0,0,0,
0.758254,-2.34352,15.3734,-1.17664,-0.649864,-4.56168,15.4773,-0.892657,0.772446,4.47874,-16.5755,0.948289,-0.657015,3.11009,-15.8684,0.767038,0.757002,-2.58372,15.8732,-1.18503,-0.652466,-4.81256,15.9792,-0.892113,0.773976,4.73369,-17.076,0.94843,-0.658149,3.35685,-16.3652,0.770063,-0.00188243,0.404545,-0.834279,0.0016067,0.408998,-0.834889,-0.00193063,-0.409093,0.837324,0.00161091,-0.405212,0.836045,0,0.417045,-0.83409,0,0.417045,-0.83409,0,-0.417045,0.83409,0,-0.417045,0.83409,0.588318,0.446329,-0.474144,-0.383519,0,0,0,0,
0.798987,-2.75054,15.3516,-0.941544,-0.614802,-4.60304,15.3543,-0.917844,0.772133,4.36877,-16.5012,0.961016,-0.663623,3.18237,-15.9026,0.739121,0.802151,-2.97802,15.8452,-0.951716,-0.617611,-4.8549,15.8463,-0.916989,0.7774,4.61429,-16.9906,0.960864,-0.663725,3.42038,-16.3843,0.740097,-0.00189914,0.408532,-0.842336,0.00159778,0.413255,-0.842804,-0.00193502,-0.413074,0.845309,0.0016146,-0.40933,0.843968,0,0.420972,-0.841944,0,0.420972,-0.841944,0,-0.420972,0.841944,0,-0.420972,0.841944,0.470772,0.458922,-0.480508,-0.36956,0,0,0,0,
0.810741,-2.87803,15.0868,-0.818115,-0.606524,-4.41345,15.0749,-0.942237,0.737144,4.18022,-16.1852,0.970648,-0.701573,3.11565,-15.6619,0.730788,0.813246,-3.10556,15.5686,-0.823264,-0.610159,-4.65214,15.5569,-0.941622,0.74173,4.42116,-16.6682,0.970902,-0.702318,3.35073,-16.1411,0.731859,-0.00191712,0.412252,-0.849537,0.00158724,0.416708,-0.849921,-0.00192448,-0.41663,0.852481,0.00163259,-0.413047,0.851128,0,0.424899,-0.849797,0,0.424899,-0.849797,0,-0.424899,0.849797,0,-0.424899,0.849797,0.409058,0.471118,-0.485324,-0.365394,0,0,0,0,
0.822359,-2.79478,14.569,-0.766676,-0.596788,-4.19267,14.5498,-0.95696,0.712309,3.91032,-15.592,0.97441,-0.72677,2.93719,-15.1326,0.726449,0.822962,-3.01756,15.0355,-0.770154,-0.598304,-4.42337,15.0155,-0.957039,0.715534,4.14598,-16.0657,0.975178,-0.726503,3.16688,-15.602,0.727722,-0.00193517,0.415276,-0.855286,0.00157578,0.41962,-0.85561,-0.00190889,-0.419462,0.858187,0.00165453,-0.416025,0.856852,0,0.428826,-0.857651,0,0.428826,-0.857651,0,-0.428826,0.857651,0,-0.428826,0.857651,0.383338,0.47848,-0.487205,-0.363224,0,0,0,0,
0.82685,-3.33056,15.2548,-0.741613,-0.593733,-4.57098,15.2162,-0.987023,0.668502,4.2333,-16.2157,0.989846,-0.773859,3.40158,-15.8715,0.737646,0.825585,-3.56415,15.7325,-0.742463,-0.59615,-4.81045,15.6952,-0.98595,0.670582,4.47694,-16.6984,0.989598,-0.775564,3.6315,-16.335,0.737146,-0.00196186,0.419884,-0.86394,0.0015572,0.424019,-0.864188,-0.00187379,-0.423737,0.866758,0.00169765,-0.420534,0.865489,0,0.432753,-0.865505,0,0.432753,-0.865505,0,-0.432753,0.865505,0,-0.432753,0.865505,0.370807,0.493512,-0.494923,-0.368823,0,0,0,0,
0.845673,-3.53098,15.4587,-0.748495,-0.580226,-4.66078,15.4318,-1.02415,0.647407,4.26389,-16.3817,1.01542,-0.805603,3.55687,-16.1262,0.759078,0.848344,-3.76513,15.9378,-0.748429,-0.584396,-4.90076,15.9109,-1.02322,0.643706,4.4788,-16.8073,1.0126,-0.800356,3.7655,-16.5471,0.756162,-0.00198754,0.424335,-0.87228,0.00153955,0.428247,-0.872467,-0.00183024,-0.427844,0.875014,0.00174909,-0.424884,0.873843,0,0.43668,-0.873359,0,0.43668,-0.873359,0,-0.43668,0.873359,0,-0.43668,0.873359,0.374248,0.512076,-0.507712,-0.379539,0,0,0,0,
0.850456,-3.48161,15.2094,-0.760983,-0.580861,-4.521,15.1873,-1.051,0.618451,4.08534,-16.1123,1.03342,-0.834946,3.48588,-15.9297,0.774625,0.853382,-3.71131,15.6803,-0.761257,-0.583841,-4.7545,15.6599,-1.05051,0.622623,4.32164,-16.5833,1.03339,-0.835171,3.71758,-16.3975,0.77499,-0.00200881,0.428137,-0.879424,0.00152586,0.43185,-0.87957,-0.00178774,-0.431342,0.882084,0.00179922,-0.428602,0.881016,0,0.440607,-0.881213,0,0.440607,-0.881213,0,-0.440607,0.881213,0,-0.440607,0.881213,0.380491,0.525502,-0.516709,-0.387312,0,0,0,0,
0.856267,-3.67965,15.4281,-0.776419,-0.576707,-4.62244,15.4079,-1.07732,0.587307,4.14789,-16.2924,1.05007,-0.869196,3.66439,-16.1959,0.793012,0.858635,-3.91103,15.9006,-0.775812,-0.580427,-4.85668,15.8803,-1.07644,0.591226,4.38345,-16.7654,1.04966,-0.870193,3.89445,-16.66,0.792321,-0.00202979,0.432392,-0.887431,0.00151324,0.435879,-0.88754,-0.00173513,-0.435257,0.890006,0.00186089,-0.432768,0.889067,0,0.444533,-0.889067,0,0.444533,-0.889067,0,-0.444533,0.889067,0,-0.444533,0.889067,0.388209,0.538658,-0.525034,-0.396506,0,0,0,0,
0.834757,-3.12399,14.2392,-0.789884,-0.609613,-3.98912,14.1834,-1.09314,0.551379,3.51392,-15.0408,1.06047,-0.918676,3.18907,-15.1603,0.812313,0.829954,-3.63484,15.2722,-0.787982,-0.606303,-4.50499,15.2176,-1.09096,0.549295,4.03364,-16.083,1.05882,-0.915493,3.73721,-16.2653,0.814193,-0.00204028,0.434744,-0.891867,0.00150773,0.438104,-0.891957,-0.00170392,-0.437422,0.894395,0.00189748,-0.435103,0.893586,0,0.44846,-0.896921,0,0.44846,-0.896921,0,-0.44846,0.896921,0,-0.44846,0.896921,0.394942,0.546572,-0.530234,-0.406157,0,0,0,0,
0.859164,-3.3633,14.388,-0.791451,-0.577619,-4.16532,14.3497,-1.09617,0.563622,3.66499,-15.1533,1.05565,-0.894703,3.33035,-15.1416,0.800427,0.859187,-3.57006,14.8179,-0.791167,-0.579785,-4.37656,14.7782,-1.09592,0.56475,3.87719,-15.584,1.05575,-0.896884,3.53795,-15.5708,0.80051,-0.00205221,0.438075,-0.898133,0.00150403,0.441257,-0.898195,-0.00166196,-0.4405,0.900579,0.00194811,-0.438378,0.89988,0,0.452387,-0.904775,0,0.452387,-0.904775,0,-0.452387,0.904775,0,-0.452387,0.904775,0.395725,0.548086,-0.527823,-0.400214,0,0,0,0,
0.874345,-4.21627,15.8328,-0.831478,-0.565919,-4.88486,15.7876,-1.14155,0.561906,4.3697,-16.6223,1.09452,-0.900385,4.17005,-16.6553,0.835239,0.874947,-4.45016,16.3038,-0.830075,-0.56698,-5.12541,16.2575,-1.13983,0.563528,4.61003,-17.0924,1.09295,-0.901595,4.40502,-17.1244,0.833924,-0.00207799,0.443625,-0.908544,0.00148743,0.446521,-0.908572,-0.00160876,-0.445654,0.910882,0.00201085,-0.443843,0.910339,0,0.456314,-0.912629,0,0.456314,-0.912629,0,-0.456314,0.912629,0,-0.456314,0.912629,0.415739,0.570776,-0.54726,-0.417619,0,0,0,0,
0.878219,-4.49112,16.3585,-0.876655,-0.569758,-5.07474,16.4325,-1.19375,0.551444,4.55567,-17.3157,1.14194,-0.916731,4.48979,-17.2429,0.878945,0.877056,-4.73712,16.8499,-0.875303,-0.573813,-5.32968,16.925,-1.19223,0.552907,4.81271,-17.8094,1.14061,-0.918817,4.73855,-17.7209,0.877654,-0.00210341,0.448897,-0.918505,0.00147265,0.451714,-0.918924,-0.00156555,-0.450756,0.921203,0.00206639,-0.449263,0.920372,0,0.460241,-0.920483,0,0.460241,-0.920483,0,-0.460241,0.920483,0,-0.460241,0.920483,0.438327,0.596875,-0.57097,-0.439472,0,0,0,0,
0.888363,-4.64805,16.6157,-0.916828,-0.563878,-4.96992,16.6551,-1.23405,0.549651,4.50082,-17.4411,1.17899,-0.925219,4.50305,-17.6695,0.913019,0.887238,-4.90055,17.1125,-0.915924,-0.567657,-5.22205,17.1573,-1.23288,0.550959,4.76124,-17.9307,1.1782,-0.929887,4.7501,-18.1673,0.91203,-0.00212712,0.454195,-0.92822,0.00145913,0.456278,-0.928587,-0.00152862,-0.455451,0.930447,0.00211157,-0.454054,0.930588,0,0.464168,-0.928336,0,0.464168,-0.928336,0,-0.464168,0.928336,0,-0.464168,0.928336,0.458414,0.617023,-0.589493,-0.45651,0,0,0,0,
0.900441,-4.59826,16.7433,-0.94907,-0.553546,-4.83404,16.6262,-1.26673,0.552832,4.31256,-17.5614,1.20459,-0.923553,4.50118,-17.699,0.939154,0.901287,-4.85291,17.246,-0.948233,-0.554639,-5.0946,17.1313,-1.26609,0.554352,4.57385,-18.0624,1.2042,-0.925071,4.75644,-18.199,0.938474,-0.00214993,0.458846,-0.937645,0.00144558,0.460829,-0.937554,-0.00149874,-0.459746,0.939835,0.00215202,-0.458859,0.939677,0,0.468095,-0.93619,0,0.468095,-0.93619,0,-0.468095,0.93619,0,-0.468095,0.93619,0.474535,0.633364,-0.602297,-0.469577,0,0,0,0,
0.906866,-4.54617,16.7546,-0.975155,-0.550732,-4.6431,16.6085,-1.29095,0.552567,4.12832,-17.546,1.2239,-0.927543,4.43385,-17.7124,0.960559,0.907692,-4.80051,17.2552,-0.974653,-0.551866,-4.90259,17.1095,-1.29071,0.553985,4.38795,-18.0488,1.22381,-0.92925,4.68818,-18.212,0.960293,-0.00217094,0.463328,-0.946426,0.00143433,0.464999,-0.946287,-0.00147487,-0.463874,0.948579,0.00218597,-0.463285,0.948525,0,0.472022,-0.944044,0,0.472022,-0.944044,0,-0.472022,0.944044,0,-0.472022,0.944044,0.487577,0.645476,-0.61195,-0.480279,0,0,0,0,
0.907099,-4.4662,16.6994,-0.997618,-0.555191,-4.43772,16.5289,-1.30932,0.549977,3.93104,-17.4701,1.23954,-0.936525,4.33992,-17.6521,0.979581,0.907078,-4.71835,17.1949,-0.99713,-0.558822,-4.6897,17.021,-1.30887,0.551185,4.18103,-17.9575,1.23912,-0.94132,4.58589,-18.1408,0.978782,-0.00219074,0.467492,-0.954663,0.00142381,0.46886,-0.954473,-0.00145787,-0.467706,0.956777,0.00221255,-0.4674,0.956817,0,0.475949,-0.951898,0,0.475949,-0.951898,0,-0.475949,0.951898,0,-0.475949,0.951898,0.498809,0.654661,-0.619772,-0.489791,0,0,0,0,
0.917607,-4.47027,16.838,-1.02067,-0.547921,-4.24651,16.6319,-1.32796,0.557175,3.80033,-17.543,1.25418,-0.932201,4.32503,-17.7582,0.999437,0.918495,-4.72217,17.3331,-1.01983,-0.550879,-4.49604,17.1286,-1.32749,0.558459,4.05785,-18.0398,1.2539,-0.934896,4.57783,-18.253,0.999108,-0.00220973,0.47177,-0.963202,0.00141487,0.472638,-0.962955,-0.00144401,-0.471641,0.965255,0.00223543,-0.471627,0.965387,0,0.479876,-0.959752,0,0.479876,-0.959752,0,-0.479876,0.959752,0,-0.479876,0.959752,0.510334,0.663982,-0.627092,-0.499719,0,0,0,0,
0.921809,-4.38315,16.7677,-1.04264,-0.546525,-4.09461,16.5366,-1.34385,0.561299,3.60194,-17.4434,1.26678,-0.929929,4.22863,-17.6801,1.01691,0.922861,-4.63207,17.2573,-1.04201,-0.547585,-4.34926,17.0287,-1.34353,0.562671,3.85691,-17.9362,1.26665,-0.931785,4.477,-18.1693,1.01655,-0.0022267,0.475612,-0.970927,0.0014063,0.476364,-0.970626,-0.00143647,-0.475176,0.972918,0.00225306,-0.475426,0.973128,0,0.483803,-0.967606,0,0.483803,-0.967606,0,-0.483803,0.967606,0,-0.483803,0.967606,0.521322,0.671923,-0.633388,-0.508456,0,0,0,0,
0.925539,-4.41161,16.9719,-1.06985,-0.546526,-3.98814,16.7086,-1.36535,0.566564,3.5158,-17.6407,1.28513,-0.928542,4.25246,-17.9021,1.04013,0.926632,-4.66324,17.4624,-1.06909,-0.547503,-4.24586,17.2007,-1.36486,0.567892,3.77203,-18.1338,1.28485,-0.930405,4.50424,-18.3935,1.03949,-0.00224359,0.479802,-0.979405,0.00139887,0.480229,-0.979041,-0.00143189,-0.479038,0.981336,0.00226741,-0.479576,0.981627,0,0.48773,-0.97546,0,0.48773,-0.97546,0,-0.48773,0.97546,0,-0.48773,0.97546,0.534925,0.682676,-0.642567,-0.520066,0,0,0,0,
0.927974,-4.2015,16.4758,-1.08548,-0.547798,-3.68076,16.3416,-1.37415,0.57232,3.21979,-17.2609,1.29288,-0.930146,3.9639,-17.3863,1.05336,0.929217,-4.44281,16.9426,-1.08512,-0.548885,-3.92846,16.8201,-1.37422,0.575147,3.46754,-17.741,1.2932,-0.932924,4.19844,-17.8547,1.0531,-0.00225585,0.483037,-0.985591,0.00139473,0.483212,-0.985566,-0.00143117,-0.482024,0.987864,0.00227604,-0.482592,0.987825,0,0.491657,-0.983314,0,0.491657,-0.983314,0,-0.491657,0.983314,0,-0.491657,0.983314,0.542741,0.687076,-0.64644,-0.526681,0,0,0,0,
0.934014,-3.87154,15.9851,-1.09807,-0.55472,-3.26974,15.6794,-1.38199,0.57862,2.81967,-16.5987,1.29802,-0.93351,3.69694,-16.8839,1.06472,0.930054,-4.07421,16.3922,-1.09647,-0.551015,-3.47783,16.0881,-1.38076,0.57489,3.0268,-17.0101,1.29736,-0.930445,3.90099,-17.2939,1.06343,-0.00226504,0.485738,-0.991473,0.00139235,0.485707,-0.991016,-0.00143182,-0.484525,0.993314,0.00228283,-0.48546,0.99371,0,0.495584,-0.991168,0,0.495584,-0.991168,0,-0.495584,0.991168,0,-0.495584,0.991168,0.549034,0.690993,-0.649011,-0.532358,0,0,0,0,
0.929737,-4.27837,16.8445,-1.1212,-0.55197,-3.55808,16.5103,-1.39448,0.579695,3.12529,-17.4074,1.3095,-0.925928,4.09677,-17.7105,1.08533,0.930479,-4.51645,17.3111,-1.11983,-0.553303,-3.80103,16.978,-1.39346,0.580552,3.36784,-17.8783,1.30854,-0.928212,4.33418,-18.1768,1.08437,-0.00227643,0.49011,-1.00034,0.00139092,0.489758,-0.999816,-0.00143372,-0.488592,1.00211,0.00229119,-0.489799,1.00257,0,0.499511,-0.999022,0,0.499511,-0.999022,0,-0.499511,0.999022,0,-0.499511,0.999022,0.560598,0.697241,-0.654751,-0.542665,0,0,0,0,
0.935282,-4.51115,17.5278,-1.16673,-0.551369,-3.65307,17.1558,-1.43556,0.589907,3.23891,-18.083,1.34891,-0.920431,4.32784,-18.4156,1.12733,0.936444,-4.75922,18.0091,-1.16502,-0.55233,-3.90754,17.6441,-1.43426,0.591149,3.49385,-18.5642,1.34757,-0.922389,4.57694,-18.8952,1.12585,-0.00228868,0.494731,-1.00976,0.00138873,0.494045,-1.00916,-0.00144061,-0.4929,1.01145,0.00229482,-0.494389,1.01198,0,0.503438,-1.00688,0,0.503438,-1.00688,0,-0.503438,1.00688,0,-0.503438,1.00688,0.583366,0.717781,-0.674453,-0.563666,0,0,0,0,
0.938422,-4.53653,17.9086,-1.21376,-0.553304,-3.53758,17.5,-1.47845,0.597852,3.1501,-18.474,1.39026,-0.917632,4.35828,-18.8359,1.17114,0.939625,-4.79176,18.3997,-1.21231,-0.554224,-3.79839,17.9903,-1.47738,0.599157,3.41021,-18.9642,1.38911,-0.919542,4.6136,-19.3279,1.16976,-0.00230031,0.499265,-1.01912,0.00138758,0.498242,-1.01844,-0.00145044,-0.497126,1.02074,0.00229586,-0.498901,1.02134,0,0.507365,-1.01473,0,0.507365,-1.01473,0,-0.507365,1.01473,0,-0.507365,1.01473,0.60688,0.739226,-0.695129,-0.585572,0,0,0,0,
0.936691,-4.43464,18.0646,-1.24871,-0.561423,-3.24686,17.4711,-1.51003,0.598489,2.9361,-18.4651,1.4197,-0.92145,4.25292,-18.8536,1.20482,0.939106,-4.69158,18.555,-1.2475,-0.565242,-3.50109,17.9557,-1.50949,0.598995,3.19741,-18.9482,1.41926,-0.924308,4.50687,-19.3335,1.20395,-0.00230804,0.503477,-1.02793,0.00138983,0.501952,-1.02678,-0.00145893,-0.501047,1.02911,0.00229809,-0.503095,1.02978,0,0.511292,-1.02258,0,0.511292,-1.02258,0,-0.511292,1.02258,0,-0.511292,1.02258,0.624353,0.755013,-0.70985,-0.602411,0,0,0,0,
0.943452,-4.31322,18.0033,-1.27807,-0.556198,-3.06519,17.6444,-1.52752,0.609684,2.71993,-18.652,1.43668,-0.916094,4.13639,-19.0842,1.23028,0.944612,-4.56833,18.4823,-1.27719,-0.557276,-3.32512,18.1342,-1.52686,0.610904,2.98074,-19.1432,1.43617,-0.918665,4.38954,-19.5702,1.22943,-0.00231758,0.507413,-1.03587,0.0013908,0.505752,-1.03542,-0.00147004,-0.50471,1.03779,0.00229754,-0.507017,1.03852,0,0.515219,-1.03044,0,0.515219,-1.03044,0,-0.515219,1.03044,0,-0.515219,1.03044,0.639036,0.763759,-0.718339,-0.615141,0,0,0,0,
0.945207,-4.2262,18.3492,-1.30861,-0.558627,-2.86526,17.809,-1.54733,0.616315,2.53882,-18.8297,1.45574,-0.911806,4.05376,-19.2955,1.25783,0.946478,-4.48239,18.8393,-1.30752,-0.55969,-3.12449,18.3006,-1.54678,0.617617,2.79973,-19.3228,1.45514,-0.913796,4.30953,-19.7863,1.25675,-0.00232685,0.511464,-1.04493,0.00139191,0.509487,-1.04399,-0.00148315,-0.508485,1.04639,0.00229505,-0.511061,1.04721,0,0.519146,-1.03829,0,0.519146,-1.03829,0,-0.519146,1.03829,0,-0.519146,1.03829,0.654306,0.773665,-0.727871,-0.628914,0,0,0,0,
0.947368,-4.11428,18.5315,-1.33763,-0.562112,-2.58676,17.9501,-1.56671,0.622385,2.28002,-18.8426,1.47362,-0.912105,3.88708,-19.3477,1.28425,0.950743,-4.37165,19.023,-1.33658,-0.563054,-2.84006,18.4441,-1.56618,0.623754,2.53246,-19.3262,1.47326,-0.91462,4.13575,-19.8278,1.28337,-0.00233457,0.515442,-1.05353,0.00139433,0.512987,-1.0525,-0.00149676,-0.512026,1.05455,0.00229241,-0.514854,1.05544,0,0.523072,-1.04614,0,0.523072,-1.04614,0,-0.523072,1.04614,0,-0.523072,1.04614,0.668815,0.783357,-0.736812,-0.642125,0,0,0,0,
0.946462,-3.94323,18.5944,-1.36529,-0.566219,-2.36631,17.9683,-1.58243,0.628134,2.07729,-19.0029,1.48877,-0.909011,3.77801,-19.5498,1.30951,0.94783,-4.19904,19.0815,-1.36468,-0.567274,-2.62459,18.4613,-1.58224,0.629564,2.33667,-19.4949,1.48854,-0.911024,4.03256,-20.0363,1.3089,-0.00234134,0.519177,-1.06169,0.00139801,0.516598,-1.06057,-0.00151003,-0.515681,1.06303,0.00228945,-0.518767,1.06401,0,0.526999,-1.054,0,0.526999,-1.054,0,-0.526999,1.054,0,-0.526999,1.054,0.682644,0.791213,-0.744386,-0.654755,0,0,0,0,
0.945164,-3.81543,18.797,-1.3932,-0.571798,-2.13298,18.1296,-1.59975,0.632173,1.86274,-19.1583,1.50499,-0.909454,3.64934,-19.7444,1.33619,0.94625,-4.07352,19.2882,-1.39254,-0.573152,-2.39474,18.6179,-1.59952,0.633223,2.12316,-19.6485,1.50487,-0.911832,3.90627,-20.2336,1.33547,-0.00234572,0.523036,-1.0702,0.00140418,0.52016,-1.06899,-0.00152277,-0.519286,1.07147,0.00228761,-0.522625,1.07253,0,0.530926,-1.06185,0,0.530926,-1.06185,0,-0.530926,1.06185,0,-0.530926,1.06185,0.6966,0.799877,-0.752493,-0.668094,0,0,0,0,
0.947092,-3.67956,19.0065,-1.4217,-0.574205,-1.89952,18.2906,-1.61624,0.639673,1.64455,-19.3218,1.52016,-0.906378,3.46062,-19.953,1.36214,0.948471,-3.93867,19.4956,-1.42082,-0.575228,-2.16152,18.7844,-1.61604,0.641004,1.90459,-19.8115,1.52007,-0.908512,3.70833,-20.4432,1.36155,-0.00234936,0.526846,-1.07869,0.00141117,0.52368,-1.07737,-0.00153561,-0.52285,1.07987,0.00228575,-0.52626,1.08103,0,0.534853,-1.06971,0,0.534853,-1.06971,0,-0.534853,1.06971,0,-0.534853,1.06971,0.710849,0.808119,-0.760081,-0.681072,0,0,0,0,
0.946712,-3.49287,19.0931,-1.44763,-0.579038,-1.62644,18.3431,-1.629,0.646073,1.38455,-19.3763,1.53194,-0.904512,3.33509,-20.049,1.38523,0.948256,-3.74697,19.5813,-1.44684,-0.579968,-1.88592,18.8355,-1.62903,0.647576,1.64382,-19.867,1.53205,-0.906463,3.58962,-20.5345,1.38463,-0.00235348,0.530442,-1.08678,0.00141743,0.527012,-1.08536,-0.00154996,-0.526222,1.08788,0.00228209,-0.530032,1.08912,0,0.53878,-1.07756,0,0.53878,-1.07756,0,-0.53878,1.07756,0,-0.53878,1.07756,0.723815,0.814499,-0.765969,-0.692613,0,0,0,0,
0.945303,-3.30647,19.2164,-1.47342,-0.585128,-1.35964,18.4274,-1.64211,0.653767,1.12951,-19.4455,1.54491,-0.90323,3.14915,-20.1572,1.40974,0.946987,-3.56224,19.7021,-1.47278,-0.586079,-1.62065,18.9159,-1.6424,0.656461,1.38718,-19.9315,1.54524,-0.905279,3.40596,-20.6434,1.40938,-0.00235624,0.534012,-1.09487,0.0014251,0.530327,-1.09336,-0.00156377,-0.529575,1.09588,0.00227838,-0.533604,1.09722,0,0.542707,-1.08541,0,0.542707,-1.08541,0,-0.542707,1.08541,0,-0.542707,1.08541,0.736708,0.821053,-0.772454,-0.704871,0,0,0,0,
0.944553,-3.14988,19.3913,-1.49853,-0.592096,-1.12945,18.5706,-1.6545,0.659729,0.910309,-19.5771,1.55487,-0.903148,2.9932,-20.3316,1.43252,0.947898,-3.3977,19.8696,-1.49773,-0.59469,-1.37889,19.044,-1.65428,0.66213,1.16005,-20.055,1.55459,-0.905723,3.2407,-20.8023,1.43171,-0.00235743,0.53757,-1.10299,0.00143443,0.533644,-1.10139,-0.00157869,-0.532927,1.1039,0.00227497,-0.537165,1.10534,0,0.546634,-1.09327,0,0.546634,-1.09327,0,-0.546634,1.09327,0,-0.546634,1.09327,0.749265,0.82725,-0.777437,-0.716261,0,0,0,0,
0.935971,-3.00114,19.6015,-1.52261,-0.604441,-0.915415,18.7485,-1.66638,0.660537,0.703236,-19.7474,1.56678,-0.906971,2.84479,-20.5373,1.45604,0.936691,-3.25611,20.0875,-1.52178,-0.607489,-1.16739,19.2275,-1.66584,0.661519,0.95406,-20.223,1.5664,-0.911631,3.09246,-21.0104,1.4551,-0.00235731,0.541129,-1.11116,0.00144527,0.536972,-1.10946,-0.00159307,-0.536288,1.11197,0.00227161,-0.540725,1.1135,0,0.550561,-1.10112,0,0.550561,-1.10112,0,-0.550561,1.10112,0,-0.550561,1.10112,0.761304,0.833188,-0.783391,-0.728021,0,0,0,0,
0.938846,-2.81392,19.779,-1.55215,-0.605398,-0.656052,18.8847,-1.68397,0.669506,0.454692,-19.8897,1.58149,-0.90004,2.66063,-20.726,1.48198,0.940341,-3.06913,20.2626,-1.55163,-0.606606,-0.91319,19.3659,-1.68401,0.67072,0.71347,-20.3699,1.58177,-0.902404,2.91474,-21.2036,1.48172,-0.00235516,0.544673,-1.11935,0.00145825,0.540296,-1.11755,-0.00160621,-0.539644,1.12006,0.00226965,-0.54427,1.12169,0,0.554488,-1.10898,0,0.554488,-1.10898,0,-0.554488,1.10898,0,-0.554488,1.10898,0.776077,0.841987,-0.790745,-0.740988,0,0,0,0,
0.936822,-2.65315,20.0049,-1.57832,-0.611516,-0.378429,19.0758,-1.69717,0.677438,0.248523,-20.0933,1.59124,-0.896397,2.50699,-20.9674,1.50429,0.938512,-2.9084,20.4822,-1.57752,-0.612482,-0.627837,19.5594,-1.69718,0.678897,0.505647,-20.576,1.59146,-0.898492,2.7599,-21.4503,1.50367,-0.0023539,0.548208,-1.12757,0.00147056,0.543464,-1.12568,-0.00162172,-0.543003,1.1282,0.00226549,-0.54781,1.12992,0,0.558415,-1.11683,0,0.558415,-1.11683,0,-0.558415,1.11683,0,-0.558415,1.11683,0.78916,0.848587,-0.795618,-0.752144,0,0,0,0,
0.934646,-2.47952,20.2412,-1.60801,-0.620651,-0.208555,19.283,-1.71506,0.686358,0.0303755,-20.3059,1.60602,-0.895705,2.33748,-21.2257,1.5306,0.938155,-2.72927,20.713,-1.60688,-0.62304,-0.458222,19.7567,-1.71457,0.68882,0.281807,-20.7821,1.60558,-0.898164,2.58692,-21.6968,1.52946,-0.00235144,0.551741,-1.13584,0.00148408,0.546962,-1.13386,-0.00163778,-0.546373,1.13638,0.00226085,-0.551351,1.13821,0,0.562342,-1.12468,0,0.562342,-1.12468,0,-0.562342,1.12468,0,-0.562342,1.12468,0.804003,0.857531,-0.803012,-0.7653,0,0,0,0,
0.929251,-2.32099,20.435,-1.64044,-0.62882,0.0626417,19.5875,-1.7349,0.692599,-0.227279,-20.622,1.6228,-0.89135,2.18234,-21.4369,1.55862,0.931032,-2.57711,20.907,-1.63946,-0.629728,-0.190321,20.0755,-1.73461,0.694067,0.0245856,-21.1094,1.62273,-0.893474,2.43943,-21.9098,1.55798,-0.00234747,0.555419,-1.14412,0.0014998,0.55029,-1.14245,-0.00165508,-0.549731,1.14498,0.00225566,-0.555037,1.14651,0,0.566269,-1.13254,0,0.566269,-1.13254,0,-0.566269,1.13254,0,-0.566269,1.13254,0.820219,0.867448,-0.811399,-0.779311,0,0,0,0,
0.924705,-2.04069,20.5636,-1.65884,-0.637966,0.326993,19.5475,-1.74233,0.698908,-0.486147,-20.5644,1.62771,-0.889796,1.90138,-21.5547,1.5763,0.926469,-2.29342,21.0399,-1.65826,-0.639018,0.0722107,20.0245,-1.74254,0.700296,-0.232094,-21.0409,1.62803,-0.892117,2.15503,-22.0328,1.57595,-0.00234285,0.558586,-1.15204,0.00151516,0.553459,-1.1499,-0.00167031,-0.552928,1.15244,0.00225144,-0.55821,1.15445,0,0.570196,-1.14039,0,0.570196,-1.14039,0,-0.570196,1.14039,0,-0.570196,1.14039,0.82942,0.871163,-0.813854,-0.788152,0,0,0,0,
0.909211,-1.78708,20.6833,-1.68754,-0.667458,0.148675,19.8282,-1.59696,0.688739,-0.754828,-20.6718,1.64041,-0.913729,1.64875,-21.6818,1.59942,0.90563,-2.01945,21.1141,-1.6853,-0.661247,-0.0652035,20.261,-1.60412,0.684857,-0.523581,-21.1018,1.63886,-0.907578,1.88094,-22.1148,1.59782,-0.0023356,0.561925,-1.16001,0.00153401,0.556745,-1.15784,-0.00168407,-0.556142,1.16033,0.00224904,-0.561553,1.16244,0,0.574123,-1.14825,0,0.574123,-1.14825,0,-0.574123,1.14825,0,-0.574123,1.14825,0.843772,0.79848,-0.820207,-0.799711,0,0,0,0,
0.851518,-1.60163,20.9396,-1.70572,-0.722334,-0.427171,20.3412,-1.35107,0.640078,-0.908097,-21.0039,1.64392,-0.959182,1.4844,-21.9727,1.60911,0.854492,-1.85803,21.416,-1.70499,-0.722137,-0.658707,20.8125,-1.35946,0.642059,-0.653376,-21.4801,1.64397,-0.960761,1.73753,-22.4506,1.60903,-0.0023057,0.565421,-1.16841,0.00157635,0.560545,-1.16638,-0.00167381,-0.559537,1.16868,0.00227187,-0.565056,1.17085,0,0.57805,-1.1561,0,0.57805,-1.1561,0,-0.57805,1.1561,0,-0.57805,1.1561,0.852859,0.675535,-0.821958,-0.804556,0,0,0,0,
0.802226,-1.38537,21.2841,-1.73157,-0.777574,-0.807858,20.8089,-1.19547,0.649497,-1.079,-21.3898,1.6621,-0.955102,1.33203,-22.3074,1.63473,0.809243,-1.64675,21.7692,-1.73096,-0.771545,-1.04875,21.3006,-1.20191,0.652177,-0.82171,-21.8715,1.66155,-0.956021,1.59008,-22.7933,1.63446,-0.00226109,0.569053,-1.17721,0.00163432,0.564698,-1.17527,-0.00166138,-0.563103,1.17747,0.00229728,-0.568715,1.17968,0,0.581977,-1.16395,0,0.581977,-1.16395,0,-0.581977,1.16395,0,-0.581977,1.16395,0.865784,0.597736,-0.831052,-0.817367,0,0,0,0,
0.704673,-1.02471,21.4536,-1.74988,-0.881185,-1.2125,21.2681,-1.01328,0.659706,-0.975023,-21.7836,1.55657,-0.95604,1.0963,-22.4192,1.65261,0.709921,-1.2823,21.9441,-1.7499,-0.880497,-1.43838,21.7509,-1.01987,0.658681,-0.746512,-22.2533,1.56584,-0.960901,1.34832,-22.8962,1.65224,-0.0021818,0.572453,-1.18595,0.0017251,0.568869,-1.18428,-0.00165099,-0.566538,1.18588,0.00232089,-0.572182,1.18806,0,0.585904,-1.17181,0,0.585904,-1.17181,0,-0.585904,1.17181,0,-0.585904,1.17181,0.874939,0.506638,-0.778285,-0.826303,0,0,0,0,
0.666838,-0.676251,21.4439,-1.75304,-0.926776,-1.45236,21.5056,-0.936807,0.73776,-0.495897,-22.1293,1.33169,-0.878764,0.839367,-22.5763,1.66865,0.672288,-0.941347,21.934,-1.75387,-0.923415,-1.69322,21.9871,-0.939406,0.737233,-0.262406,-22.6141,1.34319,-0.88274,1.09084,-23.0677,1.66861,-0.0020885,0.575926,-1.1942,0.00183262,0.573301,-1.19282,-0.00167003,-0.570417,1.19443,0.00231565,-0.57562,1.19676,0,0.589831,-1.17966,0,0.589831,-1.17966,0,-0.589831,1.17966,0,-0.589831,1.17966,0.876519,0.468404,-0.665846,-0.834323,0,0,0,0,
0.588597,-0.303915,21.4154,-1.74467,-1.01177,-1.5127,21.7118,-0.910111,0.79782,-0.264106,-22.4123,1.17873,-0.826042,0.605803,-22.554,1.68233,0.594154,-0.567072,21.9055,-1.74558,-1.00899,-1.75694,22.1915,-0.910784,0.797213,-0.0294346,-22.895,1.1854,-0.830589,0.866542,-23.047,1.68224,-0.0019895,0.579171,-1.20236,0.00194612,0.577519,-1.20133,-0.00171798,-0.574309,1.20331,0.00228132,-0.579178,1.20497,0,0.593758,-1.18752,0,0.593758,-1.18752,0,-0.593758,1.18752,0,-0.593758,1.18752,0.872334,0.455056,-0.589363,-0.841163,0,0,0,0,
0.512796,0.0227892,21.4792,-1.73718,-1.1008,-1.57105,22.0107,-0.910337,0.882334,0.0567097,-22.8032,1.06341,-0.742909,0.345626,-22.6553,1.69765,0.515826,-0.240852,21.9736,-1.73811,-1.10109,-1.81984,22.4954,-0.91036,0.877353,0.304657,-23.303,1.06712,-0.751426,0.607535,-23.1487,1.69773,-0.0018635,0.582518,-1.21082,0.00208845,0.58189,-1.2102,-0.00178969,-0.578505,1.21213,0.00222297,-0.582689,1.21349,0,0.597684,-1.19537,0,0.597684,-1.19537,0,-0.597684,1.19537,0,-0.597684,1.19537,0.868588,0.455169,-0.531707,-0.848827,0,0,0,0,
0.447088,0.363625,21.5166,-1.72754,-1.17237,-1.50236,22.1208,-0.913799,1.00255,0.825757,-23.8458,0.950437,-0.647344,0.021835,-22.648,1.70642,0.451183,0.0948938,22.0162,-1.72827,-1.17,-1.79736,22.6985,-0.918505,0.991604,0.788447,-23.8025,0.92864,-0.656559,0.290804,-23.1499,1.70661,-0.00173725,0.585813,-1.21919,0.00223148,0.586195,-1.21903,-0.00190901,-0.582852,1.22102,0.00212198,-0.586139,1.22189,0,0.601611,-1.20322,0,0.601611,-1.20322,0,-0.601611,1.20322,0,-0.601611,1.20322,0.86377,0.4569,-0.475219,-0.853212,0,0,0,0,
0.416382,0.702599,21.5592,-1.71803,-1.20598,-1.54609,22.4464,-0.928501,1.11735,0.706395,-23.372,0.843241,-0.535115,-0.309298,-22.6384,1.71181,0.420775,0.43768,22.0484,-1.7186,-1.20475,-1.78746,22.9185,-0.927645,1.11743,0.934595,-23.8346,0.844094,-0.539488,-0.0453547,-23.1367,1.71193,-0.00161145,0.589066,-1.22747,0.00237426,0.590412,-1.22775,-0.00205967,-0.587266,1.22981,0.00198997,-0.589521,1.23019,0,0.605538,-1.21108,0,0.605538,-1.21108,0,-0.605538,1.21108,0,-0.605538,1.21108,0.859015,0.46425,-0.42162,-0.855907,0,0,0,0,
0.375408,1.06446,21.492,-1.70606,-1.25758,-1.5285,22.6104,-0.945005,1.18765,0.870292,-23.6333,0.835957,-0.473735,-0.685303,-22.5299,1.71058,0.37923,0.806482,21.9778,-1.70704,-1.25937,-1.77049,23.0877,-0.944418,1.18619,1.10291,-24.1044,0.836103,-0.479464,-0.428065,-23.0151,1.71113,-0.00149205,0.592148,-1.23532,0.00251,0.594394,-1.23604,-0.00221448,-0.591497,1.23818,0.00185256,-0.592699,1.23803,0,0.609465,-1.21893,0,0.609465,-1.21893,0,-0.609465,1.21893,0,-0.609465,1.21893,0.85303,0.472503,-0.417978,-0.85529,0,0,0,0,
0.350123,1.26383,21.2361,-1.60951,-1.28505,-1.31845,22.3352,-0.953532,1.25184,0.757695,-23.3832,0.839391,-0.416476,-1.16883,-22.0598,1.69836,0.35181,1.04376,21.7049,-1.62202,-1.28924,-1.55235,22.8047,-0.954025,1.24893,0.986265,-23.8472,0.839966,-0.423899,-0.919572,-22.5342,1.70077,-0.00139508,0.594808,-1.24204,0.00262108,0.597785,-1.24313,-0.00235195,-0.595115,1.24534,0.00173032,-0.595399,1.24471,0,0.613392,-1.22678,0,0.613392,-1.22678,0,-0.613392,1.22678,0,-0.613392,1.22678,0.804756,0.476766,-0.419695,-0.849178,0,0,0,0,
0.381632,0.969759,21.6692,-1.41593,-1.25832,-1.45299,22.5769,-0.958438,1.35885,0.995507,-23.8261,0.843894,-0.311113,-1.29118,-22.2187,1.67482,0.385156,0.730352,22.1661,-1.42427,-1.25943,-1.69867,23.0477,-0.958043,1.35875,1.2357,-24.3009,0.84332,-0.315167,-1.0321,-22.6931,1.67565,-0.00130328,0.598209,-1.25047,0.00273129,0.601957,-1.25144,-0.00252479,-0.599563,1.25414,0.00156709,-0.598749,1.25257,0,0.617319,-1.23464,0,0.617319,-1.23464,0,-0.617319,1.23464,0,-0.617319,1.23464,0.707965,0.479219,-0.421947,-0.837412,0,0,0,0,
0.455084,0.639131,21.9459,-1.23797,-1.20154,-1.47804,22.8785,-0.9738,1.33891,1.13624,-24.0225,0.864761,-0.330724,-1.63848,-22.3163,1.65387,0.453742,0.40561,22.4261,-1.24788,-1.2086,-1.72567,23.3682,-0.973595,1.34399,1.37585,-24.5054,0.864042,-0.33818,-1.29728,-22.9963,1.67256,-0.00124547,0.601969,-1.25855,0.00280295,0.605945,-1.26015,-0.00269693,-0.603815,1.26255,0.00142168,-0.601965,1.26084,0,0.621246,-1.24249,0,0.621246,-1.24249,0,-0.621246,1.24249,0,-0.621246,1.24249,0.618984,0.4869,-0.432381,-0.826937,0,0,0,0,
0.573128,0.249611,22.201,-1.01456,-1.07641,-1.42269,22.887,-0.989658,1.2907,1.2255,-24.0913,0.89124,-0.390098,-1.31823,-22.8126,1.48246,0.57037,0.0288019,22.6751,-1.02491,-1.08432,-1.66462,23.367,-0.989199,1.2966,1.46053,-24.5691,0.890174,-0.387918,-1.0832,-23.2883,1.48924,-0.00125331,0.60581,-1.26677,0.00280884,0.609914,-1.26841,-0.00280873,-0.608061,1.27091,0.00132365,-0.605352,1.2689,0,0.625173,-1.25035,0,0.625173,-1.25035,0,-0.625173,1.25035,0,-0.625173,1.25035,0.507279,0.494829,-0.44562,-0.741229,0,0,0,0,
0.666609,-0.0453332,22.5186,-0.871606,-0.980888,-1.38611,22.9685,-1.00283,1.16045,1.33518,-24.2076,0.923593,-0.520335,-0.709844,-23.2769,1.20266,0.661372,-0.285878,23.0048,-0.876309,-0.988945,-1.63822,23.4643,-1.0026,1.16652,1.58305,-24.7007,0.92237,-0.518849,-0.478177,-23.7573,1.21097,-0.00131448,0.609999,-1.27537,0.00276026,0.614022,-1.27697,-0.00285642,-0.612477,1.27958,0.0012922,-0.609219,1.27747,0,0.6291,-1.2582,0,0.6291,-1.2582,0,-0.6291,1.2582,0,-0.6291,1.2582,0.435803,0.501414,-0.461796,-0.601329,0,0,0,0,
0.765481,-0.0542512,22.4663,-0.81144,-0.892377,-1.21487,22.7765,-1.01193,1.09516,1.25852,-24.0338,0.952825,-0.589075,-0.64308,-23.1973,1.09154,0.763529,-0.296159,22.9514,-0.813823,-0.897789,-1.4629,23.2651,-1.01229,1.10043,1.50453,-24.5286,0.952164,-0.586198,-0.400821,-23.6921,1.09726,-0.00140347,0.613849,-1.28318,0.00268182,0.617704,-1.28465,-0.00284878,-0.616439,1.28736,0.00131032,-0.612888,1.28524,0,0.633027,-1.26605,0,0.633027,-1.26605,0,-0.633027,1.26605,0,-0.633027,1.26605,0.40572,0.505965,-0.476412,-0.545769,0,0,0,0,
0.817501,0.070428,22.1927,-0.780087,-0.851833,-0.965443,22.3895,-1.01243,1.01769,1.08211,-23.6351,0.97108,-0.682807,-0.509137,-22.9904,0.954487,0.814949,-0.162435,22.6616,-0.782426,-0.859071,-1.20166,22.8643,-1.01349,1.02326,1.3136,-24.1099,0.971288,-0.680094,-0.290593,-23.4604,0.964387,-0.00149916,0.617332,-1.29021,0.00259883,0.621,-1.29154,-0.00281439,-0.619977,1.29432,0.00135702,-0.616309,1.29229,0,0.636954,-1.27391,0,0.636954,-1.27391,0,-0.636954,1.27391,0,-0.636954,1.27391,0.390043,0.506216,-0.48554,-0.477244,0,0,0,0,
0.915158,-0.225443,22.8288,-0.767449,-0.756607,-1.15514,22.8746,-1.01693,0.919814,1.30899,-24.0966,0.99647,-0.77981,0.0466629,-23.6516,0.838455,0.915713,-0.470944,23.311,-0.767742,-0.761896,-1.40573,23.3683,-1.01644,0.926494,1.55696,-24.5895,0.995008,-0.776165,0.284063,-24.1322,0.840625,-0.00164381,0.622006,-1.29963,0.00247104,0.625412,-1.30073,-0.00273014,-0.624679,1.30357,0.00145373,-0.621049,1.30168,0,0.640881,-1.28176,0,0.640881,-1.28176,0,-0.640881,1.28176,0,-0.640881,1.28176,0.383725,0.508466,-0.498235,-0.419227,0,0,0,0,
0.998404,-0.31495,23.154,-0.777349,-0.681073,-1.15723,23.0794,-1.03822,0.815918,1.33154,-24.2894,1.03268,-0.894433,0.245062,-24.0114,0.819959,0.996517,-0.566451,23.6464,-0.776773,-0.687117,-1.411,23.5792,-1.03756,0.821477,1.58484,-24.7846,1.03156,-0.893399,0.489908,-24.4981,0.820015,-0.00179902,0.626444,-1.30861,0.002333,0.629604,-1.30948,-0.00261276,-0.629106,1.31236,0.00159308,-0.625624,1.31068,0,0.644808,-1.28962,0,0.644808,-1.28962,0,-0.644808,1.28962,0,-0.644808,1.28962,0.388675,0.519111,-0.516339,-0.409979,0,0,0,0,
1.05006,-0.377673,23.4055,-0.795485,-0.638221,-0.989901,22.9988,-1.05256,0.739924,1.21907,-24.2774,1.06232,-0.976372,0.286005,-24.1535,0.82552,1.0435,-0.631196,23.9038,-0.795077,-0.649657,-1.23317,23.4777,-1.05163,0.739676,1.47464,-24.7814,1.06185,-0.981052,0.530962,-24.6359,0.825107,-0.00194863,0.630622,-1.31712,0.00219879,0.633558,-1.31778,-0.00247828,-0.633235,1.32066,0.00174436,-0.629946,1.31921,0,0.648735,-1.29747,0,0.648735,-1.29747,0,-0.648735,1.29747,0,-0.648735,1.29747,0.397743,0.526278,-0.531159,-0.41276,0,0,0,0,
1.05972,-0.142673,23.0404,-0.778492,-0.618001,-1.27578,23.8917,-1.11324,0.69027,1.10808,-24.3436,1.0846,-1.03357,0.36621,-24.396,0.843014,1.08145,-0.376319,23.5003,-0.77533,-0.613921,-1.29074,23.9002,-1.08563,0.696768,1.3606,-24.8421,1.0838,-1.03091,0.612518,-24.8905,0.842309,-0.00209217,0.634907,-1.32587,0.00207217,0.637624,-1.32638,-0.00233327,-0.637432,1.32921,0.00190641,-0.634389,1.32805,0,0.652662,-1.30532,0,0.652662,-1.30532,0,-0.652662,1.30532,0,-0.652662,1.30532,0.389246,0.556618,-0.5423,-0.421507,0,0,0,0,
1.10649,-0.155399,23.1303,-0.793277,-0.594049,-0.905444,23.3938,-1.0988,0.671455,0.905682,-24.1796,1.09376,-1.06338,0.314938,-24.3778,0.854392,1.09504,-0.613578,24.0503,-0.815528,-0.640021,-1.05716,23.6817,-1.08504,0.65996,1.16676,-24.6825,1.09398,-1.07805,0.55238,-24.8532,0.853956,-0.00220392,0.638783,-1.3338,0.00197695,0.641264,-1.33415,-0.00220524,-0.641174,1.33695,0.00205127,-0.638389,1.33605,0,0.656589,-1.31318,0,0.656589,-1.31318,0,-0.656589,1.31318,0,-0.656589,1.31318,0.396639,0.549399,-0.54688,-0.427196,0,0,0,0,
1.06063,-0.272684,23.2687,-0.806254,-0.642549,-0.594866,23.025,-1.09063,0.678133,0.662876,-23.9095,1.09346,-1.04888,0.383136,-24.4377,0.871178,1.05545,-0.438858,23.6001,-0.800584,-0.646904,-0.83473,23.4941,-1.09083,0.665001,1.02263,-24.6222,1.1069,-1.06989,0.556212,-24.7793,0.863214,-0.00228241,0.642275,-1.3409,0.00191112,0.644567,-1.34122,-0.00210427,-0.644542,1.34396,0.00216681,-0.642,1.34328,0,0.660516,-1.32103,0,0.660516,-1.32103,0,-0.660516,1.32103,0,-0.660516,1.32103,0.403127,0.545316,-0.54673,-0.435589,0,0,0,0,
0.985365,-0.399908,23.4854,-0.817015,-0.721025,-0.576103,23.2748,-1.09741,0.676258,0.642558,-24.1029,1.09122,-1.07484,0.495595,-24.6878,0.886963,1.00238,-0.622937,23.9341,-0.813922,-0.706642,-0.825139,23.7679,-1.09731,0.682206,0.625003,-24.0567,1.06288,-1.06639,0.72038,-25.1276,0.885041,-0.00233651,0.646363,-1.34916,0.00187298,0.648405,-1.34947,-0.00201967,-0.648403,1.35206,0.00226911,-0.64621,1.35168,0,0.664443,-1.32889,0,0.664443,-1.32889,0,-0.664443,1.32889,0,-0.664443,1.32889,0.408508,0.548703,-0.545611,-0.443481,0,0,0,0,
0.96814,-0.255448,23.1842,-0.810272,-0.743676,-0.507162,23.5072,-1.11095,0.726304,0.548218,-24.2673,1.10526,-1.06728,0.508426,-24.7659,0.905942,0.948382,-0.724184,24.1241,-0.832068,-0.766448,-0.754556,23.9996,-1.11071,0.703612,0.801975,-24.7498,1.10504,-1.07176,0.520693,-24.7829,0.880114,-0.0023561,0.65046,-1.3574,0.00186906,0.65224,-1.35776,-0.00195968,-0.652274,1.36024,0.00234246,-0.650398,1.36007,0,0.66837,-1.33674,0,0.66837,-1.33674,0,-0.66837,1.33674,0,-0.66837,1.33674,0.405136,0.555474,-0.552628,-0.452971,0,0,0,0,
0.957986,-0.263517,23.2667,-0.852675,-0.759064,-0.340238,23.5079,-1.11064,0.763879,0.479221,-24.3181,1.11732,-0.980681,0.449679,-25.114,0.944694,0.94703,-0.732264,24.1949,-0.854949,-0.774006,-0.582113,23.9857,-1.11076,0.752883,0.734414,-24.7962,1.11741,-1.00583,0.462032,-25.417,0.932883,-0.00235758,0.654557,-1.36565,0.00188336,0.656053,-1.36606,-0.00193393,-0.656109,1.36807,0.00238626,-0.654369,1.36845,0,0.672297,-1.34459,0,0.672297,-1.34459,0,-0.672297,1.34459,0,-0.672297,1.34459,0.426338,0.555322,-0.558661,-0.472347,0,0,0,0,
0.911239,-0.462148,23.9037,-0.880778,-0.808252,-0.32912,23.8639,-1.14253,0.758141,0.329541,-24.6269,1.12916,-1.01563,0.295377,-24.6499,0.927119,0.90218,-0.637814,24.3708,-0.87747,-0.807189,-0.812011,24.8224,-1.16827,0.768889,0.571827,-25.1064,1.12889,-1.00867,0.472713,-24.989,0.928634,-0.00235586,0.658444,-1.37389,0.00190115,0.659676,-1.37399,-0.00193031,-0.659747,1.37665,0.00240602,-0.658662,1.37678,0,0.676223,-1.35245,0,0.676223,-1.35245,0,-0.676223,1.35245,0,-0.676223,1.35245,0.440389,0.571267,-0.56458,-0.46356,0,0,0,0,
0.942121,-0.188548,23.9488,-0.869696,-0.80444,-0.132473,23.6649,-1.13122,0.780373,0.29384,-24.62,1.14055,-0.996498,0.190968,-24.618,0.958141,0.956869,-0.334378,23.9631,-0.86165,-0.80223,-0.377826,24.126,-1.12993,0.789512,0.54445,-25.1029,1.14024,-0.987438,0.489698,-25.3229,0.969502,-0.00235576,0.662499,-1.38212,0.00191773,0.663593,-1.38224,-0.00193855,-0.66371,1.38449,0.00241491,-0.662724,1.38473,0,0.68015,-1.3603,0,0.68015,-1.3603,0,-0.68015,1.3603,0,-0.68015,1.3603,0.434848,0.565612,-0.570274,-0.479071,0,0,0,0,
0.976693,-0.124966,23.4576,-0.892186,-0.764547,-9.50816e-05,23.8659,-1.14112,0.849359,0.167569,-24.8891,1.15464,-0.917913,0.45394,-25.4054,0.988688,0.994964,-0.469314,24.0174,-0.902729,-0.765392,-0.00801891,23.8559,-1.1139,0.844057,0.425603,-25.3862,1.15439,-0.926861,0.68122,-25.8617,1.01229,-0.00236359,0.666544,-1.39037,0.00192576,0.667145,-1.39045,-0.00195796,-0.667471,1.39308,0.00241131,-0.66655,1.393,0,0.684077,-1.36815,0,0.684077,-1.36815,0,-0.684077,1.36815,0,-0.684077,1.36815,0.446093,0.570558,-0.577319,-0.494344,0,0,0,0,
0.964343,-0.369963,23.9975,-0.942496,-0.774692,0.237419,23.683,-1.13985,0.827722,-0.0781742,-24.6558,1.15792,-0.965692,-0.110227,-24.4357,0.975255,0.986023,-0.549444,24.3517,-0.933897,-0.782159,0.00139406,24.1515,-1.14027,0.825,0.158562,-25.1279,1.15829,-0.972625,0.144909,-24.945,0.977749,-0.00237423,0.670199,-1.39751,0.00192923,0.670523,-1.39792,-0.00197883,-0.670708,1.40018,0.00240603,-0.670142,1.40047,0,0.688004,-1.37601,0,0.688004,-1.37601,0,-0.688004,1.37601,0,-0.688004,1.37601,0.471248,0.569925,-0.57896,-0.487627,0,0,0,0,
1.03961,-0.0467851,23.4033,-0.914143,-0.716887,0.339574,23.6437,-1.12701,0.884919,-0.175089,-24.7029,1.1516,-0.899942,0.17568,-25.0988,1.00356,1.02015,-0.386076,24.0823,-0.925003,-0.734233,0.0985618,24.1247,-1.12711,0.87704,0.0739378,-25.1824,1.15165,-0.938572,0.187539,-25.1069,0.977064,-0.00239465,0.673891,-1.40509,0.00192371,0.673933,-1.40542,-0.00200534,-0.674155,1.40772,0.00239573,-0.673764,1.40799,0,0.691931,-1.38386,0,0.691931,-1.38386,0,-0.691931,1.38386,0,-0.691931,1.38386,0.457071,0.563504,-0.575801,-0.501782,0,0,0,0,
1.03062,-0.244531,23.9681,-0.949599,-0.716748,0.392983,23.8422,-1.12981,0.881065,-0.177309,-25.0356,1.16532,-0.921284,-0.123095,-24.7115,0.982797,1.01485,-0.704771,24.8809,-0.970535,-0.726339,0.150476,24.316,-1.12865,0.865624,0.0816691,-25.519,1.16475,-0.940219,0.137245,-25.2155,0.98422,-0.00242291,0.677993,-1.41353,0.00191092,0.677726,-1.41373,-0.00203492,-0.677988,1.4161,0.0023827,-0.677772,1.41634,0,0.695858,-1.39172,0,0.695858,-1.39172,0,-0.695858,1.39172,0,-0.695858,1.39172,0.474799,0.564905,-0.582661,-0.491398,0,0,0,0,
1.04177,-0.217604,24.1537,-0.981657,-0.730129,0.41572,24.1551,-1.15905,0.901538,-0.346844,-25.1197,1.19157,-0.899257,-0.0790535,-25.0743,1.02655,1.04787,-0.675269,25.0613,-1.00382,-0.732471,0.27464,24.4138,-1.14557,0.891303,-0.10729,-25.5782,1.19042,-0.89282,0.380916,-25.9897,1.05034,-0.00245466,0.681889,-1.42159,0.00189727,0.681333,-1.42166,-0.0020679,-0.681631,1.42413,0.00236596,-0.681587,1.42434,0,0.699785,-1.39957,0,0.699785,-1.39957,0,-0.699785,1.39957,0,-0.699785,1.39957,0.490829,0.579526,-0.595783,-0.513276,0,0,0,0,
1.06316,-0.134696,24.2324,-0.992831,-0.71438,0.642702,24.0171,-1.14815,0.877513,-0.493483,-25.1899,1.18892,-0.941803,-0.205077,-25.0967,1.02469,1.05432,-0.477905,24.9111,-1.00298,-0.720388,0.383644,24.5129,-1.14881,0.883218,-0.237103,-25.6817,1.18903,-0.928404,0.13959,-25.7787,1.03607,-0.00248776,0.685948,-1.43006,0.00188087,0.685119,-1.43,-0.0020954,-0.685433,1.43256,0.00235774,-0.685546,1.4327,0,0.703712,-1.40742,0,0.703712,-1.40742,0,-0.703712,1.40742,0,-0.703712,1.40742,0.496415,0.574076,-0.594459,-0.512343,0,0,0,0,
1.04439,-0.41808,25.0322,-1.04561,-0.720794,0.604376,24.4285,-1.17568,0.819997,-0.437506,-25.6785,1.21879,-0.984116,-0.259584,-25.2316,1.03592,1.05838,-0.575241,25.3258,-1.034,-0.720204,0.321086,24.9622,-1.17745,0.837572,-0.188828,-26.1442,1.21566,-0.975588,0.0926381,-25.9289,1.04835,-0.00252492,0.689803,-1.43816,0.00186141,0.688728,-1.43796,-0.00210954,-0.689047,1.44059,0.00236132,-0.689321,1.44072,0,0.707639,-1.41528,0,0.707639,-1.41528,0,-0.707639,1.41528,0,-0.707639,1.41528,0.522805,0.587839,-0.609394,-0.517962,0,0,0,0,
1.09179,0.0319475,24.3919,-1.02358,-0.720286,1.0587,23.8188,-1.14137,0.848082,-0.771716,-25.3983,1.20638,-0.99098,-0.353082,-25.364,1.05314,1.10277,-0.213406,24.8863,-1.02491,-0.698391,0.638074,24.6557,-1.16511,0.864583,-0.521165,-25.8767,1.20651,-0.965983,-0.0112527,-26.0394,1.06506,-0.0025609,0.693639,-1.44626,0.00184217,0.692342,-1.44594,-0.00211616,-0.692666,1.44866,0.0023722,-0.693092,1.44878,0,0.711566,-1.42313,0,0.711566,-1.42313,0,-0.711566,1.42313,0,-0.711566,1.42313,0.511791,0.570686,-0.603191,-0.52657,0,0,0,0,
1.05064,-0.194269,25.0962,-1.06725,-0.746617,0.699297,24.9546,-1.21659,0.815794,-0.846034,-25.6246,1.2175,-1.03683,-0.417971,-25.5031,1.06657,1.09006,-0.209005,25.1061,-1.04074,-0.726053,0.674122,24.9614,-1.18712,0.828563,-0.844882,-25.6053,1.18864,-1.00857,-0.0763474,-26.1863,1.07832,-0.00259248,0.697458,-1.45437,0.00182807,0.695971,-1.45398,-0.00211543,-0.696252,1.45669,0.00239156,-0.696855,1.45686,0,0.715493,-1.43099,0,0.715493,-1.43099,0,-0.715493,1.43099,0,-0.715493,1.43099,0.533624,0.608293,-0.608752,-0.533287,0,0,0,0,
1.08868,0.0613029,24.8805,-1.062,-0.719098,1.00159,24.7398,-1.19865,0.855055,-1.02895,-25.7348,1.22259,-1.00119,-0.488449,-25.6899,1.08015,1.07518,-0.293857,25.5815,-1.07344,-0.72769,0.745503,25.2296,-1.19843,0.846868,-0.723687,-26.3218,1.22909,-1.00369,-0.2078,-26.2478,1.08503,-0.00261509,0.701449,-1.46289,0.00182303,0.699749,-1.46238,-0.00210893,-0.700018,1.46517,0.00241625,-0.700781,1.46534,0,0.71942,-1.43884,0,0.71942,-1.43884,0,-0.71942,1.43884,0,-0.71942,1.43884,0.530998,0.599323,-0.611297,-0.540077,0,0,0,0,
1.03432,-0.141762,25.6186,-1.10324,-0.777945,1.07181,25.1093,-1.21935,0.810292,-0.988887,-26.3341,1.24857,-1.03905,-0.230492,-26.6084,1.13334,1.04856,-0.171052,25.6485,-1.07592,-0.780111,0.819532,25.5953,-1.21885,0.827364,-0.83366,-26.6128,1.23513,-1.05713,-0.192493,-26.655,1.10723,-0.00262383,0.705559,-1.47172,0.00183375,0.703679,-1.47119,-0.00210433,-0.703887,1.47393,0.00244201,-0.704863,1.47421,0,0.723347,-1.44669,0,0.723347,-1.44669,0,-0.723347,1.44669,0,-0.723347,1.44669,0.55162,0.609675,-0.624285,-0.566668,0,0,0,0,
