FengTian-Bit/rl_sar_bitter/src/rl_sar/models/bitter/csv_data/csv_standup.csv
joint_tau_cal_0,joint_tau_cal_1,joint_tau_cal_2,joint_tau_cal_3,joint_tau_cal_4,joint_tau_cal_5,joint_tau_cal_6,joint_tau_cal_7,joint_tau_cal_8,joint_tau_cal_9,joint_tau_cal_10,joint_tau_cal_11,joint_tau_cal_12,joint_tau_cal_13,joint_tau_cal_14,joint_tau_cal_15,joint_tau_est_0,joint_tau_est_1,joint_tau_est_2,joint_tau_est_3,joint_tau_est_4,joint_tau_est_5,joint_tau_est_6,joint_tau_est_7,joint_tau_est_8,joint_tau_est_9,joint_tau_est_10,joint_tau_est_11,joint_tau_est_12,joint_tau_est_13,joint_tau_est_14,joint_tau_est_15,joint_pos_0,joint_pos_1,joint_pos_2,joint_pos_4,joint_pos_5,joint_pos_6,joint_pos_8,joint_pos_9,joint_pos_10,joint_pos_12,joint_pos_13,joint_pos_14,joint_pos_target_0,joint_pos_target_1,joint_pos_target_2,joint_pos_target_4,joint_pos_target_5,joint_pos_target_6,joint_pos_target_8,joint_pos_target_9,joint_pos_target_10,joint_pos_target_12,joint_pos_target_13,joint_pos_target_14,joint_vel_3,joint_vel_7,joint_vel_11,joint_vel_15,joint_vel_target_3,joint_vel_target_7,joint_vel_target_11,joint_vel_target_15,
-1.96126,0.620273,-1.24994,0.02627,1.94335,0.471886,-1.41876,0.218768,-1.66461,-0.619159,1.11635,-0.0265927,1.79849,-0.397687,0.997307,-0.0535568,0,0,0,0,0,0,0,0,0,0,0,0,0,0,0,0,0.138144,0.768262,-1.64298,-0.138457,0.771871,-1.63959,0.0617203,-0.762569,1.65007,-0.0618009,-0.768161,1.64779,0.138006,0.768279,-1.64291,-0.138319,0.771884,-1.63952,0.0616586,-0.762591,1.64999,-0.0617391,-0.768178,1.64771,-0.013135,-0.109384,0.0132963,0.0267784,0,0,0,0,
-0.912396,-2.17932,5.6784,-0.452983,0.888486,-2.66623,5.8094,-0.330621,-0.471651,2.04824,-5.82805,0.474445,0.429181,2.24226,-5.89738,0.436558,-0.834214,-2.06138,5.33243,-0.42699,0.814392,-2.5571,5.46195,-0.303221,-0.440317,1.94961,-5.47721,0.447101,0.40137,2.13782,-5.54847,0.411273,0.138372,0.76871,-1.64414,-0.138685,0.7725,-1.64075,0.0618911,-0.763026,1.6513,-0.0619704,-0.768661,1.64901,0.137315,0.768364,-1.64255,-0.137627,0.771952,-1.63918,0.06135,-0.762706,1.6496,-0.0614301,-0.768265,1.64733,0.226492,0.165311,-0.237222,-0.218279,0,0,0,0,
-1.5766,-3.65279,10.2916,-0.881148,1.50361,-3.97674,10.2415,-0.792779,-0.75265,3.27219,-10.5138,0.946014,0.693067,3.56152,-10.5737,0.896935,-1.49357,-3.57686,9.98046,-0.852009,1.43222,-4.00423,10.136,-0.771977,-0.713481,3.21503,-10.193,0.914575,0.660165,3.49693,-10.2567,0.858467,0.138614,0.769719,-1.64675,-0.13891,0.773633,-1.64341,0.0620076,-0.763948,1.65395,-0.0620687,-0.769656,1.65169,0.136624,0.76845,-1.64219,-0.136934,0.77202,-1.63883,0.0610414,-0.76282,1.6492,-0.0611211,-0.768351,1.64694,0.440574,0.396389,-0.473007,-0.448468,0,0,0,0,
-2.21596,-4.62919,14.3695,-1.3047,2.14254,-5.0726,14.5384,-1.25062,-1.0339,3.99954,-14.6478,1.40756,0.980031,4.396,-14.727,1.33871,-2.13665,-4.58187,14.0981,-1.28044,2.06467,-5.02418,14.2673,-1.2188,-0.998774,3.9699,-14.3695,1.37538,0.945144,4.35555,-14.4453,1.31302,0.138954,0.771013,-1.65044,-0.139229,0.775028,-1.64716,0.0621635,-0.765084,1.65771,-0.0622101,-0.770886,1.65547,0.135933,0.768536,-1.64182,-0.136242,0.772087,-1.63849,0.0607328,-0.762934,1.6488,-0.0608121,-0.768437,1.64656,0.652348,0.625308,-0.703781,-0.669353,0,0,0,0,
-2.81627,-5.22549,17.9453,-1.69355,2.73327,-5.70173,18.0969,-1.64417,-1.30325,4.35482,-18.2752,1.81906,1.24803,4.84931,-18.3622,1.73955,-2.73996,-5.19995,17.705,-1.66934,2.65698,-5.67504,17.8585,-1.62003,-1.26935,4.34722,-18.0268,1.78846,1.21413,4.83309,-18.114,1.71137,0.139366,0.772403,-1.65489,-0.139618,0.776512,-1.65166,0.0623517,-0.766258,1.66222,-0.0623837,-0.772172,1.66001,0.135243,0.768621,-1.64146,-0.13555,0.772155,-1.63815,0.0604242,-0.763048,1.64841,-0.0605031,-0.768523,1.64617,0.846773,0.822087,-0.909529,-0.869777,0,0,0,0,
-3.37974,-5.50608,21.0462,-2.03278,3.29012,-6.0336,21.1816,-1.97796,-1.55696,4.41258,-21.4132,2.16381,1.50008,4.99942,-21.5116,2.08174,-3.30551,-5.50086,20.8339,-2.01133,3.2164,-6.02331,20.9716,-1.95728,-1.5241,4.42293,-21.1982,2.14296,1.46752,5.00371,-21.2946,2.04994,0.139825,0.773757,-1.65982,-0.140055,0.77796,-1.65663,0.0625613,-0.76735,1.66722,-0.0625804,-0.77339,1.66504,0.134552,0.768707,-1.6411,-0.134857,0.772223,-1.6378,0.0601156,-0.763162,1.64801,-0.0601941,-0.768609,1.64579,1.01639,0.988981,-1.08191,-1.04087,0,0,0,0,
-3.90819,-5.52652,23.7018,-2.31371,3.81377,-6.10822,23.8178,-2.23942,-1.7955,4.22588,-24.104,2.45169,1.73734,4.90011,-24.2055,2.3541,-3.83882,-5.53738,23.5171,-2.2941,3.74459,-6.11246,23.6385,-2.23572,-1.7641,4.25216,-23.916,2.42857,1.70606,4.91749,-24.019,2.33435,0.140315,0.774983,-1.66501,-0.140523,0.779282,-1.66185,0.0627842,-0.768278,1.67247,-0.0627916,-0.774454,1.67032,0.133861,0.768793,-1.64074,-0.134165,0.77229,-1.63746,0.059807,-0.763276,1.64761,-0.0598851,-0.768695,1.6454,1.15685,1.11971,-1.22584,-1.17705,0,0,0,0,
-4.3795,-5.30587,25.8703,-2.52472,4.32433,-5.95581,26.1633,-2.46174,-1.9983,3.83542,-26.3732,2.67282,1.98276,4.59651,-26.6173,2.58985,-4.33085,-5.3778,25.8231,-2.51755,4.25525,-5.97655,26.0156,-2.45314,-1.9688,3.87443,-26.2161,2.65668,1.95306,4.62535,-26.4613,2.56928,0.140821,0.776032,-1.6703,-0.141006,0.780411,-1.66748,0.0630126,-0.768991,1.67779,-0.063011,-0.775308,1.67602,0.133171,0.768879,-1.64038,-0.133473,0.772358,-1.63711,0.0594984,-0.763391,1.64722,-0.0595761,-0.768782,1.64502,1.26236,1.23087,-1.33641,-1.29492,0,0,0,0,
-4.81213,-4.95345,27.6654,-2.6643,4.79922,-5.60791,27.877,-2.63132,-2.19483,3.28766,-28.2771,2.8365,2.20627,4.12313,-28.3981,2.72904,-4.77267,-4.99349,27.5595,-2.6583,4.73484,-5.64098,27.7518,-2.6234,-2.16441,3.33615,-28.1385,2.82409,2.18029,4.16074,-28.2542,2.72624,0.141325,0.776869,-1.67554,-0.141497,0.781304,-1.67233,0.0632356,-0.769456,1.68303,-0.0632382,-0.775917,1.68094,0.13248,0.768964,-1.64002,-0.132781,0.772426,-1.63677,0.0591898,-0.763505,1.64682,-0.0592671,-0.768868,1.64463,1.33215,1.31566,-1.41825,-1.36452,0,0,0,0,
-5.30836,-4.68421,29.5849,-2.77551,5.22577,-5.10981,29.3824,-2.74454,-2.41302,2.63273,-29.8519,2.95023,2.39093,3.66352,-30.063,2.81028,-5.24201,-4.71991,29.4694,-2.77238,5.16045,-5.15132,29.2739,-2.74072,-2.38279,2.68569,-29.736,2.93992,2.36376,3.70838,-29.9527,2.81779,0.141818,0.777477,-1.68061,-0.141982,0.781932,-1.67733,0.0634541,-0.76966,1.68809,-0.0634669,-0.776292,1.68605,0.131789,0.76905,-1.63966,-0.132088,0.772493,-1.63643,0.0588812,-0.763619,1.64643,-0.0589581,-0.768954,1.64425,1.38776,1.37227,-1.47511,-1.40514,0,0,0,0,
-5.69303,-4.10497,30.8448,-2.83677,5.65548,-4.48629,30.5956,-2.8234,-2.61994,2.08486,-31.4615,3.00736,2.57487,3.03005,-31.3371,2.86031,-5.63274,-4.14963,30.7492,-2.83171,5.58634,-4.53687,30.5047,-2.81964,-2.58887,2.13904,-31.3718,3.01167,2.54589,3.07873,-31.2394,2.86643,0.142288,0.777831,-1.68541,-0.142451,0.782285,-1.68205,0.0636714,-0.769636,1.69294,-0.0636822,-0.776434,1.69089,0.131098,0.769136,-1.6393,-0.131396,0.772561,-1.63608,0.0585726,-0.763733,1.64603,-0.0586491,-0.76904,1.64386,1.41839,1.4117,-1.50368,-1.43015,0,0,0,0,
-6.06026,-3.45514,31.916,-2.85937,6.05779,-3.78234,31.5729,-2.86451,-2.77905,1.31476,-32.2839,2.98226,2.74586,2.28634,-32.3341,2.87904,-5.99809,-3.50557,31.8322,-2.85936,5.99362,-3.83678,31.4945,-2.86781,-2.75192,1.37061,-32.2012,2.97781,2.71722,2.34283,-32.2544,2.87959,0.142724,0.777921,-1.68986,-0.142903,0.782366,-1.68645,0.0638779,-0.769398,1.69745,-0.0638865,-0.776327,1.6954,0.130408,0.769221,-1.63894,-0.130704,0.772629,-1.63574,0.058264,-0.763847,1.64563,-0.0583401,-0.769126,1.64348,1.42968,1.43226,-1.49113,-1.43952,0,0,0,0,
-6.41602,-2.73544,32.7208,-2.86291,6.4408,-3.0596,32.2927,-2.87235,-2.93509,0.579356,-33.057,2.95532,2.91635,1.53356,-33.0888,2.8774,-6.35492,-2.78956,32.6473,-2.86206,6.37821,-3.1138,32.2267,-2.86766,-2.90883,0.63944,-32.9859,2.95502,2.88909,1.59195,-33.0224,2.88336,0.143132,0.777782,-1.69373,-0.143332,0.782207,-1.69023,0.0640572,-0.768982,1.70132,-0.0640666,-0.776007,1.69927,0.129717,0.769307,-1.63858,-0.130011,0.772696,-1.63539,0.0579554,-0.763961,1.64524,-0.0580311,-0.769213,1.64309,1.43146,1.43617,-1.47766,-1.4387,0,0,0,0,
-6.74905,-2.01738,33.3793,-2.83414,6.80014,-2.24455,32.8782,-2.85717,-3.08578,-0.260612,-33.6932,2.91311,3.08309,0.699422,-33.7079,2.84371,-6.69163,-2.07315,33.3184,-2.83696,6.7406,-2.30305,32.8208,-2.85545,-3.06006,-0.199017,-33.6346,2.9136,3.05638,0.76039,-33.6529,2.85045,0.143484,0.777449,-1.69753,-0.143709,0.781801,-1.69391,0.0642339,-0.768338,1.7051,-0.0642492,-0.775446,1.70304,0.129026,0.769393,-1.63822,-0.129319,0.772764,-1.63505,0.0576468,-0.764075,1.64484,-0.0577221,-0.769299,1.64271,1.41707,1.42859,-1.45655,-1.42185,0,0,0,0,
-7.07597,-1.2072,33.8813,-2.7944,7.14988,-1.40439,33.3131,-2.81598,-3.23157,-1.12258,-34.1746,2.85423,3.24151,-0.155047,-34.1723,2.79134,-7.01723,-1.2661,33.8325,-2.79773,7.08964,-1.46436,33.2669,-2.81024,-3.20553,-1.06076,-34.1297,2.86108,3.21458,-0.0936613,-34.1231,2.80478,0.143829,0.776885,-1.70095,-0.144086,0.781172,-1.6972,0.0643946,-0.767502,1.70849,-0.0644198,-0.774681,1.70643,0.128335,0.769478,-1.63785,-0.128627,0.772831,-1.63471,0.0573382,-0.76419,1.64444,-0.057413,-0.769385,1.64232,1.3972,1.40799,-1.42712,-1.39567,0,0,0,0,
-7.42972,-0.855621,35.3424,-2.80689,7.48106,-0.670878,33.6983,-2.72901,-3.38331,-1.97483,-34.5281,2.78054,3.3756,-0.996742,-34.5027,2.71894,-7.31785,-0.434967,34.2107,-2.73431,7.43167,-0.729449,33.6604,-2.72292,-3.34101,-1.91985,-34.4832,2.78729,3.37156,-0.939157,-34.467,2.72641,0.144139,0.776138,-1.70402,-0.144431,0.780355,-1.7001,0.0645377,-0.766499,1.71149,-0.0645793,-0.77374,1.70942,0.127645,0.769564,-1.63749,-0.127935,0.772899,-1.63436,0.0570296,-0.764304,1.64405,-0.057104,-0.769471,1.64194,1.40344,1.36451,-1.39027,-1.35947,0,0,0,0,
-7.68079,0.309218,34.6114,-2.6513,7.81704,0.0707068,33.8997,-2.64142,-3.50892,-2.49834,-35.4352,2.73582,3.55137,-1.78674,-34.7427,2.63739,-7.64203,0.249008,34.5772,-2.65694,7.73847,0.0102303,33.8695,-2.64415,-3.47434,-2.18778,-36.0231,2.78681,3.5151,-1.73262,-34.7062,2.6483,0.144402,0.775306,-1.70659,-0.144732,0.779477,-1.70252,0.0646545,-0.765454,1.714,-0.0647187,-0.772725,1.71188,0.126954,0.76965,-1.63713,-0.127242,0.772967,-1.63402,0.056721,-0.764418,1.64365,-0.056795,-0.769557,1.64155,1.32565,1.32071,-1.36791,-1.3187,0,0,0,0,
-7.9719,1.09672,34.8126,-2.54917,8.14012,0.854436,34.0635,-2.54122,-3.62301,-3.31485,-35.1446,2.5328,3.68947,-2.61047,-34.8787,2.54168,-7.91517,1.04166,34.7859,-2.55788,8.08107,0.802191,34.0323,-2.55016,-3.59746,-3.26721,-35.1066,2.53963,3.66351,-2.55227,-34.8509,2.55766,0.144646,0.77427,-1.70897,-0.145028,0.778405,-1.70478,0.0647637,-0.764269,1.71637,-0.0648549,-0.771516,1.71417,0.126263,0.769735,-1.63677,-0.12655,0.773034,-1.63367,0.0564124,-0.764532,1.64325,-0.056486,-0.769644,1.64117,1.27458,1.27061,-1.2664,-1.27084,0,0,0,0,
-8.25643,1.82787,34.9398,-2.45197,8.44422,1.57206,34.1365,-2.4302,-3.7471,-4.0087,-35.2928,2.41123,3.832,-3.40925,-34.9559,2.45338,-8.19988,1.77274,34.9174,-2.45749,8.39025,1.51562,34.1209,-2.45025,-3.72314,-3.95648,-35.2663,2.41744,3.80644,-3.35224,-34.9328,2.45963,0.144862,0.773199,-1.71102,-0.145277,0.777307,-1.7066,0.064856,-0.763035,1.71828,-0.0649695,-0.770205,1.716,0.125573,0.769821,-1.63641,-0.125858,0.773102,-1.63333,0.0561038,-0.764646,1.64286,-0.056177,-0.76973,1.64078,1.22598,1.2151,-1.20561,-1.22669,0,0,0,0,
-8.55098,2.59684,35.0197,-2.35728,8.75848,2.22276,34.4565,-2.3562,-3.87923,-4.67139,-35.3826,2.29393,3.95708,-4.12837,-34.9576,2.33903,-8.49234,2.54387,34.9968,-2.36295,8.7221,2.11911,34.563,-2.36786,-3.84885,-4.61888,-35.3482,2.29824,3.93774,-4.06932,-34.9386,2.33771,0.145039,0.771958,-1.71267,-0.145518,0.776065,-1.70831,0.0649399,-0.761832,1.72005,-0.065082,-0.768913,1.71766,0.124882,0.769907,-1.63605,-0.125165,0.77317,-1.63299,0.0557952,-0.76476,1.64246,-0.055868,-0.769816,1.6404,1.17864,1.1781,-1.14696,-1.16951,0,0,0,0,
-8.81556,3.33995,35.0309,-2.25079,9.03407,3.01348,34.2284,-2.21635,-3.98303,-5.37381,-35.4179,2.17352,4.10823,-4.75894,-35.1124,2.21935,-8.76864,3.28637,35.0137,-2.25612,8.96838,2.9671,34.213,-2.22893,-3.96391,-5.32135,-35.3981,2.18646,4.05763,-4.81428,-34.7957,2.21073,0.145209,0.770638,-1.71416,-0.145726,0.774736,-1.70971,0.065015,-0.760494,1.72153,-0.0651775,-0.767476,1.71903,0.124191,0.769993,-1.63569,-0.124473,0.773237,-1.63264,0.0554866,-0.764875,1.64207,-0.055559,-0.769902,1.64001,1.1254,1.10817,-1.08676,-1.10967,0,0,0,0,
-9.10758,4.00747,35.048,-2.14956,9.29407,3.65978,34.2082,-2.11163,-4.10415,-6.00462,-35.4397,2.07048,4.23091,-5.45439,-34.8901,2.0903,-9.05439,3.95807,35.0232,-2.15644,9.23977,3.61216,34.1913,-2.11227,-4.07954,-5.9537,-35.4214,2.08218,4.21249,-5.39729,-34.92,2.1063,0.145345,0.769354,-1.71532,-0.145897,0.77345,-1.71079,0.0650702,-0.759212,1.72269,-0.0652637,-0.766124,1.7201,0.1235,0.770078,-1.63533,-0.123781,0.773305,-1.6323,0.055178,-0.764989,1.64167,-0.05525,-0.769988,1.63963,1.07478,1.05582,-1.03524,-1.04515,0,0,0,0,
-9.37565,4.65084,35.0418,-2.04773,9.58462,4.17801,34.3204,-1.99964,-4.20332,-6.60265,-35.445,1.96601,4.38722,-5.9859,-34.9883,1.9914,-9.32921,4.60177,35.019,-2.0563,9.48308,4.28048,33.917,-1.9727,-4.19441,-6.55582,-35.4269,1.9754,4.34863,-5.94955,-34.965,1.99076,0.145464,0.768037,-1.71629,-0.146043,0.772139,-1.71167,0.0651149,-0.757912,1.72365,-0.065342,-0.764766,1.72097,0.12281,0.770164,-1.63497,-0.123089,0.773373,-1.63195,0.0548694,-0.765103,1.64127,-0.054941,-0.770075,1.63924,1.02387,0.999821,-0.983004,-0.995699,0,0,0,0,
-9.66813,5.30236,35.0366,-1.94924,9.81393,4.77221,33.9566,-1.85474,-4.33906,-7.21254,-35.4176,1.86325,4.50145,-6.58788,-34.9518,1.88015,-9.61772,5.25237,35.0184,-1.95419,9.75605,4.85174,33.9208,-1.86568,-4.31936,-7.16865,-35.4003,1.8682,4.4732,-6.54905,-34.9346,1.89323,0.14557,0.766603,-1.71708,-0.14617,0.770735,-1.71239,0.0651529,-0.756512,1.72448,-0.0654131,-0.763318,1.72169,0.122119,0.77025,-1.63461,-0.122396,0.77344,-1.63161,0.0545608,-0.765217,1.64088,-0.054632,-0.770161,1.63886,0.974621,0.927369,-0.931623,-0.940075,0,0,0,0,
-10.0004,5.89218,35.0065,-1.84281,10.1109,4.50708,34.617,-1.56101,-4.50862,-7.73962,-35.4231,1.7577,4.59355,-6.48734,-35.4052,1.65401,-9.93581,5.84712,34.9865,-1.84934,10.0658,4.49545,34.6055,-1.57474,-4.47672,-7.69456,-35.405,1.76223,4.58017,-6.48879,-35.4178,1.67061,0.145677,0.765254,-1.71776,-0.1463,0.769634,-1.71318,0.0651935,-0.755213,1.72509,-0.0654755,-0.762044,1.72233,0.121428,0.770335,-1.63425,-0.121704,0.773508,-1.63127,0.0542522,-0.765331,1.64048,-0.054323,-0.770247,1.63847,0.921406,0.780507,-0.878851,-0.827003,0,0,0,0,
-10.3351,6.14905,35.141,-1.67283,10.3071,4.66338,34.5961,-1.35682,-4.69349,-7.81576,-35.8747,1.60238,4.65575,-6.46504,-35.3172,1.37266,-10.2839,6.17005,35.0686,-1.68746,10.2507,4.6458,34.5764,-1.37338,-4.68066,-7.79642,-35.9252,1.62756,4.62656,-6.45477,-35.3013,1.38592,0.145786,0.763917,-1.71823,-0.14637,0.768653,-1.71375,0.0652485,-0.753974,1.72564,-0.0655043,-0.761017,1.72289,0.120738,0.770421,-1.63388,-0.121012,0.773576,-1.63092,0.0539436,-0.765445,1.64008,-0.054014,-0.770333,1.63809,0.836415,0.67841,-0.801188,-0.686332,0,0,0,0,
-10.5184,5.58664,35.5363,-1.29116,10.5974,4.91462,34.5287,-1.20096,-4.72716,-7.83894,-35.7248,1.33064,4.83027,-6.63534,-35.2623,1.21245,-10.4803,5.59496,35.5121,-1.3132,10.523,4.94823,34.4067,-1.20499,-4.7115,-7.8253,-35.7068,1.3492,4.79926,-6.6182,-35.2426,1.21904,0.145873,0.762882,-1.71873,-0.146422,0.767722,-1.71417,0.0652905,-0.752931,1.72611,-0.0655294,-0.760105,1.7233,0.120047,0.770507,-1.63352,-0.120319,0.773643,-1.63058,0.053635,-0.76556,1.63969,-0.053705,-0.770419,1.6377,0.645581,0.600479,-0.665321,-0.606227,0,0,0,0,
-10.7532,5.37335,35.6645,-1.01263,10.9032,5.08112,34.5325,-1.05785,-4.80328,-8.01418,-35.6643,1.16956,4.9514,-6.82955,-35.0064,1.03309,-10.7083,5.3743,35.6587,-1.03344,10.8547,5.06342,34.5243,-1.07093,-4.78286,-7.99073,-35.6495,1.17945,4.92263,-6.85127,-34.9465,1.04871,0.145932,0.762122,-1.71925,-0.146487,0.766879,-1.71452,0.0653027,-0.752006,1.72645,-0.0655642,-0.75925,1.72357,0.119356,0.770592,-1.63316,-0.119627,0.773711,-1.63024,0.0533264,-0.765674,1.63929,-0.053396,-0.770506,1.63732,0.506314,0.528923,-0.584779,-0.516543,0,0,0,0,
-10.9896,5.402,35.5619,-0.800231,11.1762,5.19725,34.4667,-0.88601,-4.92732,-8.27562,-35.5007,1.03879,5.05991,-6.77044,-35.223,0.875846,-10.9361,5.38953,35.5473,-0.81026,11.1224,5.18254,34.4705,-0.899017,-4.90336,-8.25931,-35.4824,1.05208,5.03737,-6.76238,-35.2008,0.88271,0.145966,0.761441,-1.71963,-0.146541,0.766059,-1.7148,0.0653082,-0.751082,1.72667,-0.0655948,-0.758469,1.72379,0.118665,0.770678,-1.6328,-0.118935,0.773779,-1.62989,0.0530178,-0.765788,1.63889,-0.053087,-0.770592,1.63693,0.400115,0.443005,-0.519393,-0.437923,0,0,0,0,
-11.2307,5.57176,35.4268,-0.659151,11.4257,5.37751,34.2606,-0.732104,-5.06552,-7.83022,-35.6814,0.747163,5.15807,-6.90584,-35.1478,0.751788,-11.1785,5.5536,35.4192,-0.666986,11.3692,5.35859,34.2591,-0.743732,-5.04153,-7.84279,-35.6502,0.758721,5.13208,-6.88878,-35.1346,0.761781,0.145983,0.760825,-1.71987,-0.146582,0.765301,-1.71491,0.0653135,-0.750351,1.72681,-0.0656086,-0.757788,1.72391,0.117975,0.770764,-1.63244,-0.118243,0.773846,-1.62955,0.0527091,-0.765902,1.6385,-0.052778,-0.770678,1.63655,0.329576,0.366052,-0.373582,-0.375894,0,0,0,0,
-11.4447,5.79709,35.2387,-0.554283,11.7032,5.61166,34.0749,-0.631488,-5.15433,-7.77095,-35.6484,0.578262,5.29877,-7.12548,-34.9937,0.658671,-11.3921,5.77567,35.2331,-0.56346,11.6479,5.58986,34.0704,-0.629699,-5.13205,-7.76047,-35.6346,0.583429,5.27316,-7.10595,-34.982,0.669766,0.145981,0.760237,-1.71996,-0.146613,0.764584,-1.71489,0.0653156,-0.749822,1.7269,-0.065621,-0.757147,1.72393,0.117284,0.770849,-1.63208,-0.11755,0.773914,-1.6292,0.0524005,-0.766016,1.6381,-0.052469,-0.770764,1.63616,0.277141,0.315744,-0.289131,-0.329335,0,0,0,0,
-11.6817,6.01936,35.0661,-0.473559,11.9575,5.84618,33.9069,-0.539359,-5.24816,-7.87371,-35.5325,0.467626,5.427,-7.35315,-34.8371,0.582587,-11.6306,6.00057,35.059,-0.478909,11.9032,5.82699,33.8991,-0.543458,-5.22576,-7.85804,-35.5202,0.476874,5.40269,-7.33223,-34.8314,0.588826,0.145962,0.759699,-1.71993,-0.146637,0.763936,-1.71477,0.0653064,-0.749393,1.7269,-0.0656345,-0.756567,1.72383,0.116593,0.770935,-1.63172,-0.116858,0.773981,-1.62886,0.0520919,-0.76613,1.63771,-0.05216,-0.77085,1.63578,0.23678,0.269679,-0.233813,-0.291294,0,0,0,0,
-11.9146,6.27101,34.8466,-0.394566,12.2141,6.10839,33.7124,-0.460526,-5.32642,-8.08593,-35.2208,0.372961,5.55924,-7.60175,-34.6382,0.511459,-11.8582,6.25169,34.8358,-0.399059,12.1628,6.08749,33.7067,-0.46884,-5.30278,-8.06416,-35.2256,0.380875,5.53672,-7.58254,-34.6321,0.51364,0.145931,0.759095,-1.71978,-0.146648,0.763216,-1.71453,0.0652876,-0.748945,1.7268,-0.0656491,-0.755921,1.72362,0.115903,0.771021,-1.63136,-0.116166,0.774049,-1.62852,0.0517833,-0.766245,1.63731,-0.051851,-0.770937,1.63539,0.197283,0.230263,-0.18648,-0.25573,0,0,0,0,
-12.1671,6.48757,34.6596,-0.331436,12.4538,6.33731,33.5464,-0.398244,-5.42813,-8.24523,-35.0796,0.30397,5.67782,-7.82111,-34.4771,0.454264,-12.1125,6.46857,34.6516,-0.33355,12.4011,6.31739,33.5422,-0.397672,-5.40778,-8.21117,-35.1127,0.310878,5.6537,-7.80323,-34.4683,0.456604,0.145896,0.758541,-1.71954,-0.146645,0.762561,-1.71423,0.065263,-0.74854,1.7266,-0.0656594,-0.755332,1.72334,0.115212,0.771107,-1.631,-0.115473,0.774117,-1.62817,0.0514747,-0.766359,1.63691,-0.051542,-0.771023,1.63501,0.165718,0.199122,-0.151985,-0.227132,0,0,0,0,
-12.424,6.68614,34.4823,-0.269811,12.6912,6.54628,33.4009,-0.340012,-5.53068,-8.41191,-34.9244,0.250007,5.79505,-8.02303,-34.335,0.393432,-12.3666,6.66982,34.4751,-0.274959,12.6404,6.52903,33.3913,-0.339277,-5.50558,-8.38984,-34.9274,0.247471,5.77364,-8.00658,-34.3264,0.405795,0.145857,0.758004,-1.71921,-0.14663,0.761931,-1.71387,0.0652337,-0.748148,1.72631,-0.0656669,-0.754765,1.72299,0.114521,0.771192,-1.63064,-0.114781,0.774184,-1.62783,0.0511661,-0.766473,1.63652,-0.0512329,-0.771109,1.63462,0.134905,0.170006,-0.125003,-0.196716,0,0,0,0,
-12.6856,6.86487,34.3273,-0.215878,12.9264,6.73944,33.2681,-0.285917,-5.63944,-8.55236,-34.8103,0.192364,5.9085,-8.20329,-34.2102,0.355244,-12.629,6.85163,34.3174,-0.219291,12.8751,6.72178,33.2603,-0.278713,-5.61333,-8.54114,-34.7874,0.195288,5.88604,-8.18747,-34.2006,0.358206,0.145817,0.757488,-1.71883,-0.146604,0.761329,-1.71347,0.0652009,-0.747772,1.72596,-0.0656718,-0.754222,1.72258,0.11383,0.771278,-1.63028,-0.114089,0.774252,-1.62748,0.0508575,-0.766587,1.63612,-0.0509239,-0.771195,1.63424,0.107939,0.142958,-0.0961822,-0.177622,0,0,0,0,
-12.9595,7.02157,34.1814,-0.162958,13.1518,6.90738,33.1559,-0.226829,-5.77671,-8.49409,-35.1721,0.174333,6.01628,-8.36817,-34.1099,0.295253,-12.8955,7.01097,34.1725,-0.167919,13.1083,6.89375,33.1479,-0.239676,-5.72823,-8.64716,-34.748,0.157677,5.9963,-8.35211,-34.0962,0.299015,0.145777,0.756996,-1.71839,-0.146569,0.760757,-1.71303,0.0651676,-0.747419,1.72557,-0.0656731,-0.753708,1.72215,0.11314,0.771364,-1.62992,-0.113397,0.77432,-1.62714,0.0505489,-0.766701,1.63572,-0.0506149,-0.771281,1.63385,0.081479,0.113415,-0.0871667,-0.147627,0,0,0,0,
-13.2008,7.17687,34.0485,-0.115563,13.4163,7.05519,33.0775,-0.178679,-5.85281,-8.7978,-34.6224,0.107951,6.14622,-8.51344,-34.0196,0.265688,-13.1463,7.16034,34.0356,-0.117562,13.3624,7.04476,33.0614,-0.191976,-5.83893,-8.75319,-34.6935,0.114288,6.11994,-8.49737,-34.0103,0.265619,0.145737,0.756531,-1.71792,-0.146527,0.760219,-1.71257,0.0651344,-0.74709,1.72515,-0.065672,-0.753222,1.72168,0.112449,0.771449,-1.62955,-0.112704,0.774387,-1.6268,0.0502403,-0.766815,1.63533,-0.0503059,-0.771367,1.63347,0.0577814,0.0893393,-0.0539754,-0.132844,0,0,0,0,
-13.4722,7.30047,33.9365,-0.0732945,13.6495,7.19173,33.0013,-0.148885,-5.96958,-8.8904,-34.5694,0.0736431,6.25295,-8.64667,-33.955,0.22547,-13.4149,7.29044,33.9224,-0.0762636,13.5985,7.17927,32.9883,-0.142235,-5.94255,-8.90293,-34.4957,0.070814,6.23062,-8.63313,-33.9369,0.217992,0.145697,0.756095,-1.71742,-0.146479,0.759717,-1.7121,0.0650986,-0.746773,1.72467,-0.0656686,-0.752768,1.7212,0.111758,0.771535,-1.62919,-0.112012,0.774455,-1.62645,0.0499317,-0.766929,1.63493,-0.0499969,-0.771454,1.63308,0.0366473,0.0744424,-0.0368215,-0.112735,0,0,0,0,
-13.7257,7.41753,33.8343,-0.0320953,13.9054,7.30444,32.9544,-0.110543,-6.07537,-8.99962,-34.4629,0.0312965,6.37631,-8.76221,-33.9056,0.192347,-13.6736,7.40423,33.8187,-0.0362566,13.8538,7.2955,32.9319,-0.110892,-6.06125,-8.95752,-34.5266,0.0427644,6.35119,-8.74841,-33.8905,0.188943,0.145658,0.75569,-1.7169,-0.146426,0.759251,-1.71163,0.0650663,-0.746495,1.72422,-0.0656626,-0.752346,1.72072,0.111067,0.771621,-1.62883,-0.11132,0.774523,-1.62611,0.0496231,-0.767044,1.63453,-0.0496879,-0.77154,1.6327,0.0160476,0.0552716,-0.0156482,-0.0961737,0,0,0,0,
-14.0076,7.50824,33.7488,0.00310942,14.1337,7.40815,32.9088,-0.0792791,-6.21755,-8.918,-34.8111,0.030801,6.47926,-8.87186,-33.8744,0.161325,-13.9448,7.50306,33.7336,-0.00242591,14.0929,7.39937,32.8905,-0.0823682,-6.16975,-9.06657,-34.3979,0.00370082,6.46076,-8.85968,-33.8545,0.158298,0.14562,0.755316,-1.71638,-0.146371,0.758821,-1.71116,0.065033,-0.746232,1.72372,-0.0656544,-0.751956,1.72023,0.110377,0.771706,-1.62847,-0.110627,0.77459,-1.62576,0.0493145,-0.767158,1.63414,-0.0493789,-0.771626,1.63231,-0.00155471,0.0396395,-0.0154005,-0.0806625,0,0,0,0,
-14.2587,7.60305,33.6754,0.0352131,14.399,7.49951,32.889,-0.0478968,-6.30427,-9.17198,-34.3128,-0.0275508,6.60236,-8.9703,-33.8537,0.128004,-14.2015,7.5922,33.6592,0.0313581,14.3472,7.48843,32.8718,-0.0503569,-6.27875,-9.1594,-34.2972,-0.0222829,6.5798,-8.95862,-33.8362,0.136637,0.145583,0.754974,-1.71585,-0.146314,0.758427,-1.7107,0.0650021,-0.745997,1.72323,-0.0656443,-0.751596,1.71975,0.109686,0.771792,-1.62811,-0.109935,0.774658,-1.62542,0.0490059,-0.767272,1.63374,-0.0490699,-0.771712,1.63193,-0.0176065,0.0239484,0.0137754,-0.064002,0,0,0,0,
-14.5273,7.67081,33.6283,0.0605868,14.6486,7.57932,32.8794,-0.0186243,-6.45331,-9.13038,-34.5669,-0.0309835,6.71295,-9.05109,-33.8648,0.107609,-14.4868,7.65739,33.6109,0.0593622,14.5828,7.5699,32.8539,-0.01571,-6.4461,-8.98112,-34.8828,-0.0117927,6.68287,-9.04443,-33.8425,0.108454,0.14555,0.754684,-1.71535,-0.146258,0.75809,-1.71027,0.0649762,-0.745807,1.72279,-0.0656324,-0.751287,1.71931,0.108995,0.771878,-1.62775,-0.109243,0.774726,-1.62508,0.0486973,-0.767386,1.63335,-0.0487609,-0.771798,1.63154,-0.0302934,0.00931217,0.0154917,-0.0538046,0,0,0,0,
-14.7942,7.74003,33.5728,0.0910907,14.8974,7.64839,32.8753,-0.000466135,-6.54535,-9.26428,-34.3307,-0.0673564,6.82514,-9.13796,-33.8662,0.0834382,-14.7392,7.73284,33.5521,0.0894254,14.8487,7.63876,32.8552,0.00896582,-6.51852,-9.27811,-34.2513,-0.0731831,6.8037,-9.12656,-33.843,0.0911368,0.145515,0.754401,-1.71482,-0.146199,0.757762,-1.70983,0.0649474,-0.745612,1.72228,-0.0656187,-0.750983,1.71885,0.108305,0.771963,-1.62739,-0.108551,0.774793,-1.62473,0.0483887,-0.7675,1.63295,-0.0484519,-0.771885,1.63116,-0.0455454,0.000233067,0.0336782,-0.0417191,0,0,0,0,
-15.0536,7.8017,33.5253,0.11465,15.1583,7.7084,32.8831,0.0343568,-6.65806,-9.33574,-34.2503,-0.095081,6.94402,-9.21081,-33.8766,0.066755,-14.9991,7.7932,33.503,0.114708,15.1075,7.70317,32.8638,0.0220897,-6.63589,-9.31456,-34.2631,-0.0915395,6.92148,-9.19976,-33.8578,0.0636397,0.145482,0.754149,-1.7143,-0.146139,0.757465,-1.7094,0.0649233,-0.745454,1.72181,-0.0656029,-0.750707,1.7184,0.107614,0.772049,-1.62703,-0.107858,0.774861,-1.62439,0.0480801,-0.767614,1.63255,-0.0481429,-0.771971,1.63077,-0.0573252,-0.0171784,0.0475405,-0.0333775,0,0,0,0,
-15.3187,7.84751,33.4711,0.137514,15.4139,7.77074,32.8827,0.0497517,-6.78896,-9.33765,-34.3431,-0.106271,7.05172,-9.27419,-33.8972,0.0513246,-15.2689,7.83626,33.4571,0.135901,15.3535,7.76419,32.8582,0.0480524,-6.78598,-9.26868,-34.4796,-0.0979995,7.02158,-9.26645,-33.8776,0.0525911,0.145448,0.753911,-1.71375,-0.146076,0.757182,-1.70896,0.0648998,-0.745308,1.72131,-0.0655853,-0.750457,1.71794,0.106923,0.772135,-1.62667,-0.107166,0.774928,-1.62404,0.0477715,-0.767729,1.63216,-0.0478339,-0.772057,1.63039,-0.068757,-0.0248759,0.0531354,-0.0256623,0,0,0,0,
-15.5916,7.88973,33.4579,0.159208,15.6614,7.81725,32.9043,0.0580615,-6.90589,-9.39388,-34.29,-0.129175,7.16261,-9.33898,-33.9314,0.0249184,-15.5365,7.88419,33.4357,0.157294,15.6118,7.81156,32.8829,0.0551137,-6.87891,-9.40745,-34.2175,-0.132283,7.1412,-9.33081,-33.908,0.0257264,0.145418,0.753728,-1.71328,-0.146021,0.756959,-1.70859,0.0648791,-0.74519,1.72085,-0.0655668,-0.750231,1.71756,0.106232,0.772221,-1.62631,-0.106474,0.774996,-1.6237,0.0474629,-0.767843,1.63176,-0.0475249,-0.772143,1.63,-0.0796042,-0.0290307,0.0645876,-0.0124592,0,0,0,0,
-15.8507,7.92748,33.4238,0.178497,15.9262,7.85941,32.9255,0.0835502,-7.02096,-9.4464,-34.2325,-0.143847,7.28095,-9.39885,-33.9632,0.0226826,-15.7943,7.92019,33.4078,0.175769,15.8726,7.85101,32.9069,0.0793525,-6.99814,-9.42501,-34.2457,-0.143043,7.25737,-9.39071,-33.9448,0.0227012,0.145387,0.753558,-1.71278,-0.145964,0.756747,-1.7082,0.0648614,-0.745097,1.7204,-0.0655464,-0.750027,1.71716,0.105542,0.772306,-1.62595,-0.105781,0.775064,-1.62336,0.0471543,-0.767957,1.63136,-0.0472159,-0.772229,1.62962,-0.0892483,-0.0417751,0.0719234,-0.0113413,0,0,0,0,
-16.1337,7.94689,33.4041,0.197683,16.1638,7.89826,32.9393,0.0961884,-7.17672,-9.28423,-34.705,-0.129087,7.38029,-9.45277,-34.005,-0.00266102,-16.0693,7.94787,33.387,0.195895,16.1194,7.89215,32.9235,0.0923483,-7.12718,-9.436,-34.298,-0.150291,7.36126,-9.44418,-33.9826,-0.00382729,0.145357,0.753411,-1.7123,-0.145907,0.75656,-1.70783,0.0648445,-0.745015,1.71995,-0.0655246,-0.749844,1.71677,0.104851,0.772392,-1.62558,-0.105089,0.775131,-1.62301,0.0468457,-0.768071,1.63097,-0.0469069,-0.772316,1.62923,-0.0988413,-0.0480942,0.0645436,0.00133051,0,0,0,0,
-16.3806,7.98094,33.3782,0.212218,16.4419,7.93456,32.9828,0.108081,-7.26541,-9.49865,-34.246,-0.174913,7.50573,-9.50377,-34.0431,-0.015777,-16.3243,7.97734,33.359,0.212584,16.3884,7.92757,32.9582,0.106176,-7.24299,-9.47665,-34.2593,-0.171122,7.48079,-9.49502,-34.0177,-0.00484848,0.145327,0.753288,-1.71182,-0.145851,0.756395,-1.70749,0.0648305,-0.744956,1.71951,-0.0655035,-0.74968,1.7164,0.10416,0.772478,-1.62522,-0.104397,0.775199,-1.62267,0.0465371,-0.768185,1.63057,-0.0465979,-0.772402,1.62885,-0.106109,-0.0540403,0.0874566,0.00788849,0,0,0,0,
-16.6532,7.99421,33.3754,0.230637,16.6923,7.96748,32.9894,0.1224,-7.39694,-9.33049,-34.3243,-0.18005,7.60383,-9.55359,-34.0921,-0.0181953,-16.5982,7.993,33.3538,0.226652,16.6417,7.95975,32.9727,0.123548,-7.3696,-9.48718,-34.2596,-0.184483,7.58426,-9.54575,-34.0688,-0.0273127,0.145299,0.753185,-1.71138,-0.145801,0.75626,-1.70711,0.0648174,-0.744909,1.71909,-0.0654781,-0.749533,1.71606,0.10347,0.772563,-1.62486,-0.103705,0.775267,-1.62232,0.0462285,-0.768299,1.63017,-0.0462889,-0.772488,1.62847,-0.115318,-0.0612001,0.0900248,0.00909764,0,0,0,0,
-16.9091,8.01717,33.3539,0.242054,16.9618,7.99499,33.0247,0.140402,-7.52304,-9.49004,-34.4003,-0.182346,7.7271,-9.59501,-34.1355,-0.0333479,-16.86,8.00741,33.3382,0.243136,16.9005,7.99319,33.0004,0.129307,-7.52094,-9.42044,-34.5421,-0.172287,7.6983,-9.58696,-34.1154,-0.0314191,0.145269,0.753108,-1.71093,-0.145747,0.756133,-1.70679,0.0648077,-0.744886,1.71868,-0.0654549,-0.749411,1.71571,0.102779,0.772649,-1.6245,-0.103012,0.775334,-1.62198,0.0459199,-0.768413,1.62978,-0.0459799,-0.772574,1.62808,-0.121027,-0.070201,0.0911732,0.016674,0,0,0,0,
-17.1743,8.0344,33.346,0.255131,17.219,8.02035,33.0589,0.137396,-7.6344,-9.55518,-34.2848,-0.205488,7.83915,-9.63867,-34.1798,-0.0472212,-17.1201,8.0292,33.3266,0.254317,17.1684,8.01522,33.039,0.14545,-7.60946,-9.54449,-34.2712,-0.200266,7.81759,-9.6298,-34.1567,-0.0347989,0.145241,0.753046,-1.7105,-0.1457,0.756031,-1.70648,0.0647971,-0.744866,1.71828,-0.0654315,-0.749302,1.7154,0.102088,0.772735,-1.62414,-0.10232,0.775402,-1.62164,0.0456113,-0.768528,1.62938,-0.0456709,-0.77266,1.6277,-0.127566,-0.0686978,0.102744,0.0236106,0,0,0,0,
-17.445,8.03992,33.3314,0.269773,17.4714,8.04419,33.0754,0.158103,-7.76618,-9.54625,-34.3491,-0.211923,7.94353,-9.67761,-34.2203,-0.0562616,-17.3883,8.03591,33.3124,0.270267,17.4176,8.03693,33.0552,0.154159,-7.7393,-9.54631,-34.3082,-0.208129,7.92006,-9.67119,-34.2002,-0.0489322,0.14521,0.752997,-1.71006,-0.145649,0.755937,-1.70615,0.0647872,-0.744857,1.71785,-0.0654052,-0.749199,1.71506,0.101397,0.77282,-1.62378,-0.101628,0.77547,-1.62129,0.0453027,-0.768642,1.62899,-0.0453619,-0.772747,1.62731,-0.134887,-0.0790513,0.105962,0.0281308,0,0,0,0,
-17.7185,8.04102,33.3097,0.285819,17.7186,8.06834,33.0858,0.161844,-7.91548,-9.36785,-34.8182,-0.192798,8.0492,-9.71655,-34.2636,-0.062248,-17.655,8.03965,33.2918,0.283993,17.6736,8.06456,33.0691,0.162805,-7.86761,-9.52788,-34.3862,-0.214572,8.02924,-9.70761,-34.2363,-0.0597613,0.145179,0.752964,-1.70962,-0.145598,0.755857,-1.70583,0.0647794,-0.744868,1.71745,-0.0653779,-0.749109,1.71474,0.100707,0.772906,-1.62342,-0.100935,0.775537,-1.62095,0.0449941,-0.768756,1.62859,-0.0450529,-0.772833,1.62693,-0.142909,-0.080922,0.0963989,0.031124,0,0,0,0,
-17.9795,8.04509,33.2907,0.295859,17.9786,8.08879,33.1017,0.181876,-8.05512,-9.32114,-34.9667,-0.189839,8.16153,-9.7507,-34.3081,-0.0699939,-17.9259,8.04653,33.2765,0.296068,17.9361,8.08238,33.0853,0.17141,-8.01361,-9.36735,-34.8111,-0.19634,8.13638,-9.74491,-34.2803,-0.0740154,0.145148,0.752946,-1.70918,-0.145553,0.755791,-1.70551,0.0647729,-0.744892,1.71705,-0.0653502,-0.74903,1.71444,0.100016,0.772992,-1.62306,-0.100243,0.775605,-1.6206,0.0446855,-0.76887,1.62819,-0.0447439,-0.772919,1.62654,-0.147929,-0.0909379,0.0949193,0.0349969,0,0,0,0,
-18.2405,8.04214,33.2709,0.309272,18.2402,8.10822,33.1138,0.192267,-8.17685,-9.3239,-34.9718,-0.200403,8.27303,-9.78352,-34.333,-0.0772166,-18.1869,8.03892,33.2529,0.308283,18.1835,8.10265,33.0988,0.186668,-8.13541,-9.36698,-34.8204,-0.205965,8.24817,-9.77845,-34.3096,-0.0862232,0.145116,0.752941,-1.70875,-0.145501,0.755736,-1.70519,0.0647659,-0.744923,1.71665,-0.0653224,-0.748963,1.7141,0.0993253,0.773077,-1.6227,-0.0995509,0.775673,-1.62026,0.0443769,-0.768984,1.6278,-0.0444349,-0.773005,1.62616,-0.154636,-0.0961336,0.100201,0.0386083,0,0,0,0,
-18.4944,8.04927,33.261,0.319863,18.509,8.12495,33.135,0.19649,-8.25956,-9.5559,-34.4329,-0.242442,8.38816,-9.81367,-34.3697,-0.0963942,-18.4414,8.04645,33.2413,0.319043,18.4564,8.12205,33.1193,0.195664,-8.23441,-9.55192,-34.4018,-0.238752,8.36484,-9.80758,-34.3464,-0.0964091,0.145084,0.752948,-1.70835,-0.145458,0.755694,-1.70489,0.0647581,-0.744951,1.71625,-0.0652964,-0.74891,1.7138,0.0986346,0.773163,-1.62234,-0.0988586,0.77574,-1.61992,0.0440683,-0.769098,1.6274,-0.0441259,-0.773091,1.62577,-0.159931,-0.0982448,0.121221,0.0481971,0,0,0,0,
-18.7539,8.04468,33.2362,0.331858,18.7708,8.13868,33.1447,0.206721,-8.37831,-9.56188,-34.4136,-0.246815,8.50086,-9.84158,-34.3976,-0.105435,-18.6977,8.04139,33.2226,0.334221,18.7162,8.13364,33.1265,0.210143,-8.35229,-9.56147,-34.3853,-0.249034,8.4772,-9.83667,-34.3756,-0.0961139,0.14505,0.752968,-1.70792,-0.145411,0.75566,-1.70457,0.0647516,-0.745001,1.71585,-0.0652681,-0.748862,1.71348,0.0979439,0.773249,-1.62198,-0.0981663,0.775808,-1.61957,0.0437597,-0.769213,1.627,-0.0438169,-0.773178,1.62539,-0.165929,-0.10336,0.123407,0.0527176,0,0,0,0,
-19.0109,8.03754,33.2158,0.346354,19.033,8.15192,33.1488,0.223989,-8.5009,-9.54991,-34.4666,-0.247853,8.6151,-9.86816,-34.4238,-0.116326,-18.9588,8.03504,33.1956,0.344474,18.9795,8.14893,33.1304,0.216938,-8.47662,-9.54412,-34.4455,-0.248082,8.59176,-9.86285,-34.4002,-0.11399,0.145016,0.752999,-1.70749,-0.145364,0.755635,-1.70425,0.0647453,-0.745056,1.71544,-0.0652388,-0.748823,1.71317,0.0972532,0.773334,-1.62161,-0.097474,0.775875,-1.61923,0.0434511,-0.769327,1.62661,-0.0435079,-0.773264,1.625,-0.173177,-0.111994,0.123926,0.0581631,0,0,0,0,
-19.2699,8.02851,33.1891,0.356613,19.2939,8.16444,33.1501,0.234607,-8.62098,-9.54809,-34.4617,-0.256057,8.72747,-9.89237,-34.4457,-0.11711,-19.2154,8.02641,33.173,0.354513,19.2395,8.15954,33.1344,0.231789,-8.59622,-9.54346,-34.4415,-0.257557,8.70367,-9.88653,-34.423,-0.120926,0.14498,0.75304,-1.70706,-0.145319,0.755618,-1.70393,0.0647389,-0.74512,1.71504,-0.06521,-0.748793,1.71285,0.0965625,0.77342,-1.62125,-0.0967818,0.775943,-1.61888,0.0431425,-0.769441,1.62621,-0.0431989,-0.77335,1.62462,-0.178306,-0.117303,0.128028,0.0585552,0,0,0,0,
-19.5289,8.01867,33.1622,0.369552,19.5544,8.17408,33.1483,0.248643,-8.74111,-9.54717,-34.4584,-0.265008,8.83922,-9.91618,-34.463,-0.12911,-19.4743,8.01543,33.1421,0.367251,19.4997,8.16978,33.1322,0.249362,-8.71664,-9.54112,-34.4373,-0.267227,8.81527,-9.91,-34.444,-0.124123,0.144943,0.753091,-1.70664,-0.145274,0.755609,-1.7036,0.0647322,-0.745191,1.71464,-0.0651812,-0.748771,1.71253,0.0958718,0.773506,-1.62089,-0.0960895,0.776011,-1.61854,0.0428339,-0.769555,1.62581,-0.0428899,-0.773436,1.62423,-0.184776,-0.124321,0.132504,0.064555,0,0,0,0,
-19.787,8.00429,33.1315,0.378667,19.8146,8.18335,33.1429,0.248228,-8.86077,-9.53869,-34.4478,-0.275966,8.95113,-9.93483,-34.4775,-0.137235,-19.7323,8.00073,33.1136,0.38008,19.7594,8.17843,33.1238,0.25306,-8.83626,-9.53481,-34.4269,-0.270762,8.92682,-9.9282,-34.4589,-0.138712,0.144905,0.753151,-1.70621,-0.14523,0.755608,-1.70327,0.0647252,-0.74527,1.71424,-0.0651523,-0.748757,1.71221,0.0951811,0.773592,-1.62053,-0.0953972,0.776078,-1.6182,0.0425253,-0.769669,1.62542,-0.0425809,-0.773522,1.62385,-0.189333,-0.124114,0.137983,0.0686174,0,0,0,0,
-20.0448,7.98959,33.1038,0.390498,20.0745,8.18723,33.1319,0.274106,-8.98019,-9.52955,-34.4413,-0.279253,9.06294,-9.95084,-34.4902,-0.139598,-19.9906,7.9864,33.0843,0.392113,20.0197,8.18344,33.1151,0.266869,-8.95595,-9.52376,-34.4209,-0.281626,9.03903,-9.94499,-34.4689,-0.14776,0.144866,0.753219,-1.70578,-0.145185,0.755614,-1.70293,0.0647179,-0.745357,1.71383,-0.0651232,-0.74875,1.71188,0.0944904,0.773677,-1.62017,-0.0947049,0.776146,-1.61785,0.0422167,-0.769783,1.62502,-0.0422719,-0.773609,1.62346,-0.195249,-0.137053,0.139626,0.069799,0,0,0,0,
-20.303,7.97348,33.0699,0.404737,20.3347,8.19631,33.1245,0.269666,-9.09882,-9.51732,-34.4327,-0.28496,9.17557,-9.96592,-34.4986,-0.150682,-20.2477,7.97069,33.0549,0.402441,20.2794,8.19043,33.1071,0.282352,-9.07444,-9.51225,-34.4089,-0.287907,9.15146,-9.95957,-34.4803,-0.149814,0.144826,0.753296,-1.70535,-0.145141,0.755626,-1.70259,0.0647101,-0.745451,1.71342,-0.0650943,-0.748751,1.71155,0.0937996,0.773763,-1.61981,-0.0940127,0.776214,-1.61751,0.0419081,-0.769898,1.62463,-0.0419629,-0.773695,1.62308,-0.202369,-0.134833,0.14248,0.0753412,0,0,0,0,
-20.5593,7.9518,33.038,0.415191,20.594,8.19613,33.1074,0.283925,-9.21701,-9.50369,-34.4227,-0.294803,9.28845,-9.97668,-34.5078,-0.167474,-20.5068,7.94895,33.0176,0.413048,20.5416,8.19452,33.0931,0.284755,-9.19303,-9.49875,-34.399,-0.290972,9.2648,-9.97225,-34.4867,-0.158559,0.144785,0.75338,-1.70492,-0.145098,0.755645,-1.70225,0.0647015,-0.745553,1.71301,-0.0650657,-0.74876,1.71121,0.0931089,0.773849,-1.61945,-0.0933204,0.776281,-1.61716,0.0415995,-0.770012,1.62423,-0.0416539,-0.773781,1.62269,-0.207595,-0.141963,0.147402,0.0837369,0,0,0,0,
-20.8138,7.97679,32.9062,0.431381,20.854,8.19524,33.0967,0.295863,-9.3338,-9.48748,-34.411,-0.300032,9.40257,-9.98708,-34.5132,-0.168998,-20.7647,7.92609,32.9877,0.424934,20.801,8.19313,33.0759,0.299999,-9.31126,-9.48012,-34.3883,-0.297126,9.37742,-9.981,-34.4905,-0.166782,0.144743,0.753471,-1.70449,-0.145054,0.755671,-1.7019,0.0646924,-0.745662,1.7126,-0.0650372,-0.748775,1.71087,0.0924182,0.773934,-1.61909,-0.0926281,0.776349,-1.61682,0.0412909,-0.770126,1.62383,-0.0413449,-0.773867,1.62231,-0.215691,-0.147931,0.150016,0.0844991,0,0,0,0,
-21.075,8.05084,32.9571,0.384963,21.1132,8.19089,33.0728,0.314082,-9.45309,-9.47069,-34.3974,-0.308473,9.51399,-9.99935,-34.5134,-0.184764,-21.0205,8.03949,32.9393,0.388101,21.0587,8.18833,33.0557,0.306212,-9.42884,-9.46633,-34.3784,-0.307255,9.48967,-9.99274,-34.4943,-0.174998,0.144701,0.753541,-1.70405,-0.145011,0.755703,-1.70155,0.0646829,-0.745778,1.71219,-0.0650086,-0.748797,1.71053,0.0917275,0.77402,-1.61873,-0.0919358,0.776417,-1.61648,0.0409823,-0.77024,1.62344,-0.0410359,-0.773953,1.62192,-0.192481,-0.157041,0.154237,0.092382,0,0,0,0,
-21.3017,8.23326,32.6191,0.388798,21.3649,8.1817,33.0522,0.327312,-9.56834,-9.46197,-34.3926,-0.312694,9.63092,-10.0131,-34.5145,-0.192131,-21.253,8.30478,32.402,0.407174,21.3162,8.17632,33.0323,0.322827,-9.53769,-9.45731,-34.3733,-0.313291,9.61449,-10.0104,-34.4963,-0.190392,0.144657,0.753577,-1.70359,-0.144966,0.755742,-1.70118,0.0646719,-0.745897,1.71178,-0.0649813,-0.748823,1.71018,0.0910368,0.774106,-1.61837,-0.0912435,0.776484,-1.61613,0.0406737,-0.770354,1.62304,-0.0407269,-0.77404,1.62154,-0.194399,-0.163656,0.156347,0.0960654,0,0,0,0,
-21.6147,8.37904,32.827,0.282618,21.6054,8.16721,33.0375,0.338708,-9.67982,-9.45434,-34.3943,-0.320461,9.74978,-10.0243,-34.5072,-0.199268,-21.5583,8.36285,32.8165,0.288011,21.5516,8.16479,33.0221,0.33963,-9.65668,-9.44908,-34.3739,-0.316053,9.72418,-10.0181,-34.4876,-0.188532,0.144619,0.753561,-1.70313,-0.144915,0.75579,-1.70082,0.0646608,-0.74602,1.71137,-0.0649538,-0.748853,1.70982,0.0903461,0.774191,-1.61801,-0.0905513,0.776552,-1.61579,0.0403651,-0.770468,1.62264,-0.0404179,-0.774126,1.62115,-0.141309,-0.169354,0.160231,0.0996341,0,0,0,0,
-21.8985,8.57736,32.7487,0.230687,21.84,8.14492,33.0222,0.337168,-9.77986,-9.45739,-34.4078,-0.324187,9.88127,-10.0386,-34.4992,-0.200585,-21.8427,8.55872,32.7378,0.234037,21.7874,8.14311,33.0074,0.343804,-9.75682,-9.45145,-34.3894,-0.321577,9.85577,-10.0333,-34.4822,-0.196423,0.144587,0.75349,-1.70267,-0.144859,0.755846,-1.70045,0.0646432,-0.746141,1.71096,-0.0649327,-0.748886,1.70946,0.0896554,0.774277,-1.61764,-0.089859,0.77662,-1.61545,0.0400566,-0.770582,1.62225,-0.0401089,-0.774212,1.62077,-0.115344,-0.168584,0.162094,0.100292,0,0,0,0,
-22.1827,8.71605,32.6917,0.197141,22.069,8.12012,33.0244,0.354163,-9.87945,-9.46548,-34.4435,-0.329083,10.014,-10.0574,-34.4994,-0.204254,-22.1283,8.70443,32.6726,0.198123,22.0188,8.11824,33.0005,0.352707,-9.85707,-9.45848,-34.4164,-0.327779,9.98931,-10.0513,-34.4803,-0.206149,0.144564,0.753383,-1.70222,-0.144799,0.755909,-1.70011,0.0646213,-0.746251,1.71059,-0.0649186,-0.748919,1.70911,0.0889647,0.774363,-1.61728,-0.0891667,0.776687,-1.6151,0.039748,-0.770697,1.62185,-0.0397998,-0.774298,1.62038,-0.0985704,-0.177082,0.164542,0.102127,0,0,0,0,
-22.4797,8.77869,32.6224,0.190023,22.2883,8.08475,33.0004,0.359639,-10.016,-9.57713,-34.8243,-0.222767,10.1496,-10.0686,-34.4742,-0.218235,-22.4284,8.76992,32.6075,0.187819,22.2284,8.08006,32.9806,0.365058,-9.98872,-9.5079,-34.7812,-0.246736,10.1213,-10.063,-34.4566,-0.2245,0.144547,0.753256,-1.7017,-0.14472,0.755993,-1.69972,0.0645916,-0.746364,1.71018,-0.0649091,-0.748958,1.70871,0.088274,0.774449,-1.61692,-0.0884744,0.776755,-1.61476,0.0394394,-0.770811,1.62145,-0.0394909,-0.774384,1.62,-0.0950114,-0.17982,0.111384,0.109117,0,0,0,0,
-22.7673,8.82622,32.6082,0.191142,22.5209,8.05986,32.9962,0.361741,-10.1229,-9.78052,-34.7572,-0.181487,10.2716,-10.077,-34.4639,-0.226542,-22.7156,8.81847,32.5883,0.191402,22.4613,8.05625,32.9828,0.360398,-10.0926,-9.7153,-34.731,-0.200726,10.2439,-10.0731,-34.4441,-0.237193,0.144534,0.753152,-1.70126,-0.144649,0.756075,-1.69938,0.0645586,-0.746382,1.70981,-0.064907,-0.748995,1.70835,0.0875833,0.774534,-1.61656,-0.0877821,0.776823,-1.61441,0.0391308,-0.770925,1.62106,-0.0391818,-0.77447,1.61961,-0.0955712,-0.180871,0.0907435,0.113271,0,0,0,0,
-23.0358,8.87056,32.5895,0.195232,22.7729,8.02968,32.9933,0.371418,-10.2095,-10.0655,-34.5818,-0.133851,10.4002,-10.0739,-34.4449,-0.247398,-22.9855,8.85873,32.5764,0.193781,22.7128,8.02957,32.9715,0.37913,-10.1981,-9.99644,-34.6304,-0.139375,10.3702,-10.0694,-34.4271,-0.247503,0.144526,0.753053,-1.70078,-0.144568,0.75617,-1.69901,0.064525,-0.746344,1.70942,-0.0649036,-0.749041,1.70796,0.0868926,0.77462,-1.6162,-0.0870899,0.77689,-1.61407,0.0388222,-0.771039,1.62066,-0.0388729,-0.774557,1.61923,-0.0976162,-0.185709,0.0669254,0.123699,0,0,0,0,
-23.2903,8.9122,32.586,0.204881,23.038,8.00133,32.9839,0.383494,-10.2825,-10.2699,-34.2543,-0.152471,10.5291,-10.0701,-34.4273,-0.260366,-23.24,8.90069,32.5698,0.203778,22.9774,8.0004,32.9652,0.38469,-10.2817,-10.1913,-34.4951,-0.118161,10.5013,-10.0655,-34.4067,-0.251236,0.144517,0.752967,-1.70033,-0.144488,0.75627,-1.69864,0.0644912,-0.746266,1.70902,-0.0648994,-0.749093,1.70756,0.0862018,0.774706,-1.61584,-0.0863976,0.776958,-1.61373,0.0385136,-0.771153,1.62027,-0.0385638,-0.774643,1.61884,-0.102441,-0.191747,0.0762356,0.130183,0,0,0,0,
-23.5527,8.93625,32.6003,0.212187,23.2935,8.27837,32.9263,0.276744,-10.3916,-10.3564,-34.0847,-0.181144,10.6368,-10.0717,-34.4256,-0.261498,-23.4919,8.9313,32.584,0.210398,23.2461,8.26293,32.9149,0.285482,-10.3641,-10.372,-34.0919,-0.16161,10.6195,-10.0651,-34.4013,-0.260238,0.144506,0.752896,-1.69988,-0.14441,0.756306,-1.69824,0.0644577,-0.746165,1.7086,-0.0648933,-0.749152,1.70716,0.0855111,0.774791,-1.61548,-0.0857053,0.777025,-1.61338,0.038205,-0.771267,1.61987,-0.0382549,-0.774729,1.61846,-0.106093,-0.138372,0.090572,0.130749,0,0,0,0,
-23.8042,8.94842,32.6221,0.22022,23.564,8.42929,32.8609,0.236201,-10.5548,-10.5811,-34.3602,-0.0640414,10.7349,-10.0729,-34.4415,-0.262052,-23.7503,8.94198,32.6053,0.217639,23.5083,8.41906,32.845,0.240173,-10.5289,-10.5619,-34.3379,-0.0726459,10.7125,-10.067,-34.4171,-0.2686,0.144488,0.75284,-1.69946,-0.144341,0.756282,-1.69785,0.0644336,-0.746032,1.70818,-0.0648812,-0.749214,1.70677,0.0848204,0.774877,-1.61512,-0.085013,0.777093,-1.61304,0.0378964,-0.771381,1.61947,-0.0379458,-0.774815,1.61807,-0.11011,-0.118101,0.0320207,0.131026,0,0,0,0,
-24.046,8.9844,32.6672,0.220375,23.8436,8.49674,32.827,0.230345,-10.6946,-10.7383,-34.3584,-0.044933,10.8275,-10.0693,-34.4667,-0.269668,-23.9953,8.97797,32.6422,0.223642,23.7891,8.4892,32.8096,0.230294,-10.6691,-10.724,-34.3347,-0.0457039,10.8056,-10.0666,-34.447,-0.268822,0.144461,0.752796,-1.69908,-0.144287,0.756239,-1.69747,0.0644169,-0.745866,1.70779,-0.0648631,-0.749275,1.70641,0.0841297,0.774963,-1.61476,-0.0843208,0.777161,-1.61269,0.0375878,-0.771496,1.61908,-0.0376368,-0.774901,1.61769,-0.110187,-0.115173,0.0224665,0.134834,0,0,0,0,
-24.2799,9.02672,32.7092,0.218742,24.1293,8.52873,32.7793,0.225762,-10.8361,-10.8343,-34.3694,-0.041436,10.9194,-10.0638,-34.4932,-0.277622,-24.2265,9.01775,32.6885,0.22036,24.0726,8.52373,32.7692,0.224637,-10.8103,-10.8241,-34.3447,-0.0447062,10.8965,-10.0597,-34.4707,-0.285287,0.144424,0.752754,-1.69869,-0.14424,0.756193,-1.69706,0.0644076,-0.745687,1.70737,-0.0648352,-0.749345,1.70603,0.083439,0.775048,-1.6144,-0.0836285,0.777228,-1.61235,0.0372792,-0.77161,1.61868,-0.0373278,-0.774988,1.6173,-0.109371,-0.112881,0.020718,0.138811,0,0,0,0,
-24.6021,8.51611,34.196,0.0917126,24.4041,8.55603,32.7416,0.234365,-10.9935,-10.8895,-34.3918,-0.0514376,10.988,-10.0452,-34.5147,-0.282285,-24.4631,9.06388,32.7314,0.216633,24.3582,8.5462,32.7241,0.227484,-10.9487,-10.8917,-34.3666,-0.0471479,10.9918,-10.0494,-34.4943,-0.282773,0.144379,0.752728,-1.69836,-0.144201,0.756154,-1.69665,0.0644057,-0.745521,1.70696,-0.0648002,-0.749421,1.70566,0.0827483,0.775134,-1.61404,-0.0829362,0.777296,-1.61201,0.0369706,-0.771724,1.61828,-0.0370188,-0.775074,1.61692,-0.0458563,-0.117182,0.0257188,0.141142,0,0,0,0,
-24.768,9.71527,32.6428,0.0157447,24.6895,8.56304,32.66,0.247177,-11.0979,-10.7316,-34.7401,-0.0952193,11.1531,-10.0513,-34.5636,-0.299597,-24.7139,9.67804,32.6385,0.0234805,24.6344,8.55828,32.6441,0.248044,-11.0619,-10.708,-34.6762,-0.102845,11.1304,-10.0483,-34.5382,-0.293216,0.144331,0.752605,-1.69807,-0.144178,0.756124,-1.69622,0.0643933,-0.745398,1.70656,-0.0647761,-0.749502,1.7053,0.0820576,0.77522,-1.61367,-0.0822439,0.777364,-1.61166,0.036662,-0.771838,1.61789,-0.0367098,-0.77516,1.61653,-0.00787236,-0.123588,0.0476096,0.149798,0,0,0,0,
-25.0547,10.0614,32.5863,-0.0722958,24.9218,8.54523,32.6499,0.248722,-11.2152,-10.8219,-34.7144,-0.11459,11.265,-10.0707,-34.5722,-0.301727,-25.0006,10.0349,32.5722,-0.0663096,24.8675,8.54493,32.6281,0.257021,-11.199,-10.7608,-34.7783,-0.114815,11.2387,-10.0641,-34.5506,-0.303063,0.144285,0.752324,-1.69767,-0.144144,0.75611,-1.69581,0.0643879,-0.745333,1.70624,-0.0647506,-0.749573,1.70497,0.0813669,0.775305,-1.61331,-0.0815516,0.777431,-1.61132,0.0363534,-0.771952,1.61749,-0.0364008,-0.775246,1.61615,0.0361479,-0.124361,0.0572951,0.150863,0,0,0,0,
-25.3435,10.2645,32.578,-0.106056,25.1557,8.51814,32.6466,0.252363,-11.3051,-11.0753,-34.6179,-0.0955946,11.3939,-10.0824,-34.5567,-0.311339,-25.2859,10.2477,32.5585,-0.105642,25.1027,8.51639,32.6272,0.254556,-11.2815,-11.057,-34.5951,-0.0922682,11.369,-10.0779,-34.5344,-0.31652,0.144247,0.751987,-1.69724,-0.144097,0.756115,-1.69539,0.0643791,-0.745223,1.7059,-0.0647266,-0.749646,1.7046,0.0806762,0.775391,-1.61295,-0.0808594,0.777499,-1.61097,0.0360448,-0.772066,1.61709,-0.0360918,-0.775332,1.61576,0.053028,-0.126182,0.0477973,0.155669,0,0,0,0,
-25.6252,10.3852,32.5997,-0.119711,25.4004,8.59175,32.6157,0.223782,-11.4141,-11.2166,-34.6891,-0.0900726,11.5206,-10.0989,-34.5511,-0.323171,-25.5693,10.3742,32.5771,-0.119496,25.3467,8.5853,32.6018,0.22596,-11.3906,-11.2022,-34.6617,-0.0864802,11.4953,-10.0928,-34.5312,-0.33233,0.144219,0.751657,-1.69682,-0.144043,0.756114,-1.69497,0.0643668,-0.745087,1.70557,-0.0647061,-0.749716,1.70423,0.0799855,0.775477,-1.61259,-0.0801671,0.777567,-1.61063,0.0357362,-0.772181,1.6167,-0.0357828,-0.775419,1.61538,0.0598556,-0.111891,0.0450363,0.161585,0,0,0,0,
-25.896,10.4643,32.6479,-0.12123,25.6555,8.60549,32.6008,0.210644,-11.5177,-11.3293,-34.7716,-0.0945477,11.6525,-10.1128,-34.5574,-0.3448,-25.8432,10.4562,32.6213,-0.119849,25.6031,8.60189,32.584,0.221628,-11.4943,-11.3153,-34.7455,-0.0873887,11.6277,-10.1061,-34.5347,-0.342412,0.144196,0.751369,-1.69645,-0.143991,0.756112,-1.69455,0.0643499,-0.744942,1.70527,-0.0646918,-0.749779,1.70388,0.0792947,0.775562,-1.61223,-0.0794748,0.777634,-1.61029,0.0354276,-0.772295,1.6163,-0.0354738,-0.775505,1.61499,0.0606152,-0.105322,0.0472738,0.1724,0,0,0,0,
-26.1557,10.1504,32.8043,-0.00032378,25.9198,8.60252,32.5847,0.216956,-11.6314,-11.4159,-34.8368,-0.0976183,11.7739,-10.1181,-34.5391,-0.353907,-26.1028,10.1609,32.7792,-0.00759477,25.8625,8.59729,32.5695,0.21709,-11.6086,-11.4036,-34.8142,-0.098477,11.7479,-10.1129,-34.5172,-0.352193,0.144169,0.751136,-1.69604,-0.14393,0.75612,-1.69414,0.064332,-0.7448,1.70496,-0.0646771,-0.749849,1.70348,0.078604,0.775648,-1.61187,-0.0787825,0.777702,-1.60994,0.035119,-0.772409,1.61591,-0.0351648,-0.775591,1.61461,0.00016189,-0.108478,0.0488092,0.176953,0,0,0,0,
-26.3891,10.0192,32.9025,0.0572559,26.2124,8.61044,32.5555,0.203995,-11.7355,-11.4939,-34.8903,-0.109516,11.9046,-10.1152,-34.5441,-0.372312,-26.336,10.0183,32.8769,0.0548157,26.1552,8.6059,32.5412,0.208884,-11.7116,-11.4815,-34.8655,-0.106902,11.8796,-10.1099,-34.5258,-0.371589,0.144136,0.751051,-1.69573,-0.143885,0.756134,-1.69373,0.0643092,-0.744665,1.70466,-0.0646683,-0.749918,1.7031,0.0779133,0.775734,-1.61151,-0.0780902,0.77777,-1.6096,0.0348104,-0.772523,1.61551,-0.0348558,-0.775677,1.61422,-0.028628,-0.101998,0.0547578,0.186156,0,0,0,0,
-26.625,9.97089,32.9784,0.0786817,26.4999,8.62245,32.5089,0.210135,-11.8524,-11.5732,-34.9356,-0.118195,12.022,-10.1133,-34.5434,-0.384403,-26.5715,9.96882,32.9549,0.0786753,26.4431,8.61711,32.4957,0.203089,-11.8276,-11.5631,-34.9123,-0.114673,11.9979,-10.1072,-34.522,-0.385049,0.144094,0.751017,-1.69544,-0.14385,0.756152,-1.69332,0.0642856,-0.744537,1.70438,-0.0646604,-0.74999,1.70272,0.0772226,0.77582,-1.61115,-0.077398,0.777837,-1.60925,0.0345018,-0.772637,1.61511,-0.0345468,-0.775763,1.61384,-0.0393408,-0.105068,0.0590977,0.192202,0,0,0,0,
-26.864,9.96057,33.0495,0.0892615,26.7843,8.63488,32.473,0.197859,-11.9737,-11.6541,-34.9883,-0.122335,12.1349,-10.1087,-34.5558,-0.398044,-26.8125,9.95635,33.0215,0.0902994,26.7301,8.6295,32.457,0.208582,-11.9494,-11.6419,-34.9617,-0.126945,12.1119,-10.1032,-34.5325,-0.400572,0.144047,0.75101,-1.69519,-0.143825,0.756172,-1.69292,0.0642653,-0.744422,1.70411,-0.0646511,-0.750061,1.70237,0.0765319,0.775905,-1.61079,-0.0767057,0.777905,-1.60891,0.0341932,-0.772751,1.61472,-0.0342378,-0.77585,1.61345,-0.0446308,-0.0989296,0.0611677,0.199022,0,0,0,0,
-27.1007,9.959,33.1051,0.0977972,27.0696,8.64513,32.4204,0.19454,-12.0964,-11.7354,-35.0176,-0.132539,12.2452,-10.1029,-34.5524,-0.41096,-27.0471,9.95622,33.0827,0.0962348,27.0133,8.63952,32.407,0.20675,-12.0717,-11.7244,-34.9925,-0.136119,12.2217,-10.0976,-34.5296,-0.414838,0.14399,0.751016,-1.69493,-0.143805,0.756195,-1.69249,0.064246,-0.744304,1.70382,-0.0646383,-0.75014,1.70199,0.0758412,0.775991,-1.61043,-0.0760134,0.777973,-1.60857,0.0338846,-0.772866,1.61432,-0.0339288,-0.775936,1.61307,-0.0488986,-0.0972699,0.0662697,0.20548,0,0,0,0,
-27.3567,9.96798,33.1437,0.100103,27.3421,8.67352,32.394,0.185679,-12.2426,-11.8026,-35.0672,-0.142764,12.3336,-10.0959,-34.5382,-0.417111,-27.3042,9.96057,33.1253,0.102267,27.2884,8.65564,32.4054,0.18261,-12.2182,-11.7915,-35.0401,-0.141643,12.3092,-10.0922,-34.5175,-0.420746,0.14393,0.751031,-1.69467,-0.143793,0.756242,-1.69211,0.064232,-0.744192,1.70352,-0.0646198,-0.750224,1.70161,0.0751505,0.776077,-1.61007,-0.0753211,0.77804,-1.60822,0.033576,-0.77298,1.61392,-0.0336198,-0.776022,1.61268,-0.0500516,-0.0928396,0.0713822,0.208555,0,0,0,0,
-27.5813,9.97374,33.1809,0.103837,27.6282,8.71425,32.2959,0.178072,-12.3508,-11.8692,-35.0958,-0.158344,12.4577,-10.083,-34.54,-0.443942,-27.5284,9.96876,33.1582,0.105444,27.5718,8.7087,32.2827,0.177733,-12.3266,-11.8596,-35.0736,-0.158008,12.4331,-10.0787,-34.5202,-0.433602,0.143867,0.751054,-1.69441,-0.143778,0.756252,-1.69166,0.064222,-0.744088,1.70323,-0.0645972,-0.75031,1.70122,0.0744598,0.776162,-1.6097,-0.0746289,0.778108,-1.60788,0.0332674,-0.773094,1.61353,-0.0333108,-0.776108,1.6123,-0.0519185,-0.0890358,0.0791719,0.221971,0,0,0,0,
-27.8174,9.97673,33.2173,0.109571,27.9108,8.72075,32.2385,0.187,-12.4699,-11.9274,-35.1321,-0.174944,12.5714,-10.0703,-34.5294,-0.446996,-27.764,9.97281,33.1975,0.108005,27.8544,8.71739,32.2229,0.186127,-12.4453,-11.9193,-35.1074,-0.174026,12.5473,-10.0662,-34.5105,-0.453517,0.143796,0.751084,-1.69414,-0.143769,0.756265,-1.6912,0.0642103,-0.743992,1.70294,-0.0645758,-0.750401,1.70083,0.0737691,0.776248,-1.60934,-0.0739366,0.778175,-1.60753,0.0329588,-0.773208,1.61313,-0.0330018,-0.776194,1.61191,-0.0547856,-0.0934999,0.0874718,0.223498,0,0,0,0,
-28.0577,9.98367,33.2479,0.109297,28.1897,8.72415,32.1781,0.183717,-12.5907,-11.9821,-35.1631,-0.192899,12.683,-10.0535,-34.5314,-0.461455,-28.0036,9.97986,33.2299,0.11269,28.1328,8.72005,32.1636,0.180335,-12.5661,-11.9719,-35.1415,-0.190402,12.6589,-10.048,-34.5147,-0.46936,0.143722,0.751117,-1.69388,-0.143762,0.756284,-1.69074,0.0641991,-0.743907,1.70264,-0.0645535,-0.750497,1.70047,0.0730784,0.776334,-1.60898,-0.0732443,0.778243,-1.60719,0.0326502,-0.773322,1.61273,-0.0326928,-0.776281,1.61153,-0.0546485,-0.0918585,0.0964493,0.230727,0,0,0,0,
-28.3014,9.98852,33.2824,0.112401,28.4643,8.71837,32.1373,0.197599,-12.7123,-12.0336,-35.1999,-0.206036,12.7942,-10.0351,-34.5238,-0.480934,-28.2498,9.98292,33.2632,0.113218,28.4107,8.71673,32.1197,0.190552,-12.6884,-12.0241,-35.1771,-0.211055,12.7711,-10.0336,-34.501,-0.475427,0.143651,0.751159,-1.69363,-0.143756,0.75631,-1.6903,0.0641895,-0.743835,1.70236,-0.0645315,-0.75059,1.70008,0.0723876,0.776419,-1.60862,-0.072552,0.778311,-1.60685,0.0323416,-0.773436,1.61234,-0.0323838,-0.776367,1.61114,-0.0562004,-0.0987993,0.103018,0.240467,0,0,0,0,
-28.5591,9.99216,33.3126,0.117056,28.7271,8.71403,32.0749,0.196809,-12.8434,-12.079,-35.2273,-0.223875,12.9133,-10.1265,-34.5385,-0.448025,-28.4968,9.98867,33.2876,0.115266,28.6835,8.7062,32.0621,0.200929,-12.8134,-12.0707,-35.2064,-0.227114,12.9121,-9.99816,-34.8292,-0.430582,0.143575,0.751205,-1.69336,-0.14375,0.756344,-1.68983,0.0641801,-0.743768,1.70205,-0.064509,-0.750698,1.69971,0.0716969,0.776505,-1.60826,-0.0718598,0.778378,-1.6065,0.032033,-0.77355,1.61194,-0.0320748,-0.776453,1.61076,-0.0585279,-0.0984043,0.111937,0.224012,0,0,0,0,
-28.8006,10.0058,33.3276,0.11913,29.0035,8.71135,32.0306,0.195736,-12.951,-12.1214,-35.2387,-0.243923,13.0389,-10.2774,-34.5901,-0.379895,-28.7435,10.0007,33.3032,0.11958,28.9512,8.70743,32.0176,0.196087,-12.9252,-12.1121,-35.2189,-0.244379,13.0192,-10.2307,-34.6238,-0.380918,0.143501,0.751254,-1.69308,-0.14374,0.756384,-1.68936,0.0641717,-0.74371,1.70174,-0.0644848,-0.750742,1.69931,0.0710062,0.776591,-1.6079,-0.0711675,0.778446,-1.60616,0.0317244,-0.773665,1.61155,-0.0317658,-0.776539,1.61037,-0.0595651,-0.0978682,0.121962,0.189947,0,0,0,0,
-29.0523,10.0385,33.334,0.116125,29.2702,8.72556,31.9957,0.200784,-13.0484,-12.1521,-35.2556,-0.26231,13.1593,-10.5508,-34.3939,-0.325396,-28.9977,10.0312,33.3167,0.115323,29.2146,8.72099,31.9783,0.198748,-13.0256,-12.1446,-35.2297,-0.260778,13.1331,-10.5329,-34.3799,-0.332683,0.143428,0.7513,-1.6928,-0.143729,0.756426,-1.6889,0.0641581,-0.743664,1.70142,-0.0644648,-0.750702,1.69889,0.0703155,0.776676,-1.60754,-0.0704752,0.778514,-1.60581,0.0314158,-0.773779,1.61115,-0.0314568,-0.776625,1.60999,-0.0580624,-0.100392,0.131155,0.162698,0,0,0,0,
-29.3085,10.0788,33.3367,0.112138,29.5338,8.74951,31.9713,0.192032,-13.1384,-12.1737,-35.279,-0.27997,13.2974,-10.7049,-34.3231,-0.300294,-29.2538,10.0695,33.3181,0.114288,29.4791,8.74266,31.9586,0.191321,-13.1158,-12.1659,-35.2578,-0.277539,13.2717,-10.6935,-34.3018,-0.307041,0.143357,0.751338,-1.6925,-0.143716,0.756464,-1.68844,0.064135,-0.743631,1.7011,-0.0644522,-0.750613,1.69844,0.0696248,0.776762,-1.60718,-0.0697829,0.778581,-1.60547,0.0311072,-0.773893,1.61075,-0.0311478,-0.776711,1.6096,-0.0560691,-0.0960158,0.139985,0.150147,0,0,0,0,
-29.5723,10.1197,33.3418,0.111143,29.7912,8.77094,31.9685,0.198626,-13.233,-12.1925,-35.3197,-0.287093,13.4355,-10.7768,-34.3004,-0.288267,-29.5192,10.1109,33.3205,0.111699,29.7389,8.76755,31.9501,0.199057,-13.2107,-12.1857,-35.2924,-0.286222,13.4101,-10.769,-34.2805,-0.300331,0.143295,0.751367,-1.69222,-0.1437,0.756497,-1.68802,0.0641062,-0.743613,1.7008,-0.064447,-0.750519,1.69801,0.0689341,0.776848,-1.60682,-0.0690906,0.778649,-1.60513,0.0307986,-0.774007,1.61036,-0.0308388,-0.776798,1.60922,-0.0555714,-0.0993131,0.143547,0.144134,0,0,0,0,
-29.8412,10.1573,33.3338,0.108022,30.044,8.79754,31.9491,0.194589,-13.3289,-12.208,-35.3508,-0.304543,13.5717,-10.8158,-34.2729,-0.29338,-29.7858,10.1507,33.3172,0.109158,29.9896,8.79005,31.9333,0.196981,-13.3058,-12.1995,-35.3266,-0.305218,13.5463,-10.808,-34.2535,-0.300359,0.143234,0.751391,-1.69191,-0.143677,0.756529,-1.68757,0.0640698,-0.743607,1.70048,-0.0644468,-0.750426,1.69756,0.0682434,0.776934,-1.60646,-0.0683984,0.778717,-1.60478,0.03049,-0.774121,1.60996,-0.0305298,-0.776884,1.60883,-0.0540109,-0.0972945,0.152272,0.14669,0,0,0,0,
-30.1114,10.1942,33.3299,0.108713,30.2933,8.82195,31.9427,0.194249,-13.4273,-12.2255,-35.39,-0.315534,13.7049,-10.8386,-34.2555,-0.307854,-30.0557,10.1888,33.3098,0.109591,30.2389,8.81678,31.9219,0.198428,-13.4042,-12.218,-35.3659,-0.312017,13.68,-10.8324,-34.2357,-0.305581,0.143179,0.75141,-1.69161,-0.143649,0.756555,-1.68717,0.0640292,-0.743611,1.70018,-0.0644502,-0.750352,1.6971,0.0675527,0.777019,-1.6061,-0.0677061,0.778784,-1.60444,0.0301814,-0.774235,1.60956,-0.0302208,-0.77697,1.60845,-0.0543565,-0.0971247,0.157767,0.153927,0,0,0,0,
-30.3821,10.232,33.3172,0.110647,30.5424,8.84393,31.9255,0.193292,-13.5296,-12.2968,-35.3837,-0.315356,13.8353,-10.8498,-34.2523,-0.325456,-30.3288,10.2248,33.2982,0.110649,30.4906,8.83997,31.9069,0.199471,-13.5068,-12.2823,-35.3599,-0.313834,13.811,-10.8442,-34.2344,-0.311535,0.143133,0.751426,-1.69127,-0.143617,0.75658,-1.68674,0.0639889,-0.743617,1.69985,-0.0644563,-0.75029,1.69668,0.066862,0.777105,-1.60574,-0.0670138,0.778852,-1.60409,0.0298728,-0.77435,1.60917,-0.0299118,-0.777056,1.60806,-0.0553233,-0.096646,0.157678,0.162728,0,0,0,0,
-30.6497,10.2693,33.3187,0.113114,30.8212,8.82306,32.0699,0.165292,-13.6537,-12.4061,-35.5845,-0.252906,13.9578,-10.8484,-34.254,-0.325519,-30.5977,10.262,33.2949,0.112351,30.7576,8.82019,32.0521,0.162678,-13.6264,-12.4069,-35.5481,-0.251702,13.9358,-10.8479,-34.2343,-0.331465,0.143088,0.751439,-1.69093,-0.143577,0.756598,-1.68631,0.0639452,-0.743584,1.6995,-0.0644619,-0.750245,1.69624,0.0661713,0.777191,-1.60537,-0.0663215,0.77892,-1.60375,0.0295642,-0.774464,1.60877,-0.0296028,-0.777142,1.60768,-0.0565569,-0.0826459,0.126453,0.162759,0,0,0,0,
-30.909,10.5604,33.255,0.0361941,31.0833,8.88371,31.9998,0.161696,-13.7416,-12.8171,-35.2538,-0.198993,14.0846,-10.85,-34.2615,-0.337866,-30.8495,10.5391,33.2409,0.0388561,31.0353,8.8805,31.996,0.163492,-13.7102,-12.7957,-35.2172,-0.211458,14.0659,-10.8446,-34.2432,-0.332894,0.143048,0.751426,-1.69063,-0.14354,0.756606,-1.6859,0.0639011,-0.743481,1.69913,-0.064468,-0.750219,1.6958,0.0654805,0.777276,-1.60501,-0.0656292,0.778987,-1.60341,0.0292556,-0.774578,1.60837,-0.0292938,-0.777229,1.60729,-0.0180971,-0.0808482,0.0994967,0.168933,0,0,0,0,
-31.188,10.7614,33.2333,-0.00500531,31.3372,8.9042,32.0566,0.152553,-13.8862,-13.0257,-35.3199,-0.148743,14.1794,-10.8445,-34.2731,-0.354616,-31.1299,10.7495,33.2119,-0.00412049,31.2764,8.90355,32.0402,0.153935,-13.8564,-13.0059,-35.2985,-0.146327,14.1593,-10.839,-34.2537,-0.355224,0.14301,0.751314,-1.69026,-0.143494,0.7566,-1.68547,0.0638677,-0.743319,1.69875,-0.0644651,-0.750209,1.69538,0.0647898,0.777362,-1.60465,-0.064937,0.779055,-1.60306,0.028947,-0.774692,1.60798,-0.0289848,-0.777315,1.60691,0.00250265,-0.0762763,0.0743716,0.177308,0,0,0,0,
-31.4602,10.882,33.2439,-0.0161509,31.5846,8.93281,32.0295,0.155091,-14.0231,-13.1597,-35.3318,-0.132609,14.2771,-10.8366,-34.2847,-0.355313,-31.4013,10.8715,33.2207,-0.014773,31.5389,8.92621,32.0416,0.142091,-13.993,-13.1458,-35.3096,-0.133765,14.2579,-10.8304,-34.2683,-0.361914,0.142976,0.751177,-1.68988,-0.143447,0.756593,-1.68506,0.0638435,-0.743136,1.69838,-0.064454,-0.750214,1.69497,0.0640991,0.777448,-1.60429,-0.0642447,0.779122,-1.60272,0.0286384,-0.774806,1.60758,-0.0286758,-0.777401,1.60652,0.00807543,-0.0775455,0.0663044,0.177657,0,0,0,0,
-31.7301,10.9644,33.261,-0.0140254,31.8054,9.12208,31.6758,0.166012,-14.1638,-13.2455,-35.3686,-0.139799,14.3712,-10.8317,-34.3074,-0.369313,-31.6669,10.9567,33.2439,-0.0172249,31.7926,8.94935,32.0108,0.153021,-14.1258,-13.2343,-35.3395,-0.144039,14.36,-10.8205,-34.2836,-0.367672,0.142943,0.751036,-1.68951,-0.1434,0.756583,-1.68464,0.0638252,-0.742958,1.69802,-0.0644376,-0.750235,1.69456,0.0634084,0.777533,-1.60393,-0.0635524,0.77919,-1.60238,0.0283298,-0.77492,1.60719,-0.0283668,-0.777487,1.60614,0.00701271,-0.083006,0.0698995,0.184656,0,0,0,0,
-31.9779,11.0283,33.2941,-0.0112288,32.1231,8.96739,32.0612,0.140784,-14.2767,-13.3105,-35.3958,-0.149024,14.4904,-10.8308,-34.3086,-0.378893,-31.9184,11.0222,33.2746,-0.00936262,32.0799,8.94986,32.0932,0.138061,-14.2459,-13.3021,-35.3674,-0.150115,14.472,-10.8221,-34.289,-0.371222,0.142907,0.750902,-1.68915,-0.143356,0.756575,-1.68424,0.06381,-0.742795,1.69766,-0.0644181,-0.750266,1.69417,0.0627177,0.777619,-1.60357,-0.0628601,0.779258,-1.60203,0.0280212,-0.775034,1.60679,-0.0280578,-0.777573,1.60575,0.00561441,-0.0703921,0.0745121,0.189447,0,0,0,0,
-32.2268,11.0822,33.3307,-0.00351233,32.4099,8.97294,32.1335,0.12342,-14.3948,-13.3619,-35.4404,-0.168071,14.605,-10.8614,-34.3355,-0.364643,-32.1713,11.0752,33.3055,-0.00186756,32.3553,8.99965,32.0793,0.11826,-14.3652,-13.3502,-35.4154,-0.16394,14.5865,-10.8561,-34.3153,-0.363756,0.142872,0.750787,-1.68883,-0.143319,0.756563,-1.68386,0.0637984,-0.74266,1.69733,-0.0643974,-0.750295,1.6938,0.062027,0.777705,-1.60321,-0.0621679,0.779325,-1.60169,0.0277126,-0.775149,1.60639,-0.0277488,-0.77766,1.60537,0.00175616,-0.06171,0.0840353,0.182322,0,0,0,0,
-32.5097,10.8404,33.4498,0.0990121,32.6159,9.18776,31.753,0.148722,-14.5571,-13.3961,-35.463,-0.176913,14.6721,-11.2296,-34.2723,-0.260073,-32.4485,10.8557,33.4259,0.0919489,32.6016,9.01065,32.107,0.124977,-14.52,-13.3907,-35.4366,-0.173776,14.6585,-11.1775,-34.2644,-0.266773,0.142832,0.750703,-1.68847,-0.143279,0.756551,-1.68346,0.0637924,-0.742535,1.69698,-0.0643685,-0.750305,1.69346,0.0613363,0.77779,-1.60285,-0.0614756,0.779393,-1.60134,0.027404,-0.775263,1.606,-0.0274398,-0.777746,1.60498,-0.049506,-0.0743611,0.0884563,0.130037,0,0,0,0,
-32.7237,10.6752,33.5228,0.176913,32.9372,9.23289,31.8016,0.147033,-14.6343,-13.402,-35.4775,-0.194252,14.8343,-11.5846,-34.2318,-0.128792,-32.6599,10.6785,33.5053,0.17318,32.9287,9.04473,32.1773,0.11409,-14.5943,-13.3973,-35.4507,-0.190135,14.8246,-11.5611,-34.2159,-0.145008,0.142787,0.750742,-1.68818,-0.14325,0.756531,-1.68307,0.0637805,-0.742436,1.69663,-0.064345,-0.750157,1.69303,0.0606456,0.777876,-1.60249,-0.0607833,0.779461,-1.601,0.0270954,-0.775377,1.6056,-0.0271308,-0.777832,1.6046,-0.0884567,-0.0735163,0.0971259,0.0643958,0,0,0,0,
-32.9478,10.6299,33.5735,0.211585,33.2732,9.14757,32.1918,0.114989,-14.7101,-13.3974,-35.5028,-0.208282,14.9907,-11.7824,-34.2237,-0.0953155,-32.898,10.6316,33.546,0.210321,33.183,9.21566,32.0227,0.110262,-14.689,-13.3889,-35.4882,-0.207415,14.9636,-11.7726,-34.2028,-0.0913921,0.142735,0.750815,-1.68792,-0.143232,0.756497,-1.68271,0.0637605,-0.742372,1.69631,-0.0643328,-0.749941,1.69263,0.0599549,0.777962,-1.60213,-0.060091,0.779528,-1.60066,0.0267869,-0.775491,1.6052,-0.0268218,-0.777918,1.60421,-0.105792,-0.0574945,0.104141,0.0476577,0,0,0,0,
-33.2017,10.6515,33.5774,0.228496,33.4633,9.4676,31.698,0.13206,-14.8314,-13.3832,-35.5368,-0.218142,15.1036,-11.8974,-34.2274,-0.0804872,-33.1552,10.6447,33.5538,0.226707,33.405,9.51542,31.5447,0.138281,-14.8133,-13.378,-35.5185,-0.215274,15.0741,-11.8895,-34.2019,-0.0768855,0.142677,0.750899,-1.68763,-0.143216,0.756448,-1.68233,0.063736,-0.742332,1.69596,-0.0643231,-0.749718,1.6922,0.0592642,0.778048,-1.60177,-0.0593987,0.779596,-1.60031,0.0264783,-0.775605,1.60481,-0.0265128,-0.778004,1.60383,-0.114248,-0.0660298,0.109071,0.0402436,0,0,0,0,
-33.4887,10.7328,33.7765,0.174368,33.739,9.54317,31.6257,0.147527,-14.9395,-13.3789,-35.5642,-0.225294,15.232,-11.9567,-34.2457,-0.0814771,-33.454,10.6564,33.882,0.172842,33.6957,9.49298,31.6917,0.144998,-14.9233,-13.3707,-35.5427,-0.223317,15.2012,-11.947,-34.2244,-0.0793185,0.142622,0.750979,-1.68739,-0.143206,0.756406,-1.68199,0.063709,-0.742316,1.69562,-0.0643158,-0.749512,1.69179,0.0585735,0.778133,-1.6014,-0.0587065,0.779664,-1.59997,0.0261697,-0.775719,1.60441,-0.0262038,-0.778091,1.60344,-0.0871841,-0.0737636,0.112647,0.0407385,0,0,0,0,
-33.7282,11.099,33.5049,0.124016,34.0456,9.41037,32.1343,0.116925,-15.0271,-13.389,-35.5971,-0.230639,15.3763,-11.9909,-34.2782,-0.083443,-33.6815,11.0829,33.4834,0.12625,33.9368,9.60862,31.6846,0.133714,-15.0189,-13.3824,-35.5759,-0.224502,15.3381,-11.9906,-34.2539,-0.0785063,0.142566,0.750946,-1.68707,-0.14319,0.756339,-1.68162,0.063676,-0.742316,1.69527,-0.0643153,-0.74933,1.69139,0.0578827,0.778219,-1.60104,-0.0580142,0.779731,-1.59962,0.0258611,-0.775834,1.60402,-0.0258948,-0.778177,1.60306,-0.0620082,-0.0584623,0.11532,0.0417215,0,0,0,0,
-34.0309,11.2536,33.4713,0.105371,34.2238,9.68953,31.6942,0.143626,-15.163,-13.3948,-35.6488,-0.230219,15.4764,-12.0382,-34.2917,-0.0868719,-33.9796,11.2421,33.4514,0.104852,34.1712,9.67096,31.6783,0.147146,-15.1418,-13.387,-35.6279,-0.228026,15.4503,-12.031,-34.2652,-0.0925539,0.142523,0.750855,-1.68672,-0.143163,0.75627,-1.68127,0.0636462,-0.74233,1.69494,-0.0643119,-0.749171,1.69097,0.057192,0.778305,-1.60068,-0.0573219,0.779799,-1.59928,0.0255525,-0.775948,1.60362,-0.0255858,-0.778263,1.60267,-0.0526855,-0.0718132,0.11511,0.043436,0,0,0,0,
-34.2962,11.3497,33.4493,0.106131,34.5421,9.50196,32.2999,0.117168,-15.2443,-13.3984,-35.6766,-0.233436,15.6279,-12.0615,-34.3235,-0.0923291,-34.2472,11.3408,33.4255,0.103754,34.4311,9.71878,31.8198,0.127765,-15.2358,-13.3937,-35.6532,-0.234632,15.5887,-12.0611,-34.2994,-0.09208,0.142485,0.750741,-1.68634,-0.143124,0.756187,-1.68091,0.063613,-0.742357,1.69459,-0.06431,-0.749024,1.69059,0.0565013,0.77839,-1.60032,-0.0566296,0.779867,-1.59894,0.0252439,-0.776062,1.60322,-0.0252768,-0.778349,1.60229,-0.0530653,-0.0585842,0.116718,0.0461645,0,0,0,0,
-34.5803,11.4135,33.4448,0.116705,34.7414,9.79681,31.8907,0.119595,-15.3656,-13.4038,-35.7178,-0.237998,15.7427,-12.0972,-34.3535,-0.0985194,-34.5251,11.4058,33.4235,0.11583,34.6866,9.79342,31.8532,0.131809,-15.3422,-13.399,-35.6947,-0.241926,15.7172,-12.0913,-34.3318,-0.0922193,0.142456,0.750635,-1.686,-0.143081,0.756101,-1.68056,0.063581,-0.742393,1.69427,-0.0643096,-0.748908,1.69022,0.0558106,0.778476,-1.59996,-0.0559374,0.779934,-1.59859,0.0249353,-0.776176,1.60283,-0.0249678,-0.778435,1.6019,-0.0583527,-0.0597974,0.118999,0.0492597,0,0,0,0,
-34.8585,11.4649,33.4323,0.129824,34.989,9.84638,31.8997,0.141983,-15.4771,-13.4108,-35.7653,-0.242011,15.8664,-12.1276,-34.3949,-0.109688,-34.8036,11.4572,33.4124,0.127689,34.9322,9.83716,31.8685,0.143683,-15.4542,-13.4047,-35.7396,-0.240949,15.8406,-12.123,-34.3706,-0.0973265,0.142434,0.750542,-1.68563,-0.143039,0.756029,-1.68027,0.0635505,-0.742436,1.69397,-0.06431,-0.748815,1.68988,0.0551199,0.778562,-1.5996,-0.0552451,0.780002,-1.59825,0.0246267,-0.77629,1.60243,-0.0246588,-0.778522,1.60152,-0.064912,-0.0709915,0.121006,0.054844,0,0,0,0,
-35.13,11.5048,33.4383,0.141488,35.2528,9.91159,31.9807,0.12481,-15.5909,-13.4175,-35.8058,-0.251753,15.9884,-12.1578,-34.4396,-0.116344,-35.0763,11.498,33.4166,0.140639,35.1997,9.90544,31.96,0.124844,-15.5672,-13.4107,-35.7798,-0.252901,15.9646,-12.1505,-34.4176,-0.112822,0.142411,0.750457,-1.68529,-0.142995,0.755939,-1.67997,0.0635184,-0.742485,1.69367,-0.0643121,-0.748736,1.68956,0.0544292,0.778647,-1.59924,-0.0545528,0.780069,-1.5979,0.0243181,-0.776404,1.60203,-0.0243498,-0.778608,1.60113,-0.070744,-0.0624052,0.125876,0.058172,0,0,0,0,
-35.396,11.5432,33.43,0.158386,35.5025,10.0103,31.9403,0.126546,-15.7041,-13.4249,-35.8387,-0.254516,16.109,-12.1887,-34.4849,-0.117208,-35.3443,11.5371,33.4067,0.154333,35.4478,10.0106,31.9059,0.124048,-15.6807,-13.4188,-35.8166,-0.257722,16.0839,-12.1824,-34.461,-0.122282,0.142391,0.750382,-1.68494,-0.14295,0.75584,-1.67967,0.0634882,-0.742541,1.69337,-0.0643104,-0.748668,1.68923,0.0537385,0.778733,-1.59888,-0.0538605,0.780137,-1.59756,0.0240095,-0.776518,1.60164,-0.0240408,-0.778694,1.60075,-0.0791932,-0.0632732,0.127258,0.0586039,0,0,0,0,
-35.6698,11.574,33.3993,0.174326,35.7479,10.0944,31.879,0.131024,-15.83,-13.4251,-35.8539,-0.259618,16.2192,-12.2232,-34.5205,-0.12313,-35.6196,11.5695,33.3839,0.172611,35.6892,10.0969,31.8428,0.13503,-15.8093,-13.418,-35.8333,-0.263764,16.1925,-12.2181,-34.4953,-0.121939,0.142369,0.750313,-1.68454,-0.1429,0.755735,-1.67937,0.0634604,-0.742612,1.69303,-0.0643086,-0.748602,1.6889,0.0530478,0.778819,-1.59852,-0.0531682,0.780205,-1.59722,0.0237009,-0.776633,1.60124,-0.0237318,-0.77878,1.60036,-0.0871632,-0.065512,0.129809,0.0615648,0,0,0,0,
-35.9417,11.6026,33.3905,0.188213,35.9986,10.151,31.886,0.145591,-15.9542,-13.4263,-35.8884,-0.272768,16.3294,-12.2583,-34.5513,-0.135298,-35.8876,11.5947,33.3765,0.187475,35.9499,10.1284,31.9181,0.128102,-15.9316,-13.4215,-35.8677,-0.269576,16.3039,-12.251,-34.5261,-0.126943,0.142345,0.750254,-1.68419,-0.142858,0.755654,-1.67906,0.0634314,-0.742679,1.69273,-0.0643056,-0.748555,1.68856,0.0523571,0.778904,-1.59816,-0.052476,0.780272,-1.59687,0.0233923,-0.776747,1.60084,-0.0234228,-0.778866,1.59998,-0.0941064,-0.0727957,0.136384,0.067649,0,0,0,0,
-36.2063,11.6259,33.3727,0.201891,36.2621,10.1682,31.9413,0.140611,-16.0727,-13.4272,-35.9033,-0.276779,16.4445,-12.2838,-34.5859,-0.138448,-36.1484,11.6176,33.36,0.200769,36.2239,10.1273,32.0249,0.133081,-16.049,-13.4235,-35.8718,-0.281009,16.4222,-12.2739,-34.5639,-0.137476,0.14232,0.750207,-1.6838,-0.142811,0.755572,-1.67875,0.0634046,-0.742756,1.6924,-0.0643003,-0.748513,1.68824,0.0516664,0.77899,-1.5978,-0.0517837,0.78034,-1.59653,0.0230837,-0.776861,1.60045,-0.0231138,-0.778953,1.59959,-0.100946,-0.0703054,0.13839,0.0692241,0,0,0,0,
-36.4706,11.645,33.3486,0.218186,36.5179,10.1991,31.9513,0.156779,-16.1928,-13.4263,-35.9092,-0.284562,16.5583,-12.3058,-34.6164,-0.139408,-36.413,11.6393,33.3373,0.217156,36.4803,10.1585,32.0303,0.138432,-16.1682,-13.4221,-35.8843,-0.288528,16.5342,-12.2963,-34.5961,-0.145564,0.142295,0.75017,-1.68342,-0.142762,0.755499,-1.67843,0.0633804,-0.742838,1.69206,-0.0642922,-0.74848,1.68791,0.0509756,0.779076,-1.59743,-0.0510914,0.780408,-1.59618,0.0227751,-0.776975,1.60005,-0.0228048,-0.779039,1.59921,-0.109093,-0.0783897,0.142281,0.069704,0,0,0,0,
-36.7339,11.6661,33.3347,0.23388,36.775,10.2247,31.9649,0.171273,-16.3131,-13.426,-35.9219,-0.295633,16.6719,-12.3311,-34.6528,-0.155497,-36.6794,11.6573,33.321,0.230376,36.7398,10.1841,32.041,0.157166,-16.2888,-13.4228,-35.8993,-0.29171,16.6492,-12.3217,-34.634,-0.154139,0.142271,0.750145,-1.68305,-0.142717,0.75544,-1.67814,0.0633598,-0.74292,1.69174,-0.0642824,-0.748456,1.68761,0.0502849,0.779162,-1.59707,-0.0503991,0.780475,-1.59584,0.0224665,-0.777089,1.59966,-0.0224958,-0.779125,1.59882,-0.11694,-0.0856367,0.147816,0.0777483,0,0,0,0,
-36.9938,11.6811,33.3068,0.248274,37.0272,10.2662,31.9042,0.189798,-16.428,-13.4232,-35.9198,-0.300562,16.7891,-12.3513,-34.6846,-0.165611,-36.9409,11.6765,33.2862,0.245036,36.9728,10.261,31.8997,0.188721,-16.406,-13.415,-35.9048,-0.303359,16.7626,-12.347,-34.6577,-0.155641,0.142245,0.750128,-1.68265,-0.142667,0.755383,-1.67781,0.0633401,-0.743013,1.69139,-0.0642691,-0.748438,1.68729,0.0495942,0.779247,-1.59671,-0.0497068,0.780543,-1.5955,0.0221579,-0.777203,1.59926,-0.0221868,-0.779211,1.59844,-0.124137,-0.0948992,0.150281,0.0828057,0,0,0,0,
-37.2473,11.6914,33.2762,0.262032,37.2948,10.2731,31.9343,0.202087,-16.5393,-13.4179,-35.9114,-0.309661,16.9094,-12.3651,-34.7162,-0.174148,-37.1952,11.6887,33.255,0.260515,37.2358,10.2775,31.8982,0.189861,-16.5173,-13.4114,-35.8937,-0.311677,16.8826,-12.3581,-34.6967,-0.17036,0.142217,0.750121,-1.68225,-0.142617,0.755337,-1.67751,0.0633216,-0.74311,1.69104,-0.064254,-0.748428,1.68699,0.0489035,0.779333,-1.59635,-0.0490146,0.780611,-1.59515,0.0218493,-0.777318,1.59886,-0.0218778,-0.779297,1.59805,-0.131016,-0.101044,0.15483,0.0870738,0,0,0,0,
-37.5011,11.6998,33.2616,0.275582,37.6467,10.0428,32.6266,0.14826,-16.6458,-13.4178,-35.9092,-0.319641,17.0358,-12.3742,-34.743,-0.174506,-37.4471,11.6972,33.2367,0.274753,37.5637,10.0805,32.4508,0.159335,-16.6189,-13.4085,-35.891,-0.320339,17.0141,-12.3714,-34.7201,-0.1776,0.142189,0.750123,-1.68187,-0.142574,0.755306,-1.6772,0.0633047,-0.743205,1.6907,-0.0642391,-0.748426,1.68667,0.0482128,0.779419,-1.59599,-0.0483223,0.780678,-1.59481,0.0215407,-0.777432,1.59847,-0.0215688,-0.779384,1.59767,-0.137791,-0.07413,0.159821,0.0872528,0,0,0,0,
-37.7729,11.7048,33.2011,0.290816,37.8014,10.3166,31.8979,0.22057,-16.7849,-13.4031,-35.8966,-0.331505,17.1278,-12.4027,-34.7488,-0.185301,-37.7216,11.6989,33.187,0.290509,37.7431,10.3214,31.8739,0.216755,-16.7633,-13.395,-35.8797,-0.33006,17.1009,-12.3992,-34.7248,-0.194673,0.142158,0.750136,-1.68142,-0.14252,0.755269,-1.67684,0.0632893,-0.743318,1.6903,-0.0642178,-0.748428,1.68632,0.0475221,0.779504,-1.59563,-0.04763,0.780746,-1.59446,0.0212321,-0.777546,1.59807,-0.0212598,-0.77947,1.59728,-0.145408,-0.110285,0.165752,0.0926504,0,0,0,0,
-38.0387,11.7004,33.1684,0.302205,38.072,10.3088,32.0067,0.204686,-16.9143,-13.3908,-35.8866,-0.336774,17.2316,-12.4178,-34.763,-0.197519,-37.9788,11.6968,33.1552,0.30367,38.0545,10.2422,32.1682,0.192296,-16.8838,-13.3901,-35.8556,-0.341115,17.2138,-12.407,-34.747,-0.197689,0.142126,0.750157,-1.681,-0.142473,0.755254,-1.67653,0.0632746,-0.743428,1.68993,-0.0641974,-0.748438,1.686,0.0468314,0.77959,-1.59527,-0.0469377,0.780814,-1.59412,0.0209235,-0.77766,1.59767,-0.0209508,-0.779556,1.5969,-0.151103,-0.102343,0.168387,0.0987595,0,0,0,0,
-38.2816,11.7005,33.1315,0.318041,38.3792,10.1514,32.3914,0.198916,-17.0076,-13.3768,-35.8631,-0.347604,17.3667,-12.4226,-34.7861,-0.204417,-38.2342,11.6973,33.1129,0.317194,38.2702,10.3018,31.9532,0.234418,-16.9963,-13.3729,-35.8492,-0.350224,17.3305,-12.4247,-34.7633,-0.210879,0.142094,0.750188,-1.68058,-0.142422,0.755237,-1.67618,0.0632615,-0.743544,1.68954,-0.0641748,-0.748453,1.68567,0.0461407,0.779676,-1.59491,-0.0462455,0.780881,-1.59378,0.0206149,-0.777774,1.59728,-0.0206418,-0.779642,1.59651,-0.159021,-0.0994582,0.173802,0.102209,0,0,0,0,
-38.5505,11.6954,33.0864,0.330788,38.5765,10.334,31.9273,0.240939,-17.1441,-13.3637,-35.8542,-0.354002,17.4626,-12.4446,-34.7979,-0.221499,-38.4993,11.6914,33.0708,0.32857,38.5136,10.364,31.8323,0.243635,-17.1239,-13.3582,-35.8343,-0.354795,17.4345,-12.4394,-34.7755,-0.21977,0.14206,0.750229,-1.68015,-0.142372,0.755228,-1.67584,0.0632498,-0.743664,1.68915,-0.0641504,-0.748473,1.68534,0.04545,0.779761,-1.59455,-0.0455532,0.780949,-1.59343,0.0203063,-0.777888,1.59688,-0.0203328,-0.779728,1.59613,-0.165394,-0.120469,0.177001,0.110749,0,0,0,0,
-38.8194,11.6846,33.0407,0.341931,38.8134,10.4112,31.7829,0.250375,-17.2767,-13.3427,-35.8396,-0.36581,17.5616,-12.4575,-34.8072,-0.221422,-38.7674,11.6796,33.0264,0.342503,38.7613,10.4006,31.7994,0.254619,-17.2557,-13.3378,-35.8209,-0.364585,17.5342,-12.4517,-34.782,-0.225156,0.142025,0.750279,-1.67971,-0.142325,0.755232,-1.67551,0.0632387,-0.743789,1.68875,-0.0641248,-0.748499,1.685,0.0447593,0.779847,-1.59419,-0.0448609,0.781016,-1.59309,0.0199977,-0.778003,1.59648,-0.0200238,-0.779814,1.59574,-0.170965,-0.125187,0.182905,0.110711,0,0,0,0,
-39.0642,11.668,33.0053,0.355928,39.172,10.1731,32.4516,0.203843,-17.3799,-13.3315,-35.8064,-0.374789,17.6891,-12.4484,-34.825,-0.240523,-39.0047,11.6666,32.9884,0.355883,39.1172,10.1558,32.4338,0.200909,-17.3473,-13.3258,-35.7819,-0.379632,17.6723,-12.4439,-34.8019,-0.234866,0.141989,0.750338,-1.67927,-0.142278,0.755244,-1.67518,0.0632272,-0.743919,1.68834,-0.064099,-0.748531,1.68467,0.0440686,0.779933,-1.59383,-0.0441686,0.781084,-1.59274,0.0196891,-0.778117,1.59609,-0.0197148,-0.779901,1.59536,-0.177964,-0.101921,0.187395,0.120261,0,0,0,0,
-39.3245,11.655,32.9542,0.368303,39.3463,10.3634,31.8804,0.265347,-17.5039,-13.3063,-35.7912,-0.384526,17.7946,-12.4642,-34.8326,-0.243726,-39.2751,11.6519,32.9338,0.36413,39.2767,10.4155,31.7288,0.273839,-17.4862,-13.303,-35.7744,-0.387673,17.7642,-12.4618,-34.8098,-0.244604,0.141952,0.750406,-1.67883,-0.142225,0.755244,-1.6748,0.063218,-0.744053,1.68793,-0.0640705,-0.748567,1.68433,0.0433778,0.780018,-1.59346,-0.0434763,0.781152,-1.5924,0.0193805,-0.778231,1.59569,-0.0194058,-0.779987,1.59498,-0.184151,-0.132673,0.192263,0.121863,0,0,0,0,
-39.5906,11.6345,32.9061,0.377129,39.5846,10.4357,31.7194,0.287804,-17.6342,-13.2836,-35.7742,-0.398514,17.8955,-12.472,-34.8382,-0.259151,-39.539,11.6301,32.8927,0.377207,39.5311,10.4276,31.725,0.280861,-17.6137,-13.2775,-35.7567,-0.392324,17.8678,-12.4691,-34.8128,-0.251038,0.141913,0.750483,-1.67838,-0.142177,0.755263,-1.67446,0.0632083,-0.744192,1.68751,-0.0640421,-0.748609,1.68398,0.0426871,0.780104,-1.5931,-0.0427841,0.781219,-1.59206,0.0190719,-0.778345,1.5953,-0.0190968,-0.780073,1.59459,-0.188565,-0.143902,0.199257,0.129575,0,0,0,0,
-39.8534,11.6135,32.8775,0.387435,39.8545,10.4139,31.8084,0.274105,-17.759,-13.2634,-35.7626,-0.40381,18.0003,-12.4733,-34.8519,-0.257215,-39.7969,11.6069,32.8651,0.385298,39.8371,10.348,31.9754,0.257615,-17.7372,-13.2631,-35.7345,-0.404326,17.9813,-12.4665,-34.8355,-0.25497,0.141876,0.750562,-1.67796,-0.142133,0.75529,-1.67413,0.0631986,-0.744326,1.68712,-0.0640153,-0.748657,1.68366,0.0419964,0.78019,-1.59274,-0.0420918,0.781287,-1.59171,0.0187633,-0.778459,1.5949,-0.0187878,-0.780159,1.59421,-0.193717,-0.137053,0.201905,0.128608,0,0,0,0,
-40.1075,11.5851,32.8332,0.396397,40.1465,10.3542,31.964,0.272802,-17.8786,-13.2413,-35.7264,-0.409601,18.1145,-12.4718,-34.8583,-0.268984,-40.042,11.5843,32.8178,0.399127,40.1434,10.1923,32.3531,0.235124,-17.837,-13.2381,-35.7008,-0.415959,18.1064,-12.4584,-34.8399,-0.273466,0.141835,0.750656,-1.6775,-0.142084,0.755322,-1.67378,0.0631891,-0.744474,1.68669,-0.0639859,-0.748706,1.68331,0.0413057,0.780275,-1.59238,-0.0413995,0.781355,-1.59137,0.0184547,-0.778573,1.5945,-0.0184788,-0.780245,1.59382,-0.198198,-0.136401,0.204801,0.134492,0,0,0,0,
-40.3652,11.5605,32.793,0.408863,40.3998,10.3667,31.9229,0.270927,-17.9988,-13.2184,-35.7128,-0.423777,18.225,-12.4723,-34.8721,-0.271585,-40.3033,11.5604,32.7784,0.406021,40.3955,10.2131,32.2891,0.239255,-17.959,-13.2133,-35.6851,-0.421261,18.2162,-12.4613,-34.8533,-0.28272,0.141797,0.75075,-1.67707,-0.142038,0.755353,-1.67343,0.0631808,-0.744616,1.68629,-0.0639573,-0.748759,1.68298,0.040615,0.780361,-1.59202,-0.0407072,0.781422,-1.59102,0.0181461,-0.778687,1.59411,-0.0181698,-0.780332,1.59344,-0.204432,-0.135463,0.211889,0.135793,0,0,0,0,
-40.6273,11.53,32.7401,0.418579,40.6437,10.3902,31.8372,0.286096,-18.1229,-13.1877,-35.6892,-0.43387,18.3303,-12.4735,-34.8695,-0.28188,-40.564,11.5274,32.7287,0.417414,40.637,10.2422,32.1986,0.25922,-18.0861,-13.1848,-35.6602,-0.429771,18.3198,-12.4634,-34.8494,-0.284256,0.141755,0.75086,-1.67661,-0.141989,0.755393,-1.67307,0.0631717,-0.744773,1.68585,-0.0639262,-0.74882,1.68262,0.0399243,0.780447,-1.59166,-0.040015,0.78149,-1.59068,0.0178375,-0.778802,1.59371,-0.0178608,-0.780418,1.59305,-0.209289,-0.143048,0.216935,0.14094,0,0,0,0,
-40.8755,11.4977,32.6943,0.427227,40.9452,10.2441,32.1807,0.264327,-18.23,-13.1576,-35.6526,-0.444106,18.4527,-12.4645,-34.872,-0.295998,-40.818,11.4954,32.6778,0.424253,40.9044,10.2151,32.2193,0.261065,-18.1994,-13.154,-35.627,-0.43863,18.4353,-12.4587,-34.855,-0.289701,0.141712,0.750977,-1.67614,-0.141938,0.755438,-1.67269,0.0631627,-0.744935,1.68541,-0.0638946,-0.748885,1.68226,0.0392336,0.780533,-1.5913,-0.0393227,0.781558,-1.59034,0.0175289,-0.778916,1.59331,-0.0175518,-0.780504,1.59267,-0.213614,-0.132163,0.222053,0.147999,0,0,0,0,
-41.1261,11.4617,32.6431,0.436828,41.2157,10.2112,32.2053,0.265149,-18.3408,-13.126,-35.618,-0.451825,18.5709,-12.455,-34.8711,-0.307534,-41.0682,11.4602,32.6209,0.436475,41.1601,10.195,32.1972,0.271943,-18.3096,-13.1192,-35.5984,-0.452519,18.5525,-12.451,-34.8513,-0.307628,0.141669,0.751102,-1.67567,-0.141887,0.755485,-1.67231,0.0631535,-0.745101,1.68496,-0.0638628,-0.748955,1.6819,0.0385429,0.780618,-1.59094,-0.0386304,0.781625,-1.58999,0.0172203,-0.77903,1.59292,-0.0172428,-0.78059,1.59228,-0.218414,-0.132575,0.225913,0.153767,0,0,0,0,
-41.3867,11.4222,32.5869,0.441841,41.455,10.2474,32.0797,0.272589,-18.4658,-13.0897,-35.5877,-0.461785,18.6756,-12.4517,-34.8674,-0.312529,-41.3287,11.4213,32.5706,0.444517,41.4088,10.2268,32.0969,0.282866,-18.4364,-13.0864,-35.5696,-0.461425,18.6566,-12.4459,-34.8499,-0.319268,0.141624,0.751235,-1.6752,-0.141838,0.755539,-1.67193,0.0631441,-0.745272,1.68451,-0.0638309,-0.749029,1.68153,0.0378522,0.780704,-1.59058,-0.0379381,0.781693,-1.58965,0.0169117,-0.779144,1.59252,-0.0169338,-0.780676,1.5919,-0.22092,-0.136295,0.230893,0.156264,0,0,0,0,
-41.6516,11.3803,32.5273,0.450423,41.6637,10.3855,31.6703,0.316732,-18.5978,-13.0526,-35.5607,-0.468276,18.7739,-12.4507,-34.8597,-0.327134,-41.5889,11.3785,32.5162,0.45265,41.6553,10.2373,32.0282,0.28884,-18.5607,-13.0504,-35.5369,-0.466733,18.7618,-12.4403,-34.8444,-0.325251,0.141579,0.751375,-1.67472,-0.141787,0.755596,-1.67154,0.0631345,-0.745447,1.68406,-0.0637988,-0.749107,1.68116,0.0371615,0.78079,-1.59022,-0.0372458,0.781761,-1.58931,0.0166031,-0.779258,1.59212,-0.0166248,-0.780763,1.59151,-0.225211,-0.158366,0.234138,0.163567,0,0,0,0,
-41.9034,11.3393,32.476,0.45856,41.9533,10.2614,31.9387,0.298498,-18.7078,-13.0135,-35.5287,-0.474521,18.8924,-12.4344,-34.8567,-0.337465,-41.8451,11.3367,32.4607,0.460752,41.9104,10.2302,31.9856,0.290697,-18.6793,-13.0118,-35.5063,-0.472102,18.8725,-12.4293,-34.8403,-0.326347,0.141533,0.751522,-1.67424,-0.141738,0.755661,-1.67115,0.0631243,-0.745627,1.6836,-0.0637668,-0.74919,1.68078,0.0364707,0.780875,-1.58986,-0.0365536,0.781828,-1.58896,0.0162945,-0.779372,1.59173,-0.0163158,-0.780849,1.59113,-0.22928,-0.149249,0.23726,0.168733,0,0,0,0,
-42.1563,11.298,32.4373,0.465018,42.2148,10.2463,31.9212,0.310144,-18.8233,-12.9797,-35.5036,-0.487828,19.007,-12.4257,-34.8641,-0.336334,-42.1019,11.2983,32.4178,0.464136,42.1676,10.2292,31.9367,0.295762,-18.7957,-12.9758,-35.4857,-0.484462,18.9866,-12.4207,-34.8442,-0.33272,0.141489,0.751666,-1.67379,-0.14169,0.755723,-1.67078,0.0631149,-0.745799,1.68317,-0.0637365,-0.749272,1.68043,0.03578,0.780961,-1.58949,-0.0358613,0.781896,-1.58862,0.0159859,-0.779487,1.59133,-0.0160068,-0.780935,1.59074,-0.232509,-0.155072,0.243914,0.168167,0,0,0,0,
-42.4185,11.2483,32.3834,0.474213,42.4657,10.2379,31.8942,0.310318,-18.9458,-12.9389,-35.4657,-0.49484,19.1068,-12.4594,-34.7546,-0.355497,-42.3657,11.2488,32.3701,0.474118,42.4181,10.2165,31.9224,0.307803,-18.9198,-12.9361,-35.4451,-0.490843,19.0862,-12.4566,-34.732,-0.354738,0.141443,0.751826,-1.67331,-0.141639,0.755793,-1.67038,0.0631052,-0.745988,1.68271,-0.0637047,-0.749365,1.68006,0.0350893,0.781047,-1.58913,-0.035169,0.781964,-1.58827,0.0156773,-0.779601,1.59094,-0.0156978,-0.781021,1.59036,-0.237107,-0.155159,0.24742,0.177749,0,0,0,0,
-42.6692,11.2016,32.3206,0.479982,42.7207,10.2372,31.8265,0.312692,-19.0567,-12.8943,-35.4327,-0.500221,19.2243,-12.4389,-34.7628,-0.355782,-42.6172,11.2024,32.3054,0.480792,42.6572,10.241,31.7836,0.316745,-19.0327,-12.8898,-35.4177,-0.503045,19.1989,-12.4432,-34.7281,-0.362336,0.141396,0.751993,-1.67282,-0.141587,0.755865,-1.66998,0.0630946,-0.746181,1.68225,-0.0636718,-0.749454,1.67967,0.0343986,0.781132,-1.58877,-0.0344767,0.782031,-1.58793,0.0153687,-0.779715,1.59054,-0.0153888,-0.781107,1.58997,-0.239991,-0.156346,0.25011,0.177891,0,0,0,0,
-42.9338,11.1499,32.2661,0.484479,42.9587,10.2639,31.7072,0.317506,-19.1813,-12.8477,-35.4006,-0.510282,19.3334,-12.4356,-34.7708,-0.364954,-42.8762,11.1507,32.247,0.486535,42.9079,10.2576,31.6953,0.32813,-19.1546,-12.8431,-35.3839,-0.504739,19.3276,-12.3932,-34.8647,-0.35486,0.141348,0.752167,-1.67234,-0.141537,0.75594,-1.66957,0.0630832,-0.746379,1.68178,-0.0636408,-0.749552,1.67929,0.0337079,0.781218,-1.58841,-0.0337845,0.782099,-1.58759,0.0150601,-0.779829,1.59014,-0.0150798,-0.781194,1.58959,-0.24224,-0.158753,0.255141,0.182477,0,0,0,0,
-43.1754,11.0961,32.2058,0.490389,43.2285,10.2399,31.6794,0.337856,-19.2901,-12.7989,-35.3688,-0.520318,19.4779,-12.2863,-35.1253,-0.337014,-43.1196,11.0958,32.1928,0.490219,43.1733,10.2375,31.6615,0.328029,-19.2656,-12.7975,-35.3463,-0.513553,19.4399,-12.3094,-35.0099,-0.349501,0.1413,0.752346,-1.67185,-0.141486,0.756019,-1.66917,0.063071,-0.746581,1.68131,-0.0636093,-0.749649,1.6789,0.0330172,0.781304,-1.58805,-0.0330922,0.782166,-1.58724,0.0147515,-0.779943,1.58975,-0.0147708,-0.78128,1.5892,-0.245194,-0.168928,0.260159,0.168507,0,0,0,0,
-43.4397,11.0382,32.1523,0.496593,43.4767,10.2293,31.6457,0.333556,-19.4114,-12.753,-35.3291,-0.527024,19.5521,-12.422,-34.6844,-0.38228,-43.388,11.0369,32.1378,0.498466,43.4186,10.2284,31.6297,0.334989,-19.3899,-12.7509,-35.3075,-0.527999,19.5239,-12.4399,-34.6153,-0.380631,0.141251,0.752532,-1.67135,-0.141434,0.756101,-1.66876,0.0630588,-0.746788,1.68083,-0.0635774,-0.749743,1.67849,0.0323265,0.781389,-1.58769,-0.0323999,0.782234,-1.5869,0.0144429,-0.780057,1.58935,-0.0144618,-0.781366,1.58882,-0.248296,-0.166778,0.263512,0.19114,0,0,0,0,
-43.7006,10.9882,32.112,0.501958,43.7299,10.2113,31.6257,0.337859,-19.5314,-12.7097,-35.3059,-0.529622,19.6598,-12.4381,-34.6278,-0.39154,-43.6479,10.9894,32.0939,0.502916,43.6737,10.2099,31.606,0.334302,-19.5076,-12.705,-35.2848,-0.530836,19.6402,-12.4272,-34.6464,-0.381066,0.141205,0.752711,-1.67089,-0.141386,0.756182,-1.66837,0.0630462,-0.746984,1.68039,-0.0635494,-0.74984,1.67813,0.0316358,0.781475,-1.58733,-0.0317076,0.782302,-1.58655,0.0141343,-0.780171,1.58895,-0.0141528,-0.781452,1.58843,-0.250979,-0.168929,0.264811,0.19577,0,0,0,0,
-43.9578,10.9367,32.069,0.507743,43.9862,10.1943,31.6008,0.342637,-19.6484,-12.6637,-35.2805,-0.537947,19.7712,-12.432,-34.6094,-0.402223,-43.9079,10.9362,32.0505,0.508053,43.9326,10.1923,31.5853,0.35028,-19.6256,-12.6605,-35.2634,-0.539353,19.7518,-12.4211,-34.6249,-0.399672,0.141159,0.752894,-1.67043,-0.141338,0.756268,-1.66798,0.0630333,-0.747185,1.67995,-0.063521,-0.749936,1.67775,0.0309451,0.781561,-1.58697,-0.0310153,0.782369,-1.58621,0.0138257,-0.780286,1.58856,-0.0138438,-0.781538,1.58805,-0.253872,-0.171318,0.268973,0.201112,0,0,0,0,
-44.2172,10.8771,32.007,0.512175,44.2416,10.1725,31.5664,0.34229,-19.7656,-12.6088,-35.2433,-0.55108,19.8844,-12.4262,-34.5871,-0.406982,-44.1613,10.8781,31.9894,0.511324,44.1885,10.167,31.5526,0.345326,-19.7396,-12.6044,-35.2303,-0.544352,19.8766,-12.3908,-34.672,-0.399717,0.14111,0.753095,-1.66993,-0.141287,0.756364,-1.66757,0.0630188,-0.747404,1.67947,-0.0634916,-0.750044,1.67736,0.0302544,0.781647,-1.58661,-0.0303231,0.782437,-1.58587,0.0135172,-0.7804,1.58816,-0.0135348,-0.781625,1.58766,-0.256087,-0.171145,0.27554,0.203491,0,0,0,0,
-44.4694,10.8162,31.9484,0.516088,44.4992,10.1433,31.5351,0.351737,-19.8793,-12.5541,-35.2059,-0.559389,19.9959,-12.3872,-34.6105,-0.405287,-44.4191,10.8168,31.9316,0.514408,44.4407,10.1432,31.5161,0.349506,-19.8575,-12.5523,-35.1889,-0.552559,19.9714,-12.4139,-34.5351,-0.407121,0.141061,0.753301,-1.66944,-0.141235,0.756465,-1.66715,0.0630039,-0.747627,1.67899,-0.0634614,-0.75015,1.67695,0.0295637,0.781732,-1.58625,-0.0296308,0.782505,-1.58552,0.0132086,-0.780514,1.58776,-0.0132258,-0.781711,1.58728,-0.258044,-0.175869,0.279695,0.202643,0,0,0,0,
-44.7321,10.7606,31.8991,0.521977,44.7508,10.1241,31.5078,0.360453,-19.9981,-12.504,-35.1845,-0.559606,20.1192,-12.3898,-34.6085,-0.405745,-44.6731,10.7616,31.8826,0.519895,44.7049,10.1201,31.4935,0.355091,-19.9708,-12.5003,-35.1643,-0.561218,20.1124,-12.2933,-34.8415,-0.391138,0.141014,0.753497,-1.66897,-0.141186,0.756562,-1.66676,0.0629893,-0.747839,1.67854,-0.0634351,-0.750256,1.67658,0.0288729,0.781818,-1.58589,-0.0289385,0.782572,-1.58518,0.0129,-0.780628,1.58737,-0.0129168,-0.781797,1.58689,-0.260988,-0.180227,0.279803,0.202873,0,0,0,0,
-44.9891,10.6975,31.8361,0.526041,45.0059,10.0989,31.4695,0.353503,-20.1132,-12.4478,-35.1406,-0.573169,20.2298,-12.383,-34.553,-0.422139,-44.9288,10.6963,31.8208,0.523425,44.9559,10.0944,31.4543,0.358866,-20.0863,-12.4446,-35.126,-0.567319,20.2202,-12.2931,-34.7732,-0.398131,0.140965,0.753712,-1.66847,-0.141133,0.75667,-1.66634,0.0629734,-0.74807,1.67806,-0.0634061,-0.750369,1.67616,0.0281822,0.781904,-1.58553,-0.0282462,0.78264,-1.58483,0.0125914,-0.780742,1.58697,-0.0126078,-0.781883,1.58651,-0.26302,-0.176752,0.286584,0.211069,0,0,0,0,
-45.2396,10.6335,31.7878,0.529981,45.2662,10.0684,31.4447,0.359614,-20.2247,-12.395,-35.1167,-0.577771,20.3566,-12.2932,-34.7472,-0.406078,-45.1877,10.6334,31.7689,0.527321,45.2113,10.0696,31.4268,0.359828,-20.2013,-12.3926,-35.0961,-0.57943,20.3325,-12.2899,-34.7251,-0.410252,0.140919,0.753932,-1.668,-0.141079,0.756775,-1.66594,0.0629578,-0.74829,1.6776,-0.0633797,-0.750477,1.67576,0.0274915,0.781989,-1.58516,-0.027554,0.782708,-1.58449,0.0122828,-0.780856,1.58658,-0.0122988,-0.781969,1.58612,-0.26499,-0.179807,0.288886,0.203039,0,0,0,0,
-45.4957,10.5745,31.7234,0.531435,45.5224,10.0369,31.4122,0.364262,-20.3382,-12.3325,-35.0753,-0.584246,20.4718,-12.2736,-34.7386,-0.418053,-45.4434,10.5743,31.7095,0.533036,45.47,10.0349,31.392,0.375313,-20.3146,-12.3321,-35.0579,-0.586626,20.4481,-12.2708,-34.7209,-0.416916,0.14087,0.75414,-1.66749,-0.141029,0.756891,-1.66551,0.0629403,-0.748529,1.67712,-0.063352,-0.750593,1.67537,0.0268008,0.782075,-1.5848,-0.0268617,0.782775,-1.58415,0.0119742,-0.780971,1.58618,-0.0119898,-0.782056,1.58574,-0.265717,-0.182131,0.292123,0.209026,0,0,0,0,
-45.7527,10.509,31.6483,0.536321,45.7762,10.0017,31.378,0.377287,-20.4524,-12.2616,-35.0401,-0.590297,20.5859,-12.25,-34.7239,-0.426053,-45.7004,10.5096,31.6346,0.53438,45.7243,10.0028,31.3558,0.368246,-20.4288,-12.2615,-35.0204,-0.593232,20.5621,-12.2466,-34.7007,-0.41829,0.140821,0.754366,-1.66695,-0.140975,0.757013,-1.66509,0.0629219,-0.748789,1.67663,-0.0633249,-0.750712,1.67495,0.0261101,0.782161,-1.58444,-0.0261694,0.782843,-1.5838,0.0116656,-0.781085,1.58578,-0.0116808,-0.782142,1.58535,-0.26816,-0.188644,0.295148,0.213026,0,0,0,0,
-46.01,10.4397,31.5991,0.54093,46.0299,9.96552,31.3396,0.381363,-20.5669,-12.2056,-35.0002,-0.600465,20.7,-12.2233,-34.7035,-0.428754,-45.9576,10.441,31.5834,0.539362,45.9772,9.96469,31.3244,0.383146,-20.5432,-12.2034,-34.9827,-0.596613,20.6763,-12.2196,-34.684,-0.429578,0.140772,0.754597,-1.66647,-0.14092,0.757139,-1.66466,0.0629029,-0.74902,1.67614,-0.0632983,-0.750835,1.67453,0.0254194,0.782246,-1.58408,-0.0254771,0.782911,-1.58346,0.011357,-0.781199,1.58539,-0.0113718,-0.782228,1.58497,-0.270465,-0.190681,0.300232,0.214377,0,0,0,0,
-46.2687,10.3781,31.534,0.540886,46.285,9.93344,31.3149,0.377755,-20.682,-12.1484,-34.9742,-0.604277,20.8146,-12.1954,-34.6942,-0.430685,-46.2164,10.3782,31.5184,0.543729,46.233,9.93213,31.2982,0.390406,-20.6583,-12.1447,-34.9546,-0.60151,20.7909,-12.1955,-34.6792,-0.425379,0.140726,0.754815,-1.66596,-0.140868,0.757261,-1.66426,0.0628847,-0.749255,1.67568,-0.0632738,-0.750962,1.67414,0.0247287,0.782332,-1.58372,-0.0247848,0.782978,-1.58311,0.0110484,-0.781313,1.58499,-0.0110628,-0.782314,1.58458,-0.270443,-0.188877,0.302139,0.215342,0,0,0,0,
-46.5219,10.3234,31.4873,0.547038,46.5453,9.90102,31.2737,0.388344,-20.7993,-12.2808,-34.9081,-0.541099,20.9279,-12.17,-34.6873,-0.439224,-46.467,10.3233,31.4714,0.543551,46.4911,9.9019,31.2609,0.381099,-20.7741,-12.2696,-34.8879,-0.547801,20.9052,-12.1661,-34.6719,-0.442732,0.140678,0.755036,-1.66549,-0.140813,0.757386,-1.66383,0.0628677,-0.74947,1.67519,-0.0632473,-0.751085,1.67374,0.024038,0.782418,-1.58336,-0.0240926,0.783046,-1.58277,0.0107398,-0.781427,1.58459,-0.0107538,-0.7824,1.5842,-0.273519,-0.194172,0.270549,0.219612,0,0,0,0,
-46.7805,10.2645,31.4516,0.545788,46.8013,9.86868,31.2456,0.396231,-20.9274,-12.3293,-34.8551,-0.513997,21.0282,-12.1388,-34.6679,-0.450851,-46.7258,10.2633,31.4358,0.547734,46.7467,9.86682,31.2293,0.399504,-20.9024,-12.3214,-34.843,-0.516005,21.0048,-12.1371,-34.6494,-0.448562,0.140631,0.755272,-1.66501,-0.140763,0.757523,-1.66343,0.0628517,-0.749631,1.67472,-0.0632206,-0.751212,1.67332,0.0233473,0.782503,-1.583,-0.0234003,0.783113,-1.58243,0.0104312,-0.781541,1.5842,-0.0104448,-0.782486,1.58381,-0.272894,-0.198115,0.256999,0.225425,0,0,0,0,
-47.0325,10.2045,31.4035,0.549285,47.0624,9.8367,31.2041,0.400585,-21.0549,-12.3338,-34.7925,-0.509146,21.128,-12.0966,-34.6451,-0.447864,-46.9781,10.2048,31.3861,0.551911,47.0075,9.8342,31.1904,0.398959,-21.0297,-12.3273,-34.7748,-0.505709,21.105,-12.0968,-34.6247,-0.454269,0.14058,0.755508,-1.6645,-0.14071,0.757661,-1.66299,0.0628383,-0.749789,1.67421,-0.0631878,-0.751355,1.67289,0.0226566,0.782589,-1.58264,-0.022708,0.783181,-1.58208,0.0101226,-0.781655,1.5838,-0.0101358,-0.782573,1.58343,-0.274642,-0.200292,0.254573,0.223932,0,0,0,0,
-47.2821,10.1456,31.3594,0.552667,47.3253,9.80277,31.1601,0.407485,-21.1818,-12.305,-34.7433,-0.510031,21.2294,-12.0509,-34.6354,-0.462215,-47.2279,10.1438,31.345,0.551755,47.2703,9.79913,31.1477,0.400307,-21.1566,-12.3022,-34.7272,-0.507321,21.2061,-12.0487,-34.6159,-0.462667,0.140528,0.755743,-1.664,-0.14066,0.757801,-1.66256,0.0628282,-0.749946,1.67369,-0.0631514,-0.751505,1.67246,0.0219658,0.782675,-1.58228,-0.0220157,0.783249,-1.58174,0.00981398,-0.78177,1.5834,-0.00982679,-0.782659,1.58304,-0.276334,-0.203743,0.255016,0.231107,0,0,0,0,
-47.5317,10.0827,31.3164,0.556845,47.5894,9.76841,31.1149,0.405688,-21.3091,-12.2634,-34.7035,-0.510272,21.3311,-12.0046,-34.6218,-0.461181,-47.4776,10.0828,31.3013,0.559589,47.5337,9.76461,31.0999,0.408397,-21.2843,-12.2612,-34.6843,-0.512194,21.3073,-12.0021,-34.5996,-0.456624,0.140474,0.755979,-1.66351,-0.140611,0.757944,-1.66212,0.0628208,-0.750109,1.67318,-0.0631124,-0.751663,1.67204,0.0212751,0.782761,-1.58192,-0.0213235,0.783316,-1.58139,0.00950538,-0.781884,1.58301,-0.00951779,-0.782745,1.58266,-0.278422,-0.202844,0.255136,0.230591,0,0,0,0,
-47.7814,10.0255,31.2841,0.563697,47.8534,9.73709,31.084,0.421536,-21.4343,-12.2217,-34.6735,-0.514097,21.4354,-11.9573,-34.6184,-0.473969,-47.73,10.0258,31.2654,0.562436,47.7999,9.73495,31.0649,0.419364,-21.4101,-12.22,-34.6542,-0.511723,21.4124,-11.9553,-34.5983,-0.464063,0.140421,0.7562,-1.66305,-0.140568,0.758078,-1.6617,0.0628156,-0.750269,1.6727,-0.0630742,-0.751817,1.67164,0.0205844,0.782846,-1.58156,-0.0206312,0.783384,-1.58105,0.00919678,-0.781998,1.58261,-0.00920879,-0.782831,1.58227,-0.281848,-0.210768,0.257049,0.236985,0,0,0,0,
-48.0303,9.96065,31.2364,0.564995,48.1187,9.70034,31.034,0.427698,-21.5587,-12.1669,-34.6349,-0.517256,21.5395,-11.9077,-34.6024,-0.473864,-47.9762,9.96202,31.2215,0.566863,48.0626,9.69906,31.0229,0.419295,-21.5337,-12.1642,-34.6148,-0.516965,21.516,-11.9051,-34.5864,-0.474951,0.140363,0.756438,-1.66255,-0.140524,0.758224,-1.66126,0.0628112,-0.750451,1.67219,-0.0630322,-0.751988,1.67122,0.0198937,0.782932,-1.58119,-0.0199389,0.783452,-1.58071,0.00888819,-0.782112,1.58222,-0.00889979,-0.782917,1.58189,-0.282497,-0.213849,0.258628,0.236932,0,0,0,0,
-48.2696,9.89632,31.2007,0.570601,48.3914,9.67208,30.9901,0.42024,-21.6757,-12.1104,-34.5874,-0.527243,21.6512,-11.8544,-34.5886,-0.471331,-48.2145,9.89556,31.1818,0.571825,48.3371,9.66832,30.9773,0.426157,-21.65,-12.1084,-34.5716,-0.521478,21.6284,-11.8532,-34.5716,-0.468915,0.1403,0.756677,-1.66207,-0.140482,0.758359,-1.66079,0.0628053,-0.750643,1.67168,-0.0629917,-0.752166,1.6708,0.019203,0.783018,-1.58083,-0.0192466,0.783519,-1.58036,0.00857959,-0.782226,1.58182,-0.00859079,-0.783004,1.5815,-0.2853,-0.21012,0.263621,0.235665,0,0,0,0,
-48.5181,9.8297,31.1589,0.576265,48.6553,9.65468,30.9309,0.419429,-21.8063,-12.0484,-34.5512,-0.527907,21.749,-11.8045,-34.5749,-0.480146,-48.4645,9.82843,31.1422,0.573404,48.6001,9.65319,30.9163,0.425208,-21.7814,-12.0467,-34.5329,-0.532103,21.7252,-11.8051,-34.5546,-0.473467,0.140237,0.756918,-1.66158,-0.140443,0.758503,-1.66034,0.062802,-0.750845,1.67118,-0.0629486,-0.752348,1.67037,0.0185123,0.783103,-1.58047,-0.0185543,0.783587,-1.58002,0.00827099,-0.78234,1.58142,-0.00828179,-0.78309,1.58112,-0.288132,-0.209715,0.263954,0.240073,0,0,0,0,
-48.7645,9.76888,31.1288,0.577462,48.9225,9.62907,30.8886,0.419041,-21.9317,-11.9951,-34.5249,-0.532638,21.853,-11.76,-34.5707,-0.476139,-48.7125,9.76748,31.107,0.578286,48.8695,9.62926,30.8752,0.421722,-21.9073,-11.9924,-34.5063,-0.532447,21.8302,-11.7585,-34.5508,-0.481181,0.140176,0.757145,-1.66113,-0.140409,0.758635,-1.65992,0.0628005,-0.751041,1.67071,-0.0629068,-0.752522,1.66998,0.0178216,0.783189,-1.58011,-0.0178621,0.783655,-1.57967,0.00796239,-0.782455,1.58103,-0.00797279,-0.783176,1.58073,-0.288731,-0.20952,0.266319,0.238069,0,0,0,0,
-49.0097,9.69797,31.0793,0.583654,49.1901,9.59395,30.8345,0.434318,-22.0561,-11.9347,-34.4902,-0.541005,21.9573,-11.7052,-34.5533,-0.48467,-48.9558,9.69963,31.0647,0.584039,49.1343,9.59167,30.8223,0.431651,-22.0312,-11.9324,-34.4717,-0.53637,21.9336,-11.7045,-34.5346,-0.485076,0.140109,0.75739,-1.66065,-0.140374,0.758778,-1.65946,0.0627995,-0.751259,1.6702,-0.0628614,-0.752713,1.66955,0.0171309,0.783275,-1.57975,-0.0171698,0.783722,-1.57933,0.0076538,-0.782569,1.58063,-0.00766379,-0.783262,1.58035,-0.291827,-0.217159,0.270502,0.242335,0,0,0,0,
-49.2556,9.62952,31.0329,0.589478,49.4565,9.55976,30.7761,0.440726,-22.1795,-11.8733,-34.4518,-0.546118,22.0627,-11.6516,-34.5328,-0.48658,-49.2018,9.62961,31.0183,0.585426,49.4011,9.55759,30.7649,0.432497,-22.1549,-11.8714,-34.4342,-0.544912,22.0388,-11.6502,-34.5169,-0.49785,0.14004,0.757636,-1.66017,-0.14034,0.758922,-1.659,0.0627988,-0.751484,1.6697,-0.0628158,-0.752908,1.66913,0.0164402,0.78336,-1.57939,-0.0164775,0.78379,-1.57899,0.0073452,-0.782683,1.58023,-0.00735479,-0.783348,1.57996,-0.294739,-0.220363,0.273059,0.24329,0,0,0,0,
-49.5024,9.56438,30.9961,0.592197,49.7237,9.52289,30.7326,0.445798,-22.3011,-11.8171,-34.4273,-0.54879,22.1704,-11.6046,-34.5268,-0.493566,-49.4483,9.56696,30.9827,0.591811,49.6686,9.52114,30.7196,0.446881,-22.2763,-11.8162,-34.4069,-0.543292,22.147,-11.6019,-34.5054,-0.501362,0.139975,0.757868,-1.65972,-0.14031,0.759059,-1.65857,0.0627979,-0.751699,1.66923,-0.0627734,-0.753093,1.66873,0.0157495,0.783446,-1.57903,-0.0157852,0.783858,-1.57864,0.0070366,-0.782797,1.57984,-0.00704579,-0.783435,1.57958,-0.296099,-0.222899,0.274395,0.246783,0,0,0,0,
-49.7518,9.50129,30.9602,0.596527,49.991,9.4976,30.6891,0.452178,-22.4235,-11.7623,-34.3987,-0.547682,22.2779,-11.5537,-34.5144,-0.505727,-49.7002,9.50146,30.9444,0.596083,49.9344,9.48963,30.6763,0.449701,-22.3995,-11.7601,-34.3806,-0.553648,22.2546,-11.5538,-34.4938,-0.49396,0.139909,0.758102,-1.65928,-0.14028,0.759198,-1.65814,0.0627967,-0.751919,1.66877,-0.0627313,-0.753281,1.66833,0.0150588,0.783532,-1.57867,-0.0150929,0.783925,-1.5783,0.006728,-0.782911,1.57944,-0.00673679,-0.783521,1.57919,-0.298263,-0.226089,0.273841,0.252864,0,0,0,0,
-50.0145,9.49009,30.9182,0.577406,50.2405,9.47759,30.656,0.4402,-22.548,-11.7073,-34.3772,-0.551518,22.3827,-11.5005,-34.4935,-0.502859,-49.9631,9.48755,30.9013,0.579203,50.1849,9.47738,30.6358,0.438854,-22.5251,-11.7036,-34.3599,-0.554015,22.3583,-11.4994,-34.4749,-0.5021,0.139845,0.758317,-1.6588,-0.140244,0.759334,-1.6577,0.0627971,-0.752144,1.6683,-0.0626877,-0.753473,1.66793,0.014368,0.783617,-1.57831,-0.0144007,0.783993,-1.57795,0.00641941,-0.783025,1.57904,-0.00642779,-0.783607,1.57881,-0.288703,-0.2201,0.275759,0.25143,0,0,0,0,
-50.2687,9.46466,30.8471,0.56632,50.4989,9.4472,30.5996,0.447319,-22.6577,-11.6521,-34.3402,-0.556162,22.5014,-11.4422,-34.4686,-0.514961,-50.2134,9.46255,30.8329,0.566684,50.4447,9.44509,30.588,0.443248,-22.6337,-11.6503,-34.3192,-0.562069,22.4772,-11.4425,-34.4519,-0.510203,0.139779,0.758545,-1.65831,-0.14021,0.759478,-1.65723,0.0627932,-0.752387,1.66781,-0.062645,-0.753682,1.6675,0.0136773,0.783703,-1.57795,-0.0137084,0.78406,-1.57761,0.00611081,-0.783139,1.57865,-0.00611879,-0.783693,1.57842,-0.28316,-0.223659,0.278081,0.25748,0,0,0,0,
