FengTian-Bit/rl_sar_bitter/src/rl_sar/models/bitter/csv_data/csv_standup.csv
joint_tau_cal_0,joint_tau_cal_1,joint_tau_cal_2,joint_tau_cal_3,joint_tau_cal_4,joint_tau_cal_5,joint_tau_cal_6,joint_tau_cal_7,joint_tau_cal_8,joint_tau_cal_9,joint_tau_cal_10,joint_tau_cal_11,joint_tau_cal_12,joint_tau_cal_13,joint_tau_cal_14,joint_tau_cal_15,joint_tau_est_0,joint_tau_est_1,joint_tau_est_2,joint_tau_est_3,joint_tau_est_4,joint_tau_est_5,joint_tau_est_6,joint_tau_est_7,joint_tau_est_8,joint_tau_est_9,joint_tau_est_10,joint_tau_est_11,joint_tau_est_12,joint_tau_est_13,joint_tau_est_14,joint_tau_est_15,joint_pos_0,joint_pos_1,joint_pos_2,joint_pos_4,joint_pos_5,joint_pos_6,joint_pos_8,joint_pos_9,joint_pos_10,joint_pos_12,joint_pos_13,joint_pos_14,joint_pos_target_0,joint_pos_target_1,joint_pos_target_2,joint_pos_target_4,joint_pos_target_5,joint_pos_target_6,joint_pos_target_8,joint_pos_target_9,joint_pos_target_10,joint_pos_target_12,joint_pos_target_13,joint_pos_target_14,joint_vel_3,joint_vel_7,joint_vel_11,joint_vel_15,joint_vel_target_3,joint_vel_target_7,joint_vel_target_11,joint_vel_target_15,
-77.9028,138.399,-175.458,-39.0917,-71.5798,215.884,-101.678,-50.8734,64.156,-217.096,96.2052,51.2934,83.159,-112.961,152.645,33.3754,0,0,0,0,0,0,0,0,0,0,0,0,0,0,0,0,0.016088,-0.27727,-1.37101,0.0396604,0.159908,-1.78756,-0.0355212,-0.146887,1.80706,-0.0482026,0.219547,1.4278,0.0160719,-0.276207,-1.37121,0.0396207,0.160534,-1.78735,-0.0354857,-0.147526,1.80682,-0.0481544,0.218542,1.42795,19.5458,25.4367,-25.6467,-16.6877,0,0,0,0,
-61.1052,126.723,-143.525,-33.2967,-40.7522,185.207,-96.0113,-38.6911,35.1688,-186.853,93.9925,37.4455,66.3668,-106.516,129.867,24.7646,-65.7336,130.124,-151.997,-35,-44.1361,194.94,-100.431,-35,42.2203,-197.271,99.6188,35,74.1872,-107.68,137.69,27.2691,0.0229694,-0.290054,-1.35544,0.0447434,0.140381,-1.77774,-0.0402818,-0.127217,1.79748,-0.0556312,0.230096,1.41399,0.0159915,-0.270894,-1.37221,0.0394224,0.163661,-1.78626,-0.0353081,-0.150718,1.80564,-0.0479134,0.213517,1.42866,16.6483,19.3456,-18.7227,-12.3823,0,0,0,0,
-28.8515,112.286,-104.988,-18.9551,-31.5477,140.613,-67.5608,-20.025,22.6452,-141.666,62.2133,22.2922,35.0678,-96.9124,93.7376,15.5576,-34.4145,114.95,-112.743,-20.8697,-34.0399,148.042,-72.5529,-22.5817,25.2086,-149.064,67.3808,24.6901,40.0267,-98.702,100.439,17.0642,0.0276827,-0.303318,-1.34158,0.0487997,0.12255,-1.76864,-0.0433384,-0.109266,1.78889,-0.0608585,0.24139,1.40166,0.015911,-0.265581,-1.37321,0.0392241,0.166789,-1.78518,-0.0351305,-0.153911,1.80446,-0.0476724,0.208492,1.42938,9.47754,10.0125,-11.1461,-7.77881,0,0,0,0,
-11.5283,96.9848,-72.0361,-11.6064,-19.8166,109.85,-47.4974,-11.9433,14.459,-111.393,41.6582,13.987,18.8855,-84.9895,65.0004,9.6964,-13.8824,99.5523,-77.7815,-12.8222,-20.8561,114.791,-51.3929,-13.1674,15.0346,-116.172,45.6888,15.2092,21.2071,-86.995,70.0072,10.68,0.029199,-0.313826,-1.33292,0.0511898,0.110103,-1.76273,-0.0449383,-0.0966796,1.78359,-0.06316,0.25054,1.39384,0.0158306,-0.260267,-1.37421,0.0390258,0.169916,-1.7841,-0.0349528,-0.157103,1.80328,-0.0474314,0.203468,1.43009,5.80322,5.97167,-6.99351,-4.8482,0,0,0,0,
-4.9701,86.7425,-52.3797,-7.75008,-15.8121,92.1661,-33.1687,-8.46981,10.939,-93.8756,27.2437,10.5233,11.9924,-76.8455,47.8966,6.54321,-6.26379,88.8041,-56.7852,-8.57942,-16.6194,96.0649,-36.5969,-9.14937,11.5315,-97.7407,30.8119,11.1604,13.3912,-78.4644,51.7518,7.22418,0.0293703,-0.320423,-1.32877,0.0523991,0.102908,-1.75981,-0.0457157,-0.0893486,1.78116,-0.0639337,0.256361,1.39002,0.0157501,-0.254954,-1.37521,0.0388275,0.173043,-1.78301,-0.0347752,-0.160296,1.8021,-0.0471903,0.198443,1.43081,3.87504,4.23491,-5.26164,-3.2716,0,0,0,0,
-1.31635,78.1484,-36.847,-5.13527,-13.3541,77.9633,-20.7785,-6.77406,9.1029,-79.7388,14.4628,8.92598,7.61676,-69.8044,34.1991,4.38712,-2.01775,79.418,-40.2638,-5.6978,-13.8509,80.7865,-23.8657,-7.07659,9.47052,-82.5432,17.64,9.21409,8.50088,-70.7636,37.2537,4.85203,0.0290811,-0.325662,-1.32647,0.0532488,0.0976248,-1.75822,-0.0462334,-0.0839274,1.78009,-0.0641617,0.261034,1.38781,0.0156697,-0.249641,-1.37621,0.0386292,0.176171,-1.78193,-0.0345976,-0.163489,1.80092,-0.0469493,0.193418,1.43152,2.56763,3.38703,-4.46299,-2.19356,0,0,0,0,
0.774028,68.7438,-21.816,-2.99347,-11.3344,63.6252,-7.5978,-6.08987,7.52531,-66.0391,1.58646,7.38299,4.44371,-61.889,20.7444,2.60357,0.513655,70.0405,-24.3951,-3.34593,-11.6443,65.9669,-10.1574,-6.13564,7.83008,-67.9143,3.78335,8.06019,4.90201,-62.9459,23.0802,2.89901,0.0284153,-0.33059,-1.32559,0.0539956,0.0931542,-1.75781,-0.0466493,-0.0792718,1.7803,-0.0639914,0.26548,1.38683,0.0155893,-0.244327,-1.37721,0.0384309,0.179298,-1.78084,-0.03442,-0.166681,1.79974,-0.0467083,0.188393,1.43224,1.49674,3.04494,-3.69149,-1.30179,0,0,0,0,
1.26322,62.9923,-12.7561,-1.86784,-10.0009,55.8163,0.629672,-4.7299,7.13483,-59.2576,-6.60693,5.11857,3.17045,-56.959,12.4885,1.65514,1.21808,64.0129,-14.7576,-2.11143,-10.298,57.2118,-1.25082,-5.25304,7.02751,-60.5664,-4.39632,5.6238,3.39596,-57.8241,14.3366,1.86033,0.0278009,-0.33344,-1.32607,0.0544082,0.0908983,-1.75847,-0.0468652,-0.0767505,1.78138,-0.0636598,0.268079,1.38712,0.0155088,-0.239014,-1.3782,0.0382326,0.182426,-1.77976,-0.0342424,-0.169874,1.79855,-0.0464673,0.183369,1.43295,0.93392,2.36495,-2.55928,-0.827572,0,0,0,0,
1.24285,58.3137,-7.3941,-1.25977,-9.3554,52.0617,6.02574,-3.37615,7.76215,-54.2963,-12.9959,3.81675,2.33989,-52.8755,6.01879,0.988666,1.30538,59.0847,-8.96603,-1.44416,-9.44271,52.8942,4.15047,-3.7958,7.80626,-55.3208,-11.1,4.25735,2.50867,-53.5149,7.45455,1.13201,0.0273434,-0.335476,-1.32696,0.0547014,0.0897365,-1.75939,-0.0470615,-0.0749841,1.78268,-0.0632407,0.269949,1.38811,0.0154284,-0.2337,-1.3792,0.0380343,0.185553,-1.77868,-0.0340648,-0.173066,1.79737,-0.0462263,0.178344,1.43367,0.629885,1.68808,-1.90838,-0.494333,0,0,0,0,
0.875878,54.3512,-0.0708869,-0.557303,-8.94726,46.7595,13.4996,-1.6619,7.09377,-50.3047,-20.0149,1.97209,1.91064,-49.4539,0.819366,0.522781,0.987455,54.9673,-1.28952,-0.673723,-9.04634,47.4125,12.055,-1.9606,7.22703,-50.9857,-18.6657,2.29349,1.9598,-49.9611,1.97136,0.623748,0.0266349,-0.336816,-1.32918,0.0549346,0.0885698,-1.76159,-0.0473207,-0.0738477,1.78547,-0.062769,0.271196,1.38965,0.0153479,-0.228387,-1.3802,0.037836,0.188681,-1.77759,-0.0338872,-0.176259,1.79619,-0.0459853,0.173319,1.43438,0.278651,0.830949,-0.986045,-0.26139,0,0,0,0,
7.79649,55.5183,2.35662,-0.178879,1.21297,45.857,19.3628,-0.690329,-8.83898,-39.1569,-14.4132,-0.243944,1.04153,-45.2362,-3.16858,0.27235,4.32274,53.7311,2.36326,-0.269729,-3.77288,46.603,17.2344,-0.875076,1.87649,-30.0574,-6.45412,-1.847,2.20361,-44.7909,-2.22828,0.30708,0.0258595,-0.337725,-1.33139,0.0547491,0.0880608,-1.76384,-0.0469642,-0.0738268,1.78744,-0.0622791,0.27182,1.39158,0.0152675,-0.223074,-1.3812,0.0376377,0.191808,-1.77651,-0.0337096,-0.179451,1.79501,-0.0457443,0.168294,1.4351,0.0894395,0.345164,0.121972,-0.136175,0,0,0,0,
17.797,57.3943,4.21786,0.255612,11.4966,48.4948,29.553,-0.0326082,-7.59754,-13.2756,-3.87807,-3.40753,-0.075561,-38.3885,-5.82153,-0.0128953,15.5154,56.5293,3.79236,0.192834,9.38577,46.2535,27.7989,-0.131845,-11.7015,-27.6199,-13.5456,-0.961655,-1.07728,-40.3575,-5.59062,0.0480781,0.0234967,-0.338998,-1.33421,0.0527782,0.0874127,-1.76755,-0.0453151,-0.076547,1.78853,-0.0614775,0.271612,1.3943,0.0151871,-0.21776,-1.3822,0.0374394,0.194936,-1.77542,-0.033532,-0.182644,1.79383,-0.0455033,0.16327,1.43581,-0.127806,0.0163041,1.70376,0.00644765,0,0,0,0,
15.3207,52.8545,7.51955,0.535695,7.71654,49.0311,35.6253,0.261975,-10.3914,-16.1875,-7.33469,-2.89337,0.616599,-35.5496,-7.5847,-0.292548,15.4689,52.844,7.06233,0.472625,7.84985,47.6385,34.3277,0.164921,-12.273,-22.1564,-11.7932,-1.62755,-0.314093,-36.1751,-7.42676,-0.234255,0.021605,-0.339438,-1.33673,0.0513339,0.086967,-1.77111,-0.0437882,-0.0788741,1.78963,-0.0608351,0.270868,1.39663,0.0151066,-0.212447,-1.3832,0.0372411,0.198063,-1.77434,-0.0333544,-0.185836,1.79265,-0.0452622,0.158245,1.43653,-0.267847,-0.130987,1.44669,0.146274,0,0,0,0,
10.2487,47.6298,9.84344,0.764619,4.10617,48.8569,39.4929,0.653618,-11.1627,-19.2413,-9.41757,-3.06009,2.25292,-33.5112,-8.96141,-0.469303,11.1927,47.9128,9.57719,0.717847,4.34153,48.1365,38.49,0.5557,-11.9894,-20.8746,-10.7679,-2.49029,1.62448,-33.5051,-8.79019,-0.439637,0.0201891,-0.339168,-1.33946,0.0503041,0.0866282,-1.77494,-0.0422467,-0.0811646,1.7907,-0.0603686,0.269705,1.39903,0.0150262,-0.207134,-1.3842,0.0370428,0.201191,-1.77326,-0.0331768,-0.189029,1.79147,-0.0450212,0.15322,1.43724,-0.382309,-0.326809,1.53005,0.234651,0,0,0,0,
4.97772,41.7317,11.634,0.898965,2.66149,47.9306,42.9705,1.13488,-10.326,-21.9998,-11.9509,-3.44352,3.71579,-31.3343,-10.5496,-0.537364,5.92684,42.4204,11.404,0.883874,2.8911,47.9759,42.265,1.04401,-10.2696,-20.3034,-10.6578,-3.54413,3.54514,-31.235,-10.2851,-0.531683,0.0191062,-0.337934,-1.34299,0.0492935,0.0864206,-1.77988,-0.0404962,-0.0839304,1.79205,-0.0600035,0.267807,1.40211,0.0149457,-0.20182,-1.3852,0.0368445,0.204318,-1.77217,-0.0329992,-0.192222,1.79028,-0.0447802,0.148195,1.43796,-0.449483,-0.567441,1.72176,0.268682,0,0,0,0,
10.1281,46.318,19.0959,3.95009,3.3503,47.3729,45.4144,1.45604,-9.13234,-22.692,-13.8437,-3.54608,4.66149,-30.6537,-11.4822,-0.533682,3.32209,38.7232,12.3196,0.910745,3.00098,47.5062,44.6316,1.37674,-9.19459,-20.5063,-11.9049,-3.80395,4.27133,-29.6988,-11.3834,-0.537965,0.0184154,-0.336563,-1.34601,0.0485144,0.0864365,-1.7839,-0.0392785,-0.0861133,1.79317,-0.0598195,0.26601,1.40462,0.0148653,-0.196507,-1.3862,0.0366462,0.207446,-1.77109,-0.0328216,-0.195414,1.7891,-0.0445392,0.143171,1.43867,-1.97505,-0.72802,1.77304,0.266841,0,0,0,0,
9.05797,49.1255,28.0265,3.39704,4.87155,46.9635,47.1989,1.79889,-8.29625,-21.0595,-14.1058,-3.96008,13.6127,-32.6697,-17.1185,-2.65932,8.26111,49.1545,28.1371,3.26618,3.85204,46.5831,46.8502,1.74568,-9.51753,-22.6822,-15.5446,-3.55587,3.93101,-29.1592,-12.531,-0.509217,0.0171091,-0.335588,-1.3513,0.047453,0.0866883,-1.78889,-0.0378656,-0.0888836,1.79467,-0.0598176,0.263598,1.40788,0.0147849,-0.191194,-1.3872,0.0364479,0.210573,-1.77001,-0.032644,-0.198607,1.78792,-0.0442982,0.138146,1.43939,-1.69852,-0.899445,1.98004,1.32966,0,0,0,0,
7.65923,46.9537,27.7255,3.67706,11.6447,18.6459,25.0269,6.59863,-16.7323,-23.8446,-15.5708,-4.1236,9.18131,-40.0804,-22.319,-2.2447,8.56352,48.6535,28.0793,3.70531,4.50265,46.1085,48.5077,1.94254,-10.0479,-23.3932,-17.2423,-3.54821,14.6477,-35.3213,-23.7945,-2.25415,0.0161872,-0.334568,-1.35545,0.0463876,0.0877379,-1.79226,-0.0365571,-0.090995,1.79594,-0.0605213,0.262143,1.41134,0.0147044,-0.18588,-1.38819,0.0362496,0.2137,-1.76892,-0.0324664,-0.201799,1.78674,-0.0440572,0.133121,1.4401,-1.83853,-3.29931,2.0618,1.12235,0,0,0,0,
4.8766,51.0133,-6.33623,5.20748,21.384,24.9188,34.5792,3.3194,-30.2464,-28.4943,-23.4052,-3.51855,-0.0678189,-48.9641,-20.089,-2.97074,8.24939,46.3915,25.7737,4.07463,22.5684,22.927,30.7219,4.14277,-32.8329,-20.6956,-17.8735,-4.61008,-3.36682,-46.2923,-19.3006,-2.79847,0.0152894,-0.332979,-1.35947,0.0432102,0.0909569,-1.79486,-0.0327871,-0.0934175,1.79786,-0.0597315,0.261295,1.41519,0.014624,-0.180567,-1.38919,0.0360513,0.216828,-1.76784,-0.0322888,-0.204992,1.78556,-0.0438162,0.128097,1.44082,-2.60374,-1.6597,1.75927,1.48537,0,0,0,0,
-4.31996,43.2302,9.67605,2.41077,18.2637,23.3034,29.1314,4.84326,-19.185,-28.096,-19.1581,-4.71336,6.86616,-48.2304,-28.2684,-3.21556,14.0089,50.2167,-11.427,4.47455,20.2524,24.0164,31.6617,4.33564,-18.3848,-33.2974,-23.0249,-3.73013,9.13817,-49.8912,-27.146,-3.19171,0.0150404,-0.331149,-1.36113,0.0405265,0.0944669,-1.79719,-0.0300248,-0.0954561,1.79971,-0.0596008,0.260631,1.41952,0.0145435,-0.175254,-1.39019,0.035853,0.219955,-1.76675,-0.0321111,-0.208184,1.78438,-0.0435752,0.123072,1.44153,-1.20538,-2.42163,2.35668,1.60778,0,0,0,0,
-7.2383,42.687,4.10506,1.95799,16.5202,26.1883,29.8332,4.30292,-13.9767,-29.8071,-21.5464,-4.73384,10.2685,-48.6192,-30.7806,-3.51975,6.01042,45.6409,-3.62489,2.67994,18.1144,24.654,29.9294,4.26117,-13.33,-33.6695,-23.7379,-4.05159,11.7188,-49.1615,-30.4867,-3.46191,0.0148531,-0.329346,-1.36228,0.0385914,0.0969875,-1.7989,-0.0286722,-0.09683,1.80125,-0.0599917,0.259947,1.42333,0.0144631,-0.16994,-1.39119,0.0356547,0.223083,-1.76567,-0.0319335,-0.211377,1.7832,-0.0433341,0.118047,1.44225,-0.978993,-2.15146,2.36692,1.75987,0,0,0,0,
-6.68661,39.9107,3.22098,1.52661,13.4287,27.8687,31.3436,3.90326,-11.4614,-32.6817,-26.1901,-4.26747,11.2213,-48.879,-31.5892,-3.92087,-6.58916,40.2834,2.90677,1.62389,14.3135,26.7216,30.4178,4.09548,-11.6052,-30.2221,-24.0817,-4.63732,11.2745,-48.3002,-31.5169,-3.83948,0.0155589,-0.326483,-1.364,0.0366472,0.0999203,-1.80097,-0.0273773,-0.0986028,1.80333,-0.0605499,0.258842,1.42808,0.0143827,-0.164627,-1.39219,0.0354564,0.22621,-1.76459,-0.0317559,-0.21457,1.78202,-0.0430931,0.113022,1.44296,-0.763306,-1.95163,2.13373,1.96044,0,0,0,0,
-24.5796,41.8672,9.55306,0.780879,-3.3336,35.31,30.0437,4.00843,-10.7106,-28.4026,-25.7051,-4.31649,7.99437,-51.509,5.14376,-4.57711,-13.9537,40.5559,4.47723,1.21502,1.96621,33.4296,30.6702,3.81982,-8.85743,-31.3806,-26.4809,-4.19934,22.215,-45.6896,-20.6162,-2.59322,0.0175933,-0.323493,-1.36616,0.0362342,0.102185,-1.80286,-0.0262124,-0.100749,1.80538,-0.0616071,0.257711,1.42928,0.0143022,-0.159314,-1.39319,0.0352581,0.229338,-1.7635,-0.0315783,-0.217762,1.78083,-0.0428521,0.107998,1.44368,-0.390439,-2.00421,2.15824,2.28856,0,0,0,0,
-27.931,42.1395,10.6151,0.41001,-6.3685,37.827,31.0261,4.0244,-5.09153,-30.1315,-26.7358,-4.16583,12.1858,-49.4134,-1.20748,-2.69602,-13.8162,42.8386,2.59642,1.03781,-2.6772,35.4706,30.6856,3.98167,-2.98213,-31.4224,-26.8033,-4.15856,24.6775,-46.0508,-14.5939,-1.70905,0.0194747,-0.321114,-1.36788,0.0365885,0.10366,-1.80431,-0.0258802,-0.10239,1.807,-0.0624476,0.256469,1.43063,0.0142218,-0.154,-1.39419,0.0350598,0.232465,-1.76242,-0.0314007,-0.220955,1.77965,-0.0426111,0.102973,1.44439,-0.205005,-2.0122,2.08292,1.34801,0,0,0,0,
-9.51431,48.2521,4.27762,3.69948,-1.93923,35.1183,30.7792,4.3356,-1.48075,-31.3416,-26.968,-4.31669,24.4354,-47.0864,-9.85007,-1.18879,-20.8367,44.8816,11.3296,2.70297,-4.04575,36.245,30.8513,4.27276,-3.15999,-30.2848,-26.6955,-4.28973,18.9656,-47.3022,-5.43271,-1.69437,0.0212784,-0.318311,-1.36996,0.0369262,0.105615,-1.80599,-0.0258585,-0.104461,1.80889,-0.0641758,0.25463,1.43231,0.0141413,-0.148687,-1.39519,0.0348614,0.235593,-1.76134,-0.0312231,-0.224147,1.77847,-0.0423701,0.0979481,1.44511,-1.84974,-2.1678,2.15835,0.594393,0,0,0,0,
-9.45342,46.761,6.51701,3.37628,-1.01756,34.5813,30.5501,4.53835,-1.81091,-31.7062,-27.6375,-4.3632,19.0475,-46.2246,-10.1992,-0.939042,-17.0955,47.9036,11.4471,3.82528,-2.24969,34.9324,30.428,4.50848,-2.87929,-30.6575,-27.2014,-4.35952,21.807,-45.7173,-8.27177,-1.16251,0.0223406,-0.315676,-1.37181,0.037032,0.107335,-1.80751,-0.0258335,-0.106161,1.81034,-0.0656041,0.25294,1.43369,0.0140609,-0.143373,-1.39619,0.0346631,0.23872,-1.76025,-0.0310455,-0.22734,1.77729,-0.0421291,0.0929233,1.44582,-1.68814,-2.26918,2.1816,0.469521,0,0,0,0,
-11.876,47.1393,12.5856,3.17402,-1.19957,34.3037,30.6248,4.63184,-2.74814,-31.9733,-28.6957,-4.35826,17.6567,-44.0498,-10.2799,-0.852228,-7.42568,47.8683,8.58569,3.40126,-0.548961,33.734,30.5016,4.6118,-2.01004,-31.8934,-28.416,-4.35828,19.9791,-44.1564,-11.3542,-0.759835,0.0233042,-0.313466,-1.37429,0.0370449,0.109627,-1.80862,-0.0257903,-0.108273,1.81213,-0.0665569,0.250476,1.43554,0.0139805,-0.13806,-1.39718,0.0344648,0.241848,-1.75917,-0.0308679,-0.230532,1.77611,-0.0418881,0.0878986,1.44654,-1.58701,-2.31592,2.17913,0.426114,0,0,0,0,
-5.79046,48.3865,10.8254,3.75445,-1.12523,33.4674,30.6655,4.72513,-3.16392,-32.5588,-29.8404,-4.35735,12.4507,-46.0258,-14.8247,-3.71393,-9.69524,46.7995,13.9845,3.43242,-1.38546,33.7204,30.4899,4.7023,-3.12969,-32.2322,-29.4637,-4.34823,16.1414,-41.9681,-10.9183,-0.778997,0.0237732,-0.310599,-1.37682,0.0370342,0.112037,-1.8099,-0.0256978,-0.11036,1.81391,-0.0673749,0.247729,1.43756,0.0139,-0.132747,-1.39818,0.0342665,0.244975,-1.75808,-0.0306903,-0.233725,1.77493,-0.041647,0.0828738,1.44725,-1.87723,-2.36257,2.17868,1.85697,0,0,0,0,
-5.85337,48.7894,11.8629,4.08243,-1.42881,33.9743,30.5064,4.77994,-3.20297,-33.242,-30.0535,-4.38315,10.6176,-49.5052,-18.2093,-4.74508,-7.93441,47.4223,15.5259,3.68835,-1.79045,33.8179,30.5386,4.75095,-3.66209,-32.2674,-29.803,-4.37645,9.97267,-48.8311,-14.1952,-4.93998,0.0240848,-0.308249,-1.37898,0.0370735,0.113988,-1.81084,-0.0255532,-0.112054,1.81528,-0.0673452,0.245969,1.4395,0.0138196,-0.127433,-1.39918,0.0340682,0.248103,-1.757,-0.0305127,-0.236918,1.77375,-0.041406,0.0778491,1.44797,-2.04121,-2.38997,2.19157,2.37254,0,0,0,0,
-7.3497,48.0508,16.8236,4.25893,-2.68021,35.0864,31.1973,4.75726,-3.04027,-33.6976,-30.5006,-4.39452,10.1682,-49.5632,-16.6079,-5.05398,-6.07694,47.9743,14.0624,4.37168,-2.17371,34.4683,30.9894,4.75471,-2.916,-33.5251,-30.2923,-4.39445,10.3207,-49.0809,-19.343,-4.84719,0.0244197,-0.305173,-1.38183,0.0371935,0.116377,-1.81194,-0.0254024,-0.114142,1.8169,-0.0673262,0.243677,1.44199,0.0137391,-0.12212,-1.40018,0.0338699,0.25123,-1.75592,-0.0303351,-0.24011,1.77257,-0.041165,0.0728243,1.44868,-2.12947,-2.37863,2.19726,2.52699,0,0,0,0,
-7.11107,48.4029,17.5495,4.74022,-2.95681,35.5016,31.4088,4.81675,-2.50636,-34.4461,-31.2931,-4.40575,10.3016,-49.841,-18.3032,-5.19135,-6.42064,47.7633,15.8178,4.7711,-2.70903,34.7496,31.039,4.82234,-2.51282,-33.9462,-30.9417,-4.40349,10.077,-49.0335,-20.0699,-5.02044,0.0246615,-0.30262,-1.38416,0.0373289,0.118281,-1.81278,-0.0253362,-0.115794,1.81817,-0.0672949,0.241736,1.44411,0.0136587,-0.116807,-1.40118,0.0336716,0.254357,-1.75483,-0.0301575,-0.243303,1.77138,-0.040924,0.0677996,1.4494,-2.37011,-2.40838,2.20288,2.59568,0,0,0,0,
-6.62511,48.7583,18.5432,5.26808,-3.01467,35.9661,32.3969,4.81875,-2.30572,-35.0088,-32.2041,-4.42303,10.3617,-50.1846,-20.038,-5.36215,-6.52683,48.0184,17.4889,5.22739,-2.97719,35.5133,32.3017,4.78136,-2.34602,-34.464,-31.8027,-4.41954,10.013,-49.443,-20.7099,-5.23436,0.0248775,-0.299988,-1.38657,0.037472,0.120168,-1.81363,-0.0252919,-0.11745,1.81942,-0.0672559,0.23971,1.44629,0.0135783,-0.111493,-1.40218,0.0334733,0.257485,-1.75375,-0.0299799,-0.246495,1.7702,-0.040683,0.0627748,1.45011,-2.63404,-2.40937,2.21151,2.68108,0,0,0,0,
-5.96308,49.9485,20.1463,6.34839,-2.80681,36.8458,34.0735,4.61925,-2.45761,-35.2135,-33.4085,-4.43732,9.88185,-50.3054,-22.1643,-5.6111,-6.04559,49.3603,19.8524,6.22118,-2.80126,36.5294,33.8508,4.63254,-2.40204,-34.921,-33.0617,-4.43558,10.0988,-49.8327,-21.7475,-5.57034,0.0250781,-0.296702,-1.3897,0.037621,0.122498,-1.81475,-0.025228,-0.119542,1.82099,-0.0671765,0.237073,1.44911,0.0134978,-0.10618,-1.40318,0.033275,0.260612,-1.75266,-0.0298023,-0.249688,1.76902,-0.040442,0.0577501,1.45083,-3.1742,-2.30963,2.21866,2.80555,0,0,0,0,
-5.69051,50.6012,21.3332,6.50208,-2.65413,37.2743,34.4835,4.59376,-2.63324,-35.6849,-34.4364,-4.43772,9.5834,-50.9895,-23.663,-5.79108,-5.72279,49.7402,21.4001,6.45861,-2.67981,36.7213,34.232,4.60212,-2.61757,-35.1118,-34.0226,-4.43792,9.76783,-50.0677,-23.1975,-5.76612,0.0251861,-0.294053,-1.3923,0.037711,0.124344,-1.81565,-0.0251523,-0.121235,1.82226,-0.0670794,0.2349,1.45144,0.0134174,-0.100867,-1.40418,0.0330767,0.26374,-1.75158,-0.0296247,-0.25288,1.76784,-0.040201,0.0527254,1.45154,-3.25104,-2.29688,2.21886,2.89554,0,0,0,0,
-5.35971,50.7766,23.1356,6.48107,-2.32709,37.6063,35.0991,4.53909,-2.83255,-36.0252,-35.4994,-4.43508,9.72509,-51.5319,-25.4478,-5.9529,-5.46115,50.29,22.6301,6.50517,-2.34191,37.2593,34.8183,4.55608,-2.78891,-35.7018,-35.1907,-4.43505,10.027,-50.9338,-24.7997,-5.95941,0.0252814,-0.290673,-1.39562,0.0377776,0.126656,-1.81673,-0.0250304,-0.123363,1.82384,-0.066959,0.232131,1.45444,0.0133369,-0.0955532,-1.40518,0.0328784,0.266867,-1.7505,-0.0294471,-0.256073,1.76666,-0.0399599,0.0477006,1.45226,-3.24053,-2.26954,2.21754,2.97645,0,0,0,0,
-5.40361,51.3768,23.4656,6.59868,-2.18875,38.1663,35.6246,4.49482,-2.92486,-36.6094,-36.4138,-4.42945,9.8326,-52.1151,-26.0895,-6.13714,-5.17551,50.4931,24.0595,6.50534,-2.18504,37.5816,35.3228,4.50808,-2.91411,-36.015,-36.0172,-4.43116,9.81993,-51.2294,-25.9644,-6.10062,0.025336,-0.287918,-1.3983,0.037799,0.128502,-1.81757,-0.0249169,-0.12507,1.8251,-0.0668634,0.229869,1.45689,0.0132565,-0.0902398,-1.40618,0.0326801,0.269995,-1.74941,-0.0292694,-0.259266,1.76548,-0.0397189,0.0426759,1.45297,-3.29934,-2.24741,2.21472,3.06857,0,0,0,0,
-5.00405,51.7377,25.2591,6.62976,-2.07926,38.5605,36.2324,4.44798,-3.02115,-37.0963,-37.5074,-4.41061,9.78108,-52.5787,-27.3025,-6.27825,-5.20011,51.2002,24.5135,6.67555,-2.08856,38.2392,36.0275,4.45444,-3.02434,-36.7526,-37.1786,-4.41329,9.7761,-52.0864,-27.1307,-6.25042,0.0253715,-0.284428,-1.40169,0.0378021,0.1308,-1.8186,-0.024762,-0.127204,1.82665,-0.0667302,0.226994,1.45997,0.0131761,-0.0849265,-1.40717,0.0324818,0.273122,-1.74833,-0.0290918,-0.262458,1.7643,-0.0394779,0.0376511,1.45369,-3.31488,-2.22399,2.2053,3.13912,0,0,0,0,
-4.86483,52.4595,26.0565,6.77412,-2.06471,39.2646,36.7739,4.43424,-3.1044,-37.665,-37.8972,-4.46515,9.63145,-53.6298,-28.2103,-6.38578,-5.02647,51.934,25.3389,6.80391,-2.05841,38.7047,36.5744,4.43669,-3.11025,-37.1387,-37.6346,-4.46351,9.63615,-52.7491,-28.032,-6.35849,0.0253785,-0.281604,-1.40442,0.0377917,0.132177,-1.8194,-0.0246263,-0.128488,1.82787,-0.066605,0.225244,1.46246,0.0130956,-0.0796131,-1.40817,0.0322835,0.27625,-1.74725,-0.0289142,-0.265651,1.76312,-0.0392369,0.0326264,1.4544,-3.38706,-2.21712,2.23257,3.19289,0,0,0,0,
-4.82426,53.0939,26.302,6.87412,-1.99535,39.5182,37.3468,4.42776,-3.28375,-38.9918,-39.981,-4.20754,9.3642,-54.0761,-29.1041,-6.48828,-4.63539,52.7327,26.7447,6.90505,-2.02154,39.2303,37.1423,4.42631,-3.23837,-38.6679,-39.8687,-4.20788,9.44153,-53.5896,-28.908,-6.46098,0.0253645,-0.278752,-1.40715,0.0377706,0.134477,-1.82018,-0.0244763,-0.130576,1.82915,-0.0664559,0.222288,1.46497,0.0130152,-0.0742998,-1.40917,0.0320852,0.279377,-1.74616,-0.0287366,-0.268843,1.76193,-0.0389959,0.0276016,1.45512,-3.43706,-2.21388,2.10377,3.24414,0,0,0,0,
-4.41397,54.4784,27.6103,7.25564,-1.86218,39.9642,37.9434,4.42694,-3.39629,-39.5757,-40.2168,-4.19462,9.06824,-54.789,-30.0228,-6.5938,-4.50818,53.5188,27.4383,7.25066,-1.87255,39.4176,37.6443,4.4276,-3.40383,-38.9615,-39.9632,-4.20098,9.09104,-53.9056,-29.8945,-6.56666,0.0253166,-0.275925,-1.40992,0.0377298,0.136325,-1.82095,-0.0243115,-0.132211,1.83041,-0.0662746,0.219887,1.4675,0.0129347,-0.0689864,-1.41017,0.0318869,0.282505,-1.74508,-0.028559,-0.272036,1.76075,-0.0387549,0.0225769,1.45583,-3.62782,-2.21347,2.09731,3.2969,0,0,0,0,
-4.16479,54.8991,28.4381,7.37906,-1.59825,40.1462,38.5934,4.43108,-3.65255,-40.0941,-40.7362,-4.15138,9.03472,-55.1337,-30.962,-6.76306,-4.12972,54.421,28.695,7.32103,-1.64462,39.8622,38.3747,4.43128,-3.61502,-39.7377,-40.5009,-4.16123,8.62889,-54.7809,-31.2765,-6.68204,0.0252292,-0.272369,-1.41338,0.0376489,0.138648,-1.82188,-0.0240816,-0.134251,1.83191,-0.0660096,0.216841,1.47069,0.0128543,-0.063673,-1.41117,0.0316886,0.285632,-1.74399,-0.0283814,-0.275228,1.75957,-0.0385139,0.0175522,1.45655,-3.68953,-2.21554,2.07569,3.38153,0,0,0,0,
-3.83511,55.7228,29.3138,7.43791,-1.4003,40.537,39.2,4.43448,-3.83056,-40.7956,-41.4098,-4.10861,8.59606,-55.8882,-32.0791,-6.85384,-3.91573,54.7586,29.1693,7.43289,-1.42111,40.0017,38.8998,4.43381,-3.81804,-40.1638,-41.0762,-4.12113,8.69726,-54.9712,-31.8609,-6.83655,0.0251291,-0.269502,-1.41616,0.0375563,0.14052,-1.82262,-0.023877,-0.135876,1.83308,-0.0657758,0.214369,1.47325,0.0127739,-0.0583597,-1.41217,0.0314903,0.28876,-1.74291,-0.0282038,-0.278421,1.75839,-0.0382729,0.0125274,1.45726,-3.71895,-2.21724,2.05431,3.42692,0,0,0,0,
-3.30205,56.1711,30.4513,7.53361,-1.05599,40.6769,39.8264,4.44336,-4.0743,-41.3278,-42.2307,-4.0595,8.35225,-56.1417,-33.0637,-7.02773,-3.44703,55.6957,30.4962,7.49051,-1.10644,40.3943,39.611,4.44269,-4.03762,-40.9751,-41.9688,-4.06736,8.34611,-55.7642,-33.0381,-6.98017,0.0249549,-0.265894,-1.41964,0.0373999,0.142878,-1.82352,-0.0235987,-0.137898,1.8345,-0.0654573,0.211229,1.47647,0.0126934,-0.0530463,-1.41317,0.031292,0.291887,-1.74183,-0.0280262,-0.281614,1.75721,-0.0380318,0.00750267,1.45798,-3.7668,-2.22168,2.02975,3.51386,0,0,0,0,
-2.97395,56.9473,31.3519,7.6089,-0.789158,41.0232,40.4039,4.45333,-4.28546,-41.9166,-42.9589,-4.04092,8.10427,-57.0256,-34.4788,-7.08675,-3.12381,56.4707,31.3139,7.57362,-0.842219,40.7471,40.1928,4.4514,-4.24537,-41.5817,-42.7051,-4.04446,8.18126,-56.5334,-34.1653,-7.0696,0.0247805,-0.262988,-1.42245,0.0372436,0.144779,-1.82423,-0.0233567,-0.139516,1.83562,-0.0651805,0.208688,1.47907,0.012613,-0.047733,-1.41417,0.0310937,0.295015,-1.74074,-0.0278486,-0.284806,1.75603,-0.0377908,0.00247793,1.45869,-3.80445,-2.22667,2.02046,3.54338,0,0,0,0,
-2.64011,57.7081,32.193,7.68955,-0.539049,41.3794,40.9909,4.46074,-4.49413,-42.4704,-43.6653,-4.03092,7.90054,-57.6087,-35.0603,-7.23347,-2.77313,56.791,32.1769,7.66194,-0.574291,40.8489,40.6918,4.45866,-4.46745,-41.8863,-43.3281,-4.03277,7.92073,-56.741,-34.9584,-7.20385,0.0245765,-0.260062,-1.42526,0.0370604,0.146695,-1.82492,-0.023097,-0.14114,1.83672,-0.0648839,0.206115,1.48169,0.0125325,-0.0424196,-1.41517,0.0308954,0.298142,-1.73966,-0.027671,-0.287999,1.75485,-0.0375498,-0.00254681,1.45941,-3.84477,-2.23037,2.01546,3.61673,0,0,0,0,
-2.29981,58.0803,33.2767,7.80294,-0.225056,41.5158,41.5837,4.47191,-4.82476,-42.7975,-44.3827,-4.031,7.53109,-58.3625,-36.9295,-7.24203,-2.37676,57.5855,33.133,7.77978,-0.264687,41.2395,41.3706,4.46931,-4.77493,-42.4789,-44.1457,-4.03019,7.66106,-57.48,-36.0265,-7.34323,0.0242855,-0.256373,-1.42879,0.0367972,0.149106,-1.82577,-0.0227444,-0.143184,1.83806,-0.0644859,0.202866,1.48498,0.0124521,-0.0371062,-1.41616,0.0306971,0.301269,-1.73857,-0.0274934,-0.291191,1.75366,-0.0373088,-0.00757157,1.46012,-3.90147,-2.23595,2.0155,3.62102,0,0,0,0,
-2.02133,58.8168,34.0478,7.89193,-0.0409465,41.905,42.1535,4.47897,-5.06782,-43.2842,-45.0287,-4.03572,7.44469,-59.7014,-37.6703,-7.17802,-2.0718,57.8845,33.9945,7.87169,-0.0505607,41.3622,41.8604,4.47758,-5.02729,-42.7183,-44.7067,-4.03416,7.46377,-58.7626,-37.8175,-7.15946,0.0240284,-0.253398,-1.43161,0.0365642,0.151047,-1.82643,-0.0224403,-0.144832,1.83911,-0.0641499,0.200318,1.4877,0.0123717,-0.0317929,-1.41716,0.0304988,0.304397,-1.73749,-0.0273158,-0.294384,1.75248,-0.0370678,-0.0125963,1.46084,-3.94596,-2.23949,2.01786,3.58901,0,0,0,0,
-1.77106,59.1665,35.1067,8.00633,0.136794,42.1347,42.7145,4.49167,-5.37512,-43.5503,-45.6653,-4.05023,7.17543,-60.5383,-38.8704,-7.14918,-1.81321,58.6723,34.9742,7.98456,0.128596,41.8323,42.51,4.48949,-5.34084,-43.2399,-45.4421,-4.04763,7.22078,-60.0229,-38.7604,-7.14121,0.0236867,-0.249649,-1.43515,0.0362547,0.153481,-1.82724,-0.0220327,-0.146913,1.84038,-0.0637124,0.197148,1.49108,0.0122912,-0.0264795,-1.41816,0.0303005,0.307524,-1.73641,-0.0271382,-0.297576,1.7513,-0.0368268,-0.017621,1.46155,-4.00317,-2.24584,2.02512,3.57459,0,0,0,0,
-1.51943,60.6748,36.7383,7.86609,0.221728,42.6008,43.2524,4.50273,-5.5475,-44.0064,-46.2769,-4.0624,6.93439,-61.3448,-39.4194,-7.19554,-1.56595,59.2769,36.1655,7.97884,0.226483,42.0471,42.9683,4.49971,-5.52443,-43.452,-45.9565,-4.05955,6.96047,-60.4426,-39.3871,-7.18337,0.0233986,-0.246654,-1.43801,0.0359991,0.155429,-1.82787,-0.0216928,-0.148594,1.84137,-0.0633425,0.1946,1.49378,0.0122108,-0.0211662,-1.41916,0.0301022,0.310652,-1.73532,-0.0269606,-0.300769,1.75012,-0.0365858,-0.0226458,1.46227,-3.93304,-2.25136,2.0312,3.59777,0,0,0,0,
-1.45562,61.8811,37.7768,7.74421,0.378711,42.8175,43.7916,4.52739,-5.71855,-44.2669,-46.8851,-4.0869,6.74836,-61.7718,-40.1818,-7.27608,-1.48157,61.2644,37.6409,7.75713,0.366696,42.523,43.5948,4.52233,-5.71329,-43.9524,-46.6666,-4.08255,6.76051,-61.2861,-40.0815,-7.25983,0.0230364,-0.24301,-1.44165,0.0356682,0.15787,-1.82863,-0.0212553,-0.150715,1.84257,-0.0628642,0.191383,1.4971,0.0121303,-0.0158528,-1.42016,0.0299039,0.313779,-1.73424,-0.026783,-0.303962,1.74894,-0.0363447,-0.0276705,1.46298,-3.8721,-2.26369,2.04345,3.63804,0,0,0,0,
-1.29724,62.8999,38.3537,7.73673,0.463997,43.2454,44.291,4.54713,-5.75716,-44.7735,-47.4535,-4.10594,6.6793,-62.4968,-40.738,-7.33948,-1.32629,61.9185,38.3685,7.73401,0.472095,42.7003,44.0168,4.54227,-5.77437,-44.1987,-47.1455,-4.10089,6.6588,-61.6138,-40.702,-7.32357,0.0227413,-0.240116,-1.44456,0.0353961,0.159827,-1.82922,-0.0209063,-0.152424,1.84349,-0.0624772,0.188783,1.49974,0.0120499,-0.0105395,-1.42116,0.0297056,0.316907,-1.73316,-0.0266054,-0.307154,1.74776,-0.0361037,-0.0326953,1.4637,-3.86836,-2.27357,2.05297,3.66974,0,0,0,0,
-1.17783,63.704,39.4693,7.70563,0.576077,43.4212,44.7832,4.58329,-5.82164,-45.0635,-48.0331,-4.13932,6.6216,-62.8411,-41.4866,-7.43524,-1.17584,63.1887,39.4744,7.69001,0.574657,43.1349,44.5992,4.57657,-5.83106,-44.7497,-47.8198,-4.13302,6.61601,-62.3736,-41.3958,-7.41708,0.0223665,-0.236511,-1.4482,0.0350487,0.162283,-1.82994,-0.0204738,-0.154573,1.84461,-0.0619969,0.185496,1.50301,0.0119695,-0.00522616,-1.42216,0.0295073,0.320034,-1.73207,-0.0264278,-0.310347,1.74658,-0.0358627,-0.0377199,1.46441,-3.85282,-2.29165,2.06966,3.71762,0,0,0,0,
-1.06308,64.3973,39.6236,7.78615,0.622207,43.8195,45.2529,4.61189,-5.81492,-45.5599,-48.5854,-4.16853,6.60087,-63.4943,-42.022,-7.51396,-1.08988,63.4671,39.6883,7.77102,0.640889,43.282,44.988,4.60461,-5.84074,-44.9891,-48.2832,-4.16034,6.57135,-62.6289,-41.9926,-7.49289,0.0220676,-0.233612,-1.45106,0.0347684,0.164255,-1.83049,-0.0201343,-0.156303,1.84548,-0.0616158,0.182833,1.50561,0.011889,8.71047e-05,-1.42316,0.029309,0.323162,-1.73099,-0.0262501,-0.313539,1.7454,-0.0356217,-0.0427446,1.46513,-3.89307,-2.30594,2.08427,3.75698,0,0,0,0,
-0.913909,64.7925,40.2653,7.86084,0.651592,44.345,46.0619,4.54919,-5.88003,-45.8145,-49.1583,-4.21479,6.54253,-63.762,-42.7371,-7.62531,-0.9365,64.298,40.2263,7.84333,0.66834,44.0537,45.961,4.54273,-5.88483,-45.5048,-48.9458,-4.20626,6.54201,-63.3057,-42.6506,-7.60324,0.0216897,-0.229957,-1.45459,0.034419,0.166696,-1.8312,-0.0197152,-0.158482,1.84652,-0.0611452,0.179461,1.50881,0.0118086,0.0054004,-1.42416,0.0291107,0.326289,-1.7299,-0.0260725,-0.316732,1.74421,-0.0353807,-0.0477693,1.46584,-3.93042,-2.27459,2.1074,3.81266,0,0,0,0,
-0.825604,65.4788,40.6521,7.92796,0.656712,44.7839,46.2333,4.57156,-5.88828,-46.2898,-49.6925,-4.25206,6.50874,-64.3657,-43.2241,-7.71256,-0.833292,64.5639,40.6934,7.91088,0.679307,44.2321,46.0291,4.56717,-5.91149,-45.725,-49.3961,-4.24274,6.48081,-63.5122,-43.2067,-7.69092,0.0213857,-0.227005,-1.45738,0.0341435,0.168648,-1.83172,-0.0193848,-0.160236,1.84733,-0.0607699,0.176728,1.51135,0.0117281,0.0107137,-1.42515,0.0289124,0.329416,-1.72882,-0.0258949,-0.319924,1.74303,-0.0351397,-0.0527939,1.46656,-3.96398,-2.28578,2.12603,3.85628,0,0,0,0,
-0.751613,65.7379,41.2906,8.02931,0.705744,44.9192,46.218,4.62654,-5.92819,-46.5194,-50.2063,-4.31041,6.49075,-65.0338,-44.5277,-7.69733,-0.764661,65.2603,41.2401,8.00976,0.720532,44.7095,46.3439,4.59467,-5.93694,-46.219,-50.0082,-4.29862,6.4472,-64.4836,-44.4174,-7.70086,0.0210105,-0.223276,-1.46082,0.0337996,0.171094,-1.83232,-0.0189774,-0.162447,1.8483,-0.0603064,0.173289,1.51453,0.0116477,0.016027,-1.42615,0.0287141,0.332544,-1.72774,-0.0257173,-0.323117,1.74185,-0.0348987,-0.0578186,1.46727,-4.01466,-2.31327,2.1552,3.84866,0,0,0,0,
-0.715297,66.3627,41.7169,8.10869,0.695384,45.6461,46.8988,4.5661,-5.97255,-46.9282,-50.692,-4.36004,6.50882,-65.7419,-44.5402,-7.76227,-0.703642,65.902,41.6665,8.08644,0.713758,45.0701,46.6553,4.5676,-5.95959,-46.6414,-50.4151,-4.34586,6.484,-64.8681,-44.6366,-7.74533,0.0207135,-0.22026,-1.46355,0.0335279,0.17304,-1.83277,-0.0186557,-0.164231,1.84904,-0.0599445,0.170536,1.51705,0.0115673,0.0213402,-1.42715,0.0285158,0.335671,-1.72665,-0.0255397,-0.326309,1.74067,-0.0346577,-0.0628433,1.46799,-4.05435,-2.28305,2.18002,3.88114,0,0,0,0,
-0.649193,66.5505,42.3597,8.21936,0.696082,45.9225,47.2042,4.58233,-6.0051,-47.1106,-51.1723,-4.42622,6.39789,-66.4331,-45.8409,-7.72923,-0.662473,66.0903,42.3142,8.19903,0.709454,45.6234,47.0398,4.57935,-6.01374,-46.8174,-50.9827,-4.41321,6.40161,-65.6063,-44.9488,-7.8263,0.0203497,-0.216444,-1.46692,0.033194,0.175465,-1.8333,-0.0182574,-0.166484,1.84994,-0.0594932,0.167071,1.52014,0.0114868,0.0266535,-1.42815,0.0283175,0.338799,-1.72557,-0.0253621,-0.329502,1.73949,-0.0344167,-0.0678679,1.4687,-4.10968,-2.29117,2.21311,3.86461,0,0,0,0,
-0.640609,67.1068,42.7594,8.31112,0.65566,46.5184,47.7708,4.56117,-6.04687,-47.4933,-51.6106,-4.48303,6.37673,-67.035,-45.832,-7.81757,-0.624056,66.6646,42.7197,8.2851,0.677212,46.251,47.6952,4.54639,-6.03754,-47.2108,-51.4416,-4.46651,6.37444,-66.1686,-45.8962,-7.79967,0.020064,-0.213355,-1.46959,0.0329332,0.177388,-1.83373,-0.0179425,-0.168304,1.85062,-0.0591323,0.164297,1.52262,0.0114064,0.0319668,-1.42915,0.0281192,0.341926,-1.72449,-0.0251845,-0.332694,1.73831,-0.0341757,-0.0728926,1.46942,-4.15556,-2.28058,2.24151,3.90878,0,0,0,0,
-0.571226,67.2369,43.3462,8.43282,0.657754,46.7147,47.9347,4.60635,-6.04532,-48.027,-52.4073,-4.44494,6.31902,-67.2798,-46.2238,-7.91639,-0.587135,66.7831,43.3091,8.40978,0.67037,46.4183,47.8054,4.59928,-6.05975,-47.7317,-52.311,-4.43298,6.31395,-66.8351,-46.1933,-7.89671,0.0197149,-0.209445,-1.47289,0.0326145,0.179808,-1.8342,-0.0175555,-0.170567,1.85147,-0.0586846,0.16079,1.52564,0.0113259,0.0372801,-1.43015,0.0279209,0.345054,-1.7234,-0.0250069,-0.335887,1.73713,-0.0339346,-0.0779173,1.47013,-4.21641,-2.30318,2.22247,3.95819,0,0,0,0,
-0.522742,67.6599,43.4989,8.55695,0.646531,47.1411,48.2061,4.64189,-6.03732,-48.454,-52.4975,-4.49381,6.33235,-67.8043,-46.5064,-8.00664,-0.535281,67.2202,43.4662,8.53118,0.663672,46.8502,48.0686,4.63256,-6.04937,-48.1542,-52.3861,-4.48234,6.31305,-67.3785,-46.4771,-7.98248,0.0194383,-0.206273,-1.47548,0.0323631,0.181749,-1.83454,-0.0172529,-0.172385,1.85209,-0.0583296,0.157948,1.52802,0.0112455,0.0425934,-1.43115,0.0277226,0.348181,-1.72232,-0.0248293,-0.339079,1.73595,-0.0336936,-0.0829419,1.47085,-4.27848,-2.32094,2.24691,4.00332,0,0,0,0,
-0.473549,68.2172,44.0106,8.63952,0.613125,47.5383,48.509,4.68387,-6.0309,-48.8818,-52.7386,-4.53667,6.31476,-68.2987,-46.7928,-8.10222,-0.470753,67.3316,44.0235,8.62061,0.6476,47.0034,48.2815,4.67331,-6.05587,-48.3301,-52.5067,-4.52633,6.28646,-67.473,-46.8253,-8.07751,0.0191643,-0.203066,-1.47805,0.0321162,0.183697,-1.83486,-0.0169558,-0.174215,1.85267,-0.0579791,0.15507,1.53036,0.0111651,0.0479067,-1.43215,0.0275243,0.351308,-1.72123,-0.0246517,-0.342272,1.73476,-0.0334526,-0.0879666,1.47156,-4.31976,-2.34194,2.26833,4.05111,0,0,0,0,
-0.480882,69.4957,45.6824,8.44018,0.643749,47.648,48.7524,4.74871,-6.08282,-49.2133,-53.0136,-4.55039,6.34313,-68.8175,-47.6147,-8.11089,-0.424013,68.9447,45.8362,8.43692,0.656511,47.3766,48.6209,4.73494,-6.09047,-48.8698,-52.8203,-4.55381,6.31854,-68.3863,-47.683,-8.08632,0.0188253,-0.199101,-1.48134,0.0318107,0.186147,-1.83522,-0.0165884,-0.176518,1.85332,-0.0575478,0.151462,1.53329,0.0110846,0.0532199,-1.43315,0.027326,0.354436,-1.72015,-0.0244741,-0.345464,1.73358,-0.0332116,-0.0929913,1.47228,-4.22009,-2.37436,2.2752,4.05544,0,0,0,0,
-0.445601,70.2087,46.0195,8.39434,0.657317,47.7656,48.9621,4.81564,-6.03338,-49.5199,-53.2387,-4.57406,6.32449,-69.3173,-47.6297,-8.20532,-0.441018,69.6873,45.6075,8.39154,0.675524,47.4928,48.8341,4.80248,-6.07307,-49.2089,-53.1074,-4.56563,6.30594,-68.4865,-47.7086,-8.18389,0.018506,-0.195177,-1.48394,0.0315077,0.188616,-1.83553,-0.016301,-0.178816,1.85392,-0.0571278,0.148544,1.53557,0.0110042,0.0585332,-1.43415,0.0271277,0.357563,-1.71907,-0.0242965,-0.348657,1.7324,-0.0329706,-0.098016,1.47299,-4.19717,-2.40782,2.28703,4.10266,0,0,0,0,
-0.428504,70.8937,46.2787,8.44198,0.652873,48.0726,49.2035,4.87681,-5.97179,-50.2684,-54.0914,-4.53836,6.36277,-69.4267,-47.9003,-8.32108,-0.43485,70.4132,46.3058,8.42776,0.668862,47.8109,49.0738,4.86153,-6.00415,-49.6655,-53.346,-4.61512,6.35732,-69.0045,-47.8967,-8.29884,0.018254,-0.192039,-1.48715,0.031268,0.190606,-1.83575,-0.0159562,-0.180656,1.85437,-0.0567994,0.144849,1.53836,0.0109238,0.0638465,-1.43514,0.0269294,0.360691,-1.71798,-0.0241189,-0.351849,1.73122,-0.0327296,-0.103041,1.47371,-4.22099,-2.4384,2.26918,4.16054,0,0,0,0,
-0.383283,71.5195,46.4004,8.50763,0.633833,48.3717,49.4573,4.93879,-5.88918,-50.5406,-53.9562,-4.63061,6.39848,-70.169,-48.6938,-8.32708,-0.37686,70.6244,46.509,8.49125,0.674142,47.8551,49.2433,4.92355,-5.93578,-50.0012,-53.7793,-4.61439,6.352,-69.3788,-48.864,-8.29333,0.0180045,-0.188879,-1.48967,0.0310308,0.192612,-1.83594,-0.0156926,-0.182496,1.8548,-0.0564765,0.141878,1.54059,0.0108433,0.0691598,-1.43614,0.0267311,0.363818,-1.7169,-0.0239413,-0.355042,1.73004,-0.0324886,-0.108065,1.47442,-4.25381,-2.46939,2.31531,4.16354,0,0,0,0,
-0.381486,71.6532,46.7038,8.6149,0.600707,48.4233,49.6286,5.02161,-5.83468,-50.7105,-54.0046,-4.70636,6.44667,-70.2067,-48.8535,-8.45406,-0.377986,71.2052,46.7186,8.59302,0.628831,48.1635,49.5072,5.00558,-5.86434,-50.4208,-53.8872,-4.69223,6.42158,-69.7961,-48.8559,-8.42906,0.0177011,-0.184888,-1.49275,0.0307414,0.19514,-1.83615,-0.0153766,-0.184819,1.85526,-0.0560848,0.138117,1.54332,0.0107629,0.074473,-1.43714,0.0265328,0.366945,-1.71582,-0.0237637,-0.358234,1.72886,-0.0322476,-0.11309,1.47514,-4.30745,-2.51081,2.35318,4.22703,0,0,0,0,
-0.395831,72.141,46.8684,8.71064,0.550763,48.695,49.8412,5.09144,-5.78251,-51.0791,-54.1964,-4.76806,6.49967,-70.6175,-49.0265,-8.55482,-0.373585,71.7139,46.8855,8.68261,0.566946,48.4472,49.7306,5.07238,-5.79578,-50.8046,-54.0799,-4.75054,6.46019,-70.2262,-49.0327,-8.52716,0.0174658,-0.181658,-1.49517,0.0305172,0.19718,-1.83628,-0.0151341,-0.186694,1.85558,-0.0557803,0.135066,1.54545,0.0106824,0.0797863,-1.43814,0.0263345,0.370073,-1.71473,-0.0235861,-0.361427,1.72768,-0.0320066,-0.118115,1.47585,-4.35532,-2.54572,2.38403,4.27741,0,0,0,0,
-0.394385,72.1579,47.2027,8.84351,0.491574,48.703,49.992,5.18288,-5.72273,-51.1781,-54.341,-4.8531,6.51658,-70.5659,-49.327,-8.69354,-0.390056,71.7308,47.2172,8.81664,0.519209,48.4519,49.879,5.1651,-5.74868,-50.9054,-54.2189,-4.83612,6.49593,-70.1758,-49.3274,-8.66638,0.0171825,-0.177568,-1.49814,0.0302457,0.199754,-1.83641,-0.0148417,-0.189063,1.85592,-0.0554097,0.131196,1.54806,0.010602,0.0850996,-1.43914,0.0261362,0.3732,-1.71365,-0.0234085,-0.36462,1.7265,-0.0317656,-0.123139,1.47657,-4.42175,-2.59144,2.42655,4.34677,0,0,0,0,
-0.398133,72.5826,47.3627,8.94943,0.434694,48.9545,50.1814,5.25558,-5.6693,-51.4909,-54.5372,-4.92401,6.54509,-70.9122,-49.4721,-8.80517,-0.385184,71.7339,47.4636,8.9222,0.475986,48.4541,49.9844,5.23701,-5.70688,-50.9671,-54.3229,-4.90572,6.50373,-70.1231,-49.5399,-8.77863,0.0169624,-0.174253,-1.50048,0.0300361,0.201832,-1.83648,-0.0146167,-0.19098,1.85616,-0.0551186,0.128054,1.55011,0.0105216,0.0904129,-1.44014,0.0259379,0.376328,-1.71256,-0.0232309,-0.367812,1.72531,-0.0315245,-0.128164,1.47728,-4.47471,-2.62779,2.46201,4.40258,0,0,0,0,
-0.416868,72.5057,47.6693,9.10116,0.392353,48.9211,50.2869,5.35267,-5.63031,-51.5136,-54.6436,-5.02295,6.57275,-70.7735,-49.7215,-8.96037,-0.413329,72.0962,47.6902,9.07142,0.41955,48.6776,50.1746,5.33367,-5.65621,-51.2542,-54.5287,-5.00385,6.55395,-70.3992,-49.7309,-8.93119,0.0166983,-0.170053,-1.50335,0.0297811,0.204455,-1.83653,-0.0143437,-0.193406,1.8564,-0.0547637,0.124065,1.55262,0.0104411,0.0957262,-1.44114,0.0257396,0.379455,-1.71148,-0.0230533,-0.371005,1.72413,-0.0312835,-0.133189,1.478,-4.55058,-2.67634,2.51147,4.48019,0,0,0,0,
-0.444651,73.4392,48.4241,9.05806,0.349929,49.1346,50.4308,5.42941,-5.59054,-51.771,-54.8281,-5.10186,6.59152,-71.073,-49.8438,-9.08153,-0.390366,72.9992,48.5543,9.03508,0.37118,48.6457,50.3345,5.41022,-5.62599,-51.2546,-54.6211,-5.08291,6.54821,-70.2926,-49.9175,-9.05187,0.0164907,-0.16669,-1.50566,0.0295829,0.206575,-1.83654,-0.0141325,-0.195374,1.85655,-0.0544838,0.120826,1.55458,0.0103607,0.101039,-1.44214,0.0255413,0.382583,-1.7104,-0.0228757,-0.374197,1.72295,-0.0310425,-0.138213,1.47871,-4.52903,-2.7147,2.55093,4.54076,0,0,0,0,
-0.476248,73.86,48.1378,9.16546,0.324737,49.3145,50.5679,5.51178,-5.52385,-52.0271,-54.9756,-5.18742,6.56471,-71.9338,-50.8758,-9.02141,-0.474385,73.0092,48.3255,9.13887,0.360833,48.8349,50.3743,5.49179,-5.57143,-51.5148,-54.7709,-5.16631,6.54464,-70.7699,-50.4274,-9.11297,0.0162962,-0.163303,-1.50791,0.0293873,0.208715,-1.83652,-0.0139276,-0.197364,1.85667,-0.0542071,0.117564,1.55654,0.0102802,0.106353,-1.44314,0.025343,0.38571,-1.70931,-0.0226981,-0.37739,1.72177,-0.0308015,-0.143238,1.47943,-4.58273,-2.75589,2.59371,4.5107,0,0,0,0,
-0.435477,74.2827,49.1099,9.1574,0.273916,49.2322,50.6169,5.61601,-5.50379,-51.9714,-55.033,-5.29698,6.72694,-72.4464,-50.4197,-9.01514,-0.386481,73.8962,49.3122,9.1188,0.313099,48.9963,50.5225,5.59534,-5.52027,-51.7305,-54.9295,-5.27422,6.6948,-71.9877,-50.5736,-9.00652,0.0160555,-0.159045,-1.51069,0.0291486,0.21142,-1.83645,-0.0136801,-0.199885,1.85676,-0.0538758,0.113533,1.55897,0.0101998,0.111666,-1.44413,0.0251447,0.388837,-1.70823,-0.0225205,-0.380582,1.72059,-0.0305605,-0.148263,1.48014,-4.5787,-2.808,2.64849,4.50757,0,0,0,0,
-0.509428,74.6746,48.9654,9.26583,0.167991,49.4457,50.7218,5.69779,-5.42937,-52.1928,-55.1466,-5.38414,6.81571,-73.5467,-51.4694,-8.88013,-0.475595,73.826,49.115,9.24088,0.22856,48.9477,50.5467,5.6777,-5.47184,-51.691,-54.9585,-5.36251,6.76889,-72.7143,-51.6229,-8.86701,0.0158716,-0.155621,-1.5129,0.0289666,0.213604,-1.83637,-0.0134885,-0.201931,1.85679,-0.0536218,0.110349,1.56094,0.0101194,0.116979,-1.44513,0.0249464,0.391965,-1.70714,-0.0223429,-0.383775,1.71941,-0.0303195,-0.153287,1.48086,-4.63292,-2.8489,2.69207,4.44006,0,0,0,0,
-0.642103,74.6089,49.0977,9.40187,0.0278877,49.3583,50.5267,5.82322,-5.34852,-52.1275,-55.1349,-5.4976,6.85041,-73.5736,-51.3094,-8.97177,-0.614562,74.1994,49.1418,9.37337,0.0746511,49.1652,50.6333,5.78286,-5.38635,-51.8879,-55.039,-5.47494,6.82625,-73.1763,-51.3864,-8.95227,0.015662,-0.151291,-1.51559,0.0287553,0.216357,-1.83621,-0.0132597,-0.204521,1.85678,-0.0533131,0.106333,1.56331,0.0100389,0.122293,-1.44613,0.0247481,0.395092,-1.70606,-0.0221653,-0.386967,1.71823,-0.0300785,-0.158312,1.48157,-4.70094,-2.91161,2.7488,4.48588,0,0,0,0,
-0.715262,74.9672,49.1242,9.51255,-0.0882308,49.8214,50.8531,5.83373,-5.24774,-52.3076,-55.2284,-5.58906,6.89841,-73.945,-51.1918,-9.0576,-0.685937,74.1367,49.2604,9.48341,-0.03332,49.2944,50.6789,5.82281,-5.29512,-51.8153,-55.0432,-5.56661,6.85147,-73.1502,-51.3174,-9.03651,0.0155078,-0.147786,-1.5177,0.0285988,0.218562,-1.83606,-0.0130875,-0.206622,1.85673,-0.0530717,0.103084,1.56513,0.00995848,0.127606,-1.44713,0.0245498,0.39822,-1.70498,-0.0219877,-0.39016,1.71704,-0.0298375,-0.163337,1.48229,-4.75627,-2.91687,2.79453,4.5288,0,0,0,0,
-0.822619,75.2523,49.8257,9.53926,-0.188074,49.9407,50.8081,5.89086,-5.1657,-52.1772,-55.2107,-5.71038,6.96281,-73.8457,-51.1722,-9.18565,-0.777719,74.8358,49.9698,9.51159,-0.153638,49.6738,50.7448,5.87748,-5.20265,-51.9437,-55.1215,-5.68618,6.93322,-73.4668,-51.2255,-9.15954,0.015329,-0.143382,-1.52032,0.0284142,0.22132,-1.83584,-0.0128826,-0.209287,1.85662,-0.0527791,0.0989715,1.56734,0.00987805,0.132919,-1.44813,0.0243515,0.401347,-1.70389,-0.0218101,-0.393352,1.71586,-0.0295965,-0.168361,1.483,-4.76963,-2.94543,2.85519,4.59282,0,0,0,0,
-0.908283,75.5567,49.4696,9.66586,-0.264566,50.3537,51.043,5.90902,-5.07887,-52.348,-55.2657,-5.80436,7.04196,-74.1338,-51.1296,-9.29507,-0.877521,75.1733,49.5951,9.63274,-0.23906,50.1403,51.1209,5.87795,-5.09999,-52.1189,-55.1878,-5.77894,6.99672,-73.7714,-51.1865,-9.26337,0.0152,-0.139831,-1.52237,0.0282743,0.223519,-1.83565,-0.0127287,-0.211447,1.85648,-0.0525522,0.0956389,1.56906,0.00979761,0.138232,-1.44913,0.0241532,0.404475,-1.70281,-0.0216325,-0.396545,1.71468,-0.0293555,-0.173386,1.48372,-4.83293,-2.95451,2.90218,4.64753,0,0,0,0,
-0.96348,76.2782,49.2746,9.76254,-0.357506,50.8116,50.9725,5.97684,-4.99376,-52.7787,-55.4195,-5.88132,7.13993,-74.7951,-51.0492,-9.39381,-0.941798,75.4722,49.4305,9.73103,-0.302629,50.32,50.858,5.9566,-5.04616,-52.2951,-55.2374,-5.85595,7.086,-74.0423,-51.1486,-9.35986,0.0151091,-0.137139,-1.52386,0.0281732,0.225178,-1.83547,-0.0126177,-0.213083,1.85636,-0.0523879,0.0931116,1.57032,0.00971717,0.143546,-1.45013,0.0239549,0.407602,-1.70173,-0.0214548,-0.399737,1.7135,-0.0291144,-0.178411,1.48443,-4.88127,-2.98842,2.94066,4.69691,0,0,0,0,
-0.936667,76.8836,50.2275,9.76556,-0.421503,50.9747,50.6599,6.07505,-4.88947,-52.9062,-55.4805,-5.98495,7.21595,-74.9659,-51.0647,-9.53117,-0.985178,75.7235,49.4479,9.85186,-0.399695,50.5575,50.8405,6.02599,-4.9407,-52.4328,-55.2968,-5.95794,7.16121,-74.2252,-51.1551,-9.49504,0.0149912,-0.133522,-1.52584,0.0280439,0.227403,-1.83519,-0.0124778,-0.215288,1.85617,-0.0521746,0.089701,1.57196,0.00963673,0.148859,-1.45113,0.0237566,0.410729,-1.70064,-0.0212772,-0.40293,1.71232,-0.0288734,-0.183435,1.48515,-4.88278,-3.03752,2.99247,4.76559,0,0,0,0,
-1.06571,76.9619,49.7897,9.94141,-0.536793,51.2887,50.4104,6.13286,-4.77409,-53.0417,-55.5213,-6.09061,7.31678,-75.0963,-51.0871,-9.67784,-1.03741,76.1752,49.9647,9.90376,-0.484553,50.7571,50.2367,6.12576,-4.82641,-52.5663,-55.3469,-6.06375,7.25965,-74.3615,-51.1817,-9.64028,0.0148809,-0.129876,-1.52781,0.0279202,0.229643,-1.83483,-0.0123472,-0.217518,1.85594,-0.0519692,0.0862413,1.57358,0.00955629,0.154172,-1.45213,0.0235583,0.413857,-1.69956,-0.0210996,-0.406122,1.71114,-0.0286324,-0.18846,1.48586,-4.9707,-3.06643,3.04531,4.83892,0,0,0,0,
-1.12389,77.0969,49.7888,10.087,-0.606409,51.6033,50.605,6.16358,-4.68544,-53.1996,-55.4995,-6.18853,7.3926,-75.2083,-51.115,-9.83165,-1.10347,76.7561,49.8392,10.0493,-0.579839,51.3538,50.3979,6.15256,-4.73584,-52.6201,-55.1733,-6.1926,7.34676,-74.4733,-51.2066,-9.7939,0.0147791,-0.126178,-1.52974,0.027802,0.231884,-1.83445,-0.0122241,-0.219775,1.85567,-0.0517715,0.082732,1.57516,0.00947585,0.159486,-1.45312,0.02336,0.416984,-1.69847,-0.020922,-0.409315,1.70996,-0.0283914,-0.193485,1.48657,-5.04352,-3.08179,3.09426,4.91582,0,0,0,0,
-1.1461,77.2079,49.8275,10.2379,-0.678276,51.8377,50.7689,6.21459,-4.62904,-53.4537,-55.6087,-6.25156,7.44471,-75.2664,-51.157,-9.99886,-1.12637,76.8719,49.8793,10.1982,-0.656318,51.6034,50.6766,6.19826,-4.64874,-53.218,-55.5442,-6.23017,7.41147,-74.9592,-51.188,-9.95439,0.014681,-0.12243,-1.53164,0.0276878,0.234134,-1.83407,-0.0121056,-0.222042,1.85538,-0.0515777,0.0791714,1.57671,0.00939541,0.164799,-1.45412,0.0231617,0.420112,-1.69739,-0.0207444,-0.412507,1.70878,-0.0281504,-0.198509,1.48729,-5.11895,-3.1073,3.12578,4.99943,0,0,0,0,
-1.1606,77.2818,49.8503,10.3981,-0.741883,52.0024,50.858,6.28565,-4.56636,-53.7058,-55.6226,-6.31586,7.47377,-75.3017,-51.1905,-10.1682,-1.1416,76.955,49.9108,10.354,-0.722399,51.7839,50.7838,6.2651,-4.58022,-53.4676,-55.5692,-6.29523,7.44231,-75.0001,-51.2304,-10.1237,0.0145851,-0.118628,-1.5335,0.0275767,0.2364,-1.83367,-0.0119912,-0.224322,1.85506,-0.0513854,0.0755579,1.57823,0.00931497,0.170112,-1.45512,0.0229634,0.423239,-1.69631,-0.0205668,-0.4157,1.70759,-0.0279094,-0.203534,1.488,-5.19904,-3.14283,3.15793,5.08411,0,0,0,0,
-1.1495,77.3423,49.8642,10.5572,-0.799588,52.1262,50.8885,6.36722,-4.50402,-54.0631,-55.9822,-6.33811,7.47926,-75.3293,-51.2086,-10.337,-1.14367,76.5787,50.004,10.5184,-0.760851,51.6591,50.7326,6.3464,-4.52926,-53.6433,-56.0494,-6.29289,7.44959,-74.6175,-51.3052,-10.2973,0.0144904,-0.114774,-1.53533,0.027468,0.238687,-1.83324,-0.0118801,-0.226607,1.85472,-0.0511933,0.0718918,1.57972,0.00923453,0.175425,-1.45612,0.0227651,0.426366,-1.69522,-0.0203892,-0.418892,1.70641,-0.0276684,-0.208559,1.48872,-5.27859,-3.18361,3.16905,5.16848,0,0,0,0,
-1.1432,76.8732,49.9322,10.7608,-0.826292,51.9351,50.7509,6.47879,-4.48882,-53.8702,-55.4324,-6.47377,7.37474,-75.1835,-51.92,-10.4306,-1.13835,76.5433,49.9963,10.7207,-0.79851,51.7274,50.6905,6.45597,-4.50599,-53.6378,-55.3948,-6.45281,7.46855,-74.5386,-51.2928,-10.5073,0.0143714,-0.109884,-1.53757,0.0273325,0.241576,-1.83268,-0.0117426,-0.229489,1.85424,-0.0509495,0.0672464,1.58156,0.0091541,0.180739,-1.45712,0.0225668,0.429494,-1.69414,-0.0202116,-0.422085,1.70523,-0.0274274,-0.213583,1.48943,-5.38038,-3.23939,3.23688,5.21531,0,0,0,0,
-1.07296,77.2201,50.4077,10.8282,-0.877723,52.0389,50.7061,6.56961,-4.46304,-53.987,-54.7422,-6.58811,7.49918,-76.041,-51.8664,-10.3659,-1.12514,76.1715,50.0495,10.8799,-0.833057,51.5695,50.5702,6.54698,-4.499,-53.4783,-54.6899,-6.57021,7.46056,-75.213,-52.2309,-10.3458,0.014275,-0.105923,-1.53934,0.027225,0.243913,-1.83219,-0.0116324,-0.231821,1.85376,-0.0507528,0.0635619,1.58307,0.00907366,0.186052,-1.45812,0.0223685,0.432621,-1.69306,-0.020034,-0.425277,1.70405,-0.0271864,-0.218608,1.49015,-5.41411,-3.28481,3.29406,5.18294,0,0,0,0,
-1.2299,77.8023,50.3937,10.7432,-0.930911,51.8397,50.4853,6.69099,-4.45025,-54.0655,-54.6449,-6.6252,7.51896,-76.4212,-52.497,-10.3036,-1.21159,77.3616,50.6731,10.7321,-0.896924,51.6221,50.4416,6.66754,-4.47786,-53.7864,-54.5428,-6.62008,7.49917,-76.0172,-52.5753,-10.2917,0.0141621,-0.101027,-1.54158,0.027093,0.246865,-1.83155,-0.0114926,-0.23475,1.85309,-0.050514,0.0589758,1.58492,0.00899322,0.191365,-1.45912,0.0221702,0.435749,-1.69197,-0.0198564,-0.42847,1.70287,-0.0269454,-0.223633,1.49086,-5.37159,-3.34549,3.3126,5.1518,0,0,0,0,
-1.25408,78.8119,51.4347,10.6068,-0.993805,51.9446,50.3685,6.78649,-4.38655,-54.3608,-54.7284,-6.66405,7.53851,-76.7685,-52.3052,-10.3687,-1.21704,78.4069,51.5834,10.5858,-0.974725,51.7389,50.341,6.76053,-4.42605,-54.1023,-54.6533,-6.65023,7.49169,-75.9842,-52.4576,-10.3507,0.0140759,-0.0971597,-1.54341,0.026991,0.249248,-1.83099,-0.0113841,-0.237094,1.85254,-0.0503223,0.055302,1.58637,0.00891278,0.196679,-1.46012,0.0219719,0.438876,-1.69089,-0.0196788,-0.431662,1.70169,-0.0267043,-0.228657,1.49158,-5.30339,-3.39324,3.33202,5.18435,0,0,0,0,
-1.28931,79.1019,51.0705,10.7038,-1.06542,52.0438,50.2577,6.88465,-4.26468,-54.5992,-54.727,-6.72548,7.62207,-76.9969,-52.1071,-10.4678,-1.27326,78.2909,51.2985,10.6792,-1.0166,51.5808,50.1295,6.85988,-4.32102,-54.0979,-54.5671,-6.70818,7.57211,-76.2406,-52.2556,-10.4417,0.0139974,-0.0932704,-1.54518,0.0268912,0.25165,-1.8304,-0.0112828,-0.239447,1.85196,-0.0501359,0.0516019,1.58778,0.00883234,0.201992,-1.46112,0.0217736,0.442004,-1.6898,-0.0195012,-0.434855,1.70051,-0.0264633,-0.233682,1.49229,-5.35191,-3.44232,3.36274,5.23388,0,0,0,0,
-1.33484,78.8357,50.8057,10.8482,-1.14582,51.8351,50.0064,7.01109,-4.14838,-54.4894,-54.5211,-6.82823,7.70226,-76.681,-51.9413,-10.6137,-1.32317,78.4674,50.9301,10.8196,-1.10958,51.6271,49.9648,6.98641,-4.18988,-54.26,-54.4721,-6.80675,7.67237,-76.3468,-52.0284,-10.5837,0.0139044,-0.0883634,-1.54731,0.0267717,0.254681,-1.82963,-0.0111671,-0.242407,1.8512,-0.0499111,0.0469287,1.58948,0.0087519,0.207305,-1.46212,0.0215753,0.445131,-1.68872,-0.0193236,-0.438048,1.69933,-0.0262223,-0.238707,1.49301,-5.42412,-3.50555,3.41412,5.30685,0,0,0,0,
-1.37081,79.0233,50.566,10.9689,-1.23562,51.9167,49.8923,7.11109,-4.04201,-54.6238,-54.4188,-6.91727,7.76763,-76.7999,-51.7509,-10.7384,-1.34917,78.2339,50.7673,10.9382,-1.18619,51.4581,49.7702,7.08615,-4.09146,-54.145,-54.2829,-6.89492,7.71699,-76.0681,-51.9016,-10.7068,0.0138337,-0.0843982,-1.54895,0.0266814,0.257128,-1.82897,-0.0110831,-0.244795,1.85056,-0.0497362,0.0431478,1.59079,0.00867146,0.212618,-1.46311,0.021377,0.448258,-1.68764,-0.019146,-0.44124,1.69814,-0.0259813,-0.243731,1.49372,-5.48447,-3.55554,3.45863,5.36919,0,0,0,0,
-1.44087,78.677,50.3787,11.1318,-1.31089,51.6934,49.6186,7.23676,-3.95827,-54.4358,-54.1238,-7.03801,7.84592,-76.4028,-51.554,-10.9035,-1.41973,78.3296,50.4918,11.098,-1.27881,51.4903,49.586,7.21084,-3.98916,-54.2224,-54.0866,-7.01304,7.8112,-76.0878,-51.6466,-10.868,0.0137516,-0.0793911,-1.55093,0.0265739,0.260212,-1.82812,-0.0109854,-0.247808,1.84971,-0.0495239,0.0383675,1.59236,0.00859102,0.217932,-1.46411,0.0211787,0.451386,-1.68655,-0.0189684,-0.444433,1.69696,-0.0257403,-0.248756,1.49444,-5.56588,-3.61838,3.519,5.45176,0,0,0,0,
-1.47098,78.7888,50.1853,11.2695,-1.39395,51.743,49.5006,7.33843,-3.86857,-54.5166,-53.9796,-7.13894,7.93323,-76.9301,-52.2893,-10.8761,-1.45157,78.0156,50.376,11.2354,-1.3477,51.293,49.3763,7.31295,-3.91183,-54.0521,-53.8529,-7.11369,7.84198,-76.1079,-52.3678,-10.8718,0.0136908,-0.0753412,-1.55247,0.0264918,0.262703,-1.8274,-0.0109122,-0.250243,1.84899,-0.0493586,0.0345208,1.59363,0.00851058,0.223245,-1.46511,0.0209804,0.454513,-1.68547,-0.0187908,-0.447625,1.69578,-0.0254993,-0.253781,1.49515,-5.63474,-3.66922,3.56947,5.43804,0,0,0,0,
-1.53315,78.3684,50.0594,11.453,-1.49763,52.304,50.3826,7.18404,-3.85315,-54.238,-53.6699,-7.27167,7.97006,-76.5819,-51.5082,-11.0512,-1.53154,78.027,50.1595,11.4169,-1.48595,51.9109,50.0989,7.22825,-3.86739,-54.0425,-53.6292,-7.24476,7.9709,-76.2454,-51.6891,-11.0188,0.0136217,-0.0702228,-1.55434,0.0263958,0.265806,-1.82651,-0.0108214,-0.253322,1.84805,-0.0491627,0.0296905,1.59516,0.00843015,0.228558,-1.46611,0.0207821,0.457641,-1.68438,-0.0186132,-0.450818,1.6946,-0.0252583,-0.258805,1.49587,-5.7265,-3.59202,3.63584,5.52559,0,0,0,0,
-1.57328,78.4009,49.8649,11.6034,-1.57828,52.6389,49.6324,7.23278,-3.83312,-54.3091,-53.5201,-7.37391,7.91944,-76.7233,-51.1021,-11.1738,-1.54652,77.6515,50.0576,11.5646,-1.52114,52.1238,49.6879,7.21712,-3.8693,-53.8403,-53.3932,-7.34837,7.89039,-75.9838,-51.2961,-11.1446,0.0135687,-0.0660813,-1.5558,0.026322,0.268244,-1.82581,-0.0107459,-0.255811,1.84726,-0.0489978,0.0257895,1.5963,0.00834971,0.233871,-1.46711,0.0205838,0.460768,-1.6833,-0.0184356,-0.45401,1.69342,-0.0250173,-0.26383,1.49658,-5.80168,-3.61639,3.68695,5.58692,0,0,0,0,
-1.64494,77.8628,49.6868,11.8032,-1.65585,52.6937,48.8386,7.30095,-3.79796,-54.0559,-53.1999,-7.50567,7.88817,-76.3978,-50.8609,-11.3214,-1.63182,77.5454,49.7973,11.7642,-1.62157,52.4335,48.8694,7.28899,-3.82487,-53.8528,-53.1656,-7.47951,7.87281,-76.0876,-51.0735,-11.2806,0.0135101,-0.0608413,-1.55756,0.026235,0.271288,-1.82482,-0.0106508,-0.258953,1.84623,-0.0487847,0.020872,1.59766,0.00826927,0.239185,-1.46811,0.0203855,0.463895,-1.68222,-0.018258,-0.457203,1.69224,-0.0247763,-0.268855,1.4973,-5.9016,-3.65047,3.75283,5.66068,0,0,0,0,
-1.66228,77.856,49.4552,11.96,-1.71785,52.9546,48.5138,7.35097,-3.7382,-54.1082,-53.0326,-7.61001,7.8998,-76.5493,-50.6933,-11.4287,-1.64725,77.1124,49.654,11.9223,-1.67778,52.456,48.4396,7.33807,-3.77593,-53.6483,-52.9077,-7.58396,7.86148,-75.8004,-50.8084,-11.405,0.0134652,-0.0565991,-1.55892,0.0261675,0.273724,-1.82397,-0.0105766,-0.261491,1.84537,-0.048612,0.0169049,1.59871,0.00818883,0.244498,-1.46911,0.0201872,0.467023,-1.68113,-0.0180804,-0.460395,1.69106,-0.0245353,-0.273879,1.49801,-5.97999,-3.67548,3.805,5.71433,0,0,0,0,
-1.61532,77.6886,50.4739,11.8948,-1.73459,52.64,48.0759,7.42921,-3.71781,-53.5232,-52.5286,-7.76631,7.88067,-75.7804,-50.6954,-11.5898,-1.58162,77.132,50.5779,11.924,-1.70535,52.3994,48.0486,7.41726,-3.74087,-53.3185,-52.4977,-7.74103,7.86884,-75.4381,-50.7692,-11.563,0.0133934,-0.0502024,-1.56098,0.0260641,0.277386,-1.82265,-0.0104653,-0.265337,1.84402,-0.0483528,0.0109069,1.60025,0.00810839,0.249811,-1.47011,0.0199889,0.47015,-1.68005,-0.0179028,-0.463588,1.68988,-0.0242942,-0.278904,1.49873,-5.94741,-3.71461,3.88315,5.79491,0,0,0,0,
-1.53554,77.7963,50.7154,11.7756,-1.6512,52.261,47.6349,7.51208,-3.76682,-54.0283,-52.7456,-7.58182,7.80704,-75.6327,-51.6524,-11.5388,-1.55757,77.3407,50.8512,11.7757,-1.64168,52.0247,47.6116,7.49815,-3.79643,-53.74,-52.9211,-7.56874,7.75802,-75.0938,-51.4808,-11.576,0.0133161,-0.0438985,-1.56305,0.0259501,0.28107,-1.82128,-0.0103496,-0.269124,1.84272,-0.0480853,0.00488166,1.60177,0.00802795,0.255125,-1.47111,0.0197906,0.473278,-1.67897,-0.0177252,-0.46678,1.68869,-0.0240532,-0.283929,1.49944,-5.88779,-3.75604,3.79091,5.76941,0,0,0,0,
-1.50769,77.7715,50.2304,11.8342,-1.6714,51.9199,47.0835,7.59088,-3.64611,-53.9918,-51.4569,-7.64178,7.83486,-73.2312,-50.7293,-11.6303,-1.50962,77.3639,50.4132,11.8169,-1.62046,51.6921,47.0692,7.57405,-3.68083,-53.6913,-51.5106,-7.63571,7.95313,-75.3517,-50.9735,-11.6366,0.0132262,-0.0386692,-1.56474,0.0258243,0.284772,-1.81985,-0.0102544,-0.272864,1.84127,-0.0478311,-0.000159665,1.60302,0.00794751,0.260438,-1.4721,0.0195923,0.476405,-1.67788,-0.0175476,-0.469973,1.68751,-0.0238122,-0.288953,1.50016,-5.9171,-3.79544,3.82089,5.81513,0,0,0,0,
-1.52674,76.7687,49.6805,11.9552,-1.68728,51.8422,46.6547,7.71107,-3.57628,-54.0944,-50.6261,-7.70195,7.95674,-75.0955,-50.3773,-11.7112,-1.52069,76.802,49.8608,11.9357,-1.66292,51.6112,46.6508,7.69234,-3.60279,-53.8229,-50.7417,-7.6899,7.93133,-74.7217,-50.4281,-11.6961,0.0131365,-0.0313252,-1.56663,0.0257182,0.28787,-1.81861,-0.0101496,-0.275965,1.83971,-0.0476242,-0.00611105,1.60462,0.00786707,0.265751,-1.4731,0.019394,0.479533,-1.6768,-0.01737,-0.473165,1.68633,-0.0235712,-0.293978,1.50087,-5.97759,-3.85553,3.85097,5.85561,0,0,0,0,
-1.51613,75.2397,49.1753,11.9535,-1.70223,50.8079,45.732,7.80345,-3.54059,-53.2009,-49.7616,-7.76612,7.89122,-73.2965,-49.9078,-11.8458,-1.49459,75.3509,49.2014,12.0626,-1.70062,50.8121,45.8251,7.78972,-3.53962,-53.1913,-49.84,-7.75706,7.88774,-73.3221,-50.0088,-11.828,0.013018,-0.0228887,-1.56924,0.025532,0.29347,-1.81627,-0.0100005,-0.281534,1.83751,-0.0472476,-0.0151473,1.60631,0.00778663,0.271064,-1.4741,0.0191957,0.48266,-1.67571,-0.0171924,-0.476358,1.68515,-0.0233302,-0.299003,1.50159,-5.97673,-3.90173,3.88306,5.92292,0,0,0,0,
-1.48049,75.2913,49.3887,12.0296,-1.70386,50.5282,44.9878,7.89247,-3.53548,-52.9735,-49.1582,-7.832,7.90733,-72.4532,-49.6175,-11.5313,-1.4358,74.8426,49.6833,12.0179,-1.68927,50.2862,45.0088,7.87784,-3.54737,-52.7161,-49.1661,-7.81875,7.87731,-72.1307,-49.737,-11.5698,0.0129256,-0.0165643,-1.57091,0.0254061,0.297203,-1.81465,-0.00990032,-0.285244,1.8358,-0.046997,-0.0212199,1.60747,0.0077062,0.276378,-1.4751,0.0189974,0.485787,-1.67463,-0.0170148,-0.47955,1.68397,-0.0230892,-0.304027,1.5023,-6.01478,-3.94623,3.916,5.76567,0,0,0,0,
-1.59267,73.0402,48.8888,11.0344,-1.7181,49.7374,44.0109,8.00376,-3.47061,-52.2278,-48.132,-7.94359,7.92329,-70.7127,-49.2657,-11.4126,-1.59453,72.6718,49.0471,11.0688,-1.69299,49.489,44.0083,7.99145,-3.50397,-51.9697,-48.129,-7.93,7.90044,-70.3621,-49.3926,-11.4168,0.0128254,-0.00806075,-1.57301,0.0252353,0.30219,-1.81238,-0.00976698,-0.290198,1.83343,-0.0466707,-0.0294113,1.60891,0.00762576,0.281691,-1.4761,0.0187991,0.488915,-1.67355,-0.0168372,-0.482743,1.68279,-0.0228482,-0.309052,1.50302,-5.51721,-4.00188,3.97179,5.70631,0,0,0,0,
-1.62179,65.1066,48.4953,11.0499,-1.71308,48.9224,43.0529,8.10982,-3.48218,-51.5537,-47.2598,-8.01962,7.76606,-70.1518,-49.2234,-11.9567,-1.57034,73.1662,48.6268,10.9989,-1.67647,48.6943,43.0409,8.09693,-3.47573,-51.2814,-47.2672,-8.00917,7.83415,-68.8075,-48.9496,-11.2498,0.0127268,0.000628485,-1.57495,0.0250609,0.307186,-1.81003,-0.00963849,-0.295159,1.83094,-0.0463484,-0.0376471,1.61022,0.00754532,0.287004,-1.4771,0.0186008,0.492042,-1.67246,-0.0166596,-0.485935,1.68161,-0.0226072,-0.314077,1.50373,-5.52496,-4.05491,4.00981,5.97833,0,0,0,0,
-1.50894,70.4552,48.1518,11.1724,-1.67927,48.2498,42.1094,8.20013,-3.44993,-50.7537,-46.0657,-8.13056,7.86872,-69.4766,-49.1633,-11.1483,-1.50061,70.0332,48.3077,11.1745,-1.64283,47.9815,42.1063,8.1898,-3.47989,-50.4921,-46.0692,-8.12008,7.84219,-69.0946,-49.2901,-11.2582,0.0126122,0.00912938,-1.57674,0.0248751,0.312182,-1.80759,-0.00950415,-0.300126,1.82837,-0.0460209,-0.0456374,1.61153,0.00746488,0.292318,-1.4781,0.0184025,0.49517,-1.67138,-0.0164819,-0.489128,1.68043,-0.0223662,-0.319101,1.50445,-5.58622,-4.10006,4.06528,5.57415,0,0,0,0,
-1.49251,70.3514,48.2445,11.6137,-1.73571,47.5945,41.1418,8.29414,-3.46965,-49.9828,-44.9859,-8.22986,7.86063,-68.475,-48.8411,-10.8035,-1.42309,69.934,48.4118,11.829,-1.69445,47.3269,41.1452,8.28329,-3.4878,-49.7192,-44.9852,-8.21874,7.83834,-68.1286,-49.0033,-10.9289,0.0125017,0.0176074,-1.57844,0.0246989,0.317161,-1.80507,-0.0093697,-0.305101,1.82569,-0.0457065,-0.0536168,1.61273,0.00738444,0.297631,-1.4791,0.0182042,0.498297,-1.6703,-0.0163043,-0.49232,1.67924,-0.0221252,-0.324126,1.50516,-5.80683,-4.14707,4.11493,5.40175,0,0,0,0,
-1.72371,68.3248,47.6221,10.6143,-1.85853,46.5051,39.8315,8.40358,-3.37411,-48.8105,-43.596,-8.34018,7.96212,-66.1272,-48.0958,-10.3393,-1.72329,68.3193,47.7164,10.6522,-1.84027,46.4835,39.8721,8.3987,-3.39067,-48.7988,-43.6862,-8.33012,7.94077,-66.1271,-48.1949,-10.3474,0.01241,0.0270584,-1.58023,0.0245008,0.323359,-1.8018,-0.00922256,-0.311323,1.82222,-0.0453703,-0.0636157,1.61404,0.007304,0.302944,-1.4801,0.0180059,0.501425,-1.66921,-0.0161267,-0.495513,1.67806,-0.0218841,-0.329151,1.50588,-5.30716,-4.20179,4.17009,5.16965,0,0,0,0,
-1.76088,64.5126,46.7213,10.4918,-1.88207,44.4028,37.86,8.49246,-3.28811,-46.5727,-41.2241,-8.46444,7.93795,-62.5484,-46.9293,-10.3315,-1.75925,64.4433,46.8592,10.5004,-1.86744,44.3665,37.9427,8.488,-3.30676,-46.5401,-41.321,-8.45917,7.93085,-62.4908,-47.0579,-10.3312,0.0123002,0.0437189,-1.58294,0.024234,0.332568,-1.79678,-0.00900244,-0.320615,1.81681,-0.0448204,-0.0785905,1.61556,0.00722356,0.308257,-1.48109,0.0178076,0.504552,-1.66813,-0.0159491,-0.498705,1.67688,-0.0216431,-0.334175,1.50659,-5.24588,-4.24623,4.23222,5.16574,0,0,0,0,
-1.66358,59.7177,44.7847,10.4291,-1.77019,41.6887,34.6471,8.04576,-3.41383,-42.6078,-37.092,-8.4489,7.66232,-56.9762,-44.3229,-10.2781,-1.6229,59.6094,44.9726,10.7003,-1.75312,41.575,34.7138,8.06678,-3.42162,-42.5306,-37.1668,-8.45254,7.66517,-56.8327,-44.4719,-10.2891,0.0121153,0.0697345,-1.58578,0.0237856,0.347857,-1.78787,-0.00867952,-0.336326,1.80695,-0.0439654,-0.103667,1.61676,0.00714312,0.313571,-1.48209,0.0176093,0.507679,-1.66704,-0.0157715,-0.501898,1.6757,-0.0214021,-0.3392,1.50731,-5.21453,-4.02288,4.22445,5.13903,0,0,0,0,
-1.74821,55.3359,42.379,9.08251,-1.78915,38.7829,31.2006,7.4688,-3.30433,-40.7095,-34.2012,-7.86615,7.67264,-54.4609,-42.8379,-9.09031,-1.74337,55.1415,42.5378,9.0952,-1.76386,38.7235,31.2234,7.51079,-3.32256,-40.5835,-34.2452,-7.88496,7.66202,-54.284,-42.9734,-9.11061,0.0119333,0.0940789,-1.58708,0.0233449,0.361757,-1.77851,-0.00833194,-0.350865,1.79713,-0.0431056,-0.126046,1.61685,0.00706268,0.318884,-1.48309,0.017411,0.510807,-1.66596,-0.0155939,-0.505091,1.67452,-0.0211611,-0.344225,1.50802,-4.54125,-3.7344,3.93307,4.54516,0,0,0,0,
-1.83862,52.6349,40.2848,8.97699,-1.9139,36.348,29.6157,7.37677,-3.23353,-38.5595,-31.727,-7.40513,7.65593,-51.6792,-40.9602,-8.72581,-1.82218,52.4281,40.4287,8.97901,-1.89167,36.3045,29.6376,7.38112,-3.23858,-38.5079,-31.7376,-7.44564,7.64048,-51.5064,-41.1015,-8.75003,0.0118532,0.112375,-1.587,0.0230664,0.373516,-1.7711,-0.00814081,-0.36203,1.78901,-0.042528,-0.144131,1.61609,0.00698225,0.324197,-1.48409,0.0172127,0.513934,-1.66488,-0.0154163,-0.508283,1.67334,-0.0209201,-0.349249,1.50874,-4.4885,-3.68839,3.70257,4.36291,0,0,0,0,
-1.96505,49.8116,38.4982,8.93034,-2.12913,33.636,27.7781,6.67338,-3.16522,-35.6945,-30.0354,-7.15524,7.62086,-48.8436,-39.0506,-8.65088,-1.96017,49.5887,38.6256,8.93607,-2.10605,33.5399,27.7764,6.69625,-3.17508,-35.648,-30.0756,-7.26405,7.6103,-48.6038,-39.1383,-8.62785,0.0118311,0.130878,-1.58608,0.0228971,0.385233,-1.76356,-0.00798343,-0.374323,1.7803,-0.0419706,-0.161716,1.61448,0.00690181,0.329511,-1.48509,0.0170144,0.517062,-1.66379,-0.0152387,-0.511476,1.67216,-0.0206791,-0.354274,1.50945,-4.46517,-3.33669,3.57762,4.32544,0,0,0,0,
-2.05738,48.5614,37.9612,8.08536,-2.23663,31.5702,26.4901,6.52789,-2.85339,-33.0941,-28.1904,-6.58231,7.77191,-47.0813,-38.0185,-8.29392,-2.04253,48.3015,38.0742,8.11345,-2.20792,31.4379,26.4662,6.53706,-2.89147,-33.0293,-28.2179,-6.67172,7.74231,-46.8885,-38.1337,-8.43812,0.0118212,0.148742,-1.585,0.022771,0.397162,-1.7561,-0.00790628,-0.386497,1.77201,-0.0414583,-0.17903,1.61253,0.00682137,0.334824,-1.48609,0.0168161,0.520189,-1.66271,-0.0150611,-0.514668,1.67097,-0.0204381,-0.359299,1.51017,-4.04268,-3.26395,3.29116,4.14696,0,0,0,0,
-2.3397,46.9808,37.3881,8.00907,-2.55963,30.2749,26.2357,6.46065,-2.59029,-31.604,-27.3299,-6.57623,8.02652,-45.5935,-37.3687,-7.80143,-2.32476,46.6689,37.369,8.05472,-2.51307,30.1035,25.7968,6.53486,-2.60217,-31.4661,-27.2823,-6.58041,8.0176,-45.3472,-37.4312,-7.82325,0.0119381,0.164157,-1.58392,0.022765,0.407696,-1.74971,-0.00797641,-0.397322,1.76488,-0.0411566,-0.193762,1.61086,0.00674093,0.340137,-1.48709,0.0166178,0.523316,-1.66162,-0.0148835,-0.517861,1.66979,-0.0201971,-0.364323,1.51088,-4.00453,-3.23033,3.28811,3.90071,0,0,0,0,
-2.63958,45.3996,36.2967,7.5613,-2.85201,29.6696,25.8511,5.85143,-2.48283,-30.4563,-27.7989,-6.14184,8.1667,-43.8641,-37.1821,-7.38957,-2.63204,45.1415,36.4785,7.5694,-2.82806,29.5227,25.7846,5.8714,-2.45506,-30.2527,-27.8127,-6.16886,8.14762,-43.625,-37.2215,-7.40678,0.0121616,0.177133,-1.58296,0.0228777,0.416317,-1.74484,-0.00808928,-0.406506,1.75923,-0.0409891,-0.206371,1.60952,0.00666049,0.34545,-1.48809,0.0164195,0.526444,-1.66054,-0.0147059,-0.521053,1.66861,-0.0199561,-0.369348,1.5116,-3.78065,-2.92572,3.07092,3.69479,0,0,0,0,
-2.73766,43.6862,36.7258,7.10308,-2.9829,28.4531,26.0214,5.43758,-2.39469,-29.6918,-27.6412,-5.57851,8.23316,-42.8527,-38.1839,-6.65698,-2.73051,43.4199,36.7707,7.11981,-2.95995,28.3038,25.9311,5.45398,-2.41224,-29.538,-27.5617,-5.5964,8.22021,-42.5726,-38.2344,-6.68169,0.0124047,0.189882,-1.58232,0.0230279,0.424666,-1.74056,-0.00819361,-0.415201,1.75452,-0.0408632,-0.218623,1.60888,0.00658005,0.350764,-1.48909,0.0162212,0.529571,-1.65946,-0.0145283,-0.524246,1.66743,-0.0197151,-0.374373,1.51231,-3.55154,-2.71879,2.78925,3.32849,0,0,0,0,
-2.79372,42.9364,37.8199,6.32696,-3.0839,27.1561,26.5156,5.06298,-2.25294,-28.392,-27.9153,-5.17947,8.37384,-41.5027,-38.6208,-6.18741,-2.78766,42.634,37.8722,6.34986,-3.06378,27.008,26.4201,5.07767,-2.27465,-28.238,-27.8144,-5.19516,8.36018,-41.2371,-38.5395,-6.20432,0.012638,0.202129,-1.58256,0.0231746,0.43286,-1.73704,-0.00828235,-0.423639,1.75062,-0.0407486,-0.230311,1.60879,0.00649961,0.356077,-1.49008,0.0160229,0.532699,-1.65837,-0.0143507,-0.527438,1.66625,-0.019474,-0.379397,1.51303,-3.16348,-2.53149,2.58973,3.0937,0,0,0,0,
-2.92926,41.8547,38.2693,5.90437,-3.24161,26.0661,27.7626,4.63435,-2.15568,-27.2613,-28.5424,-4.83686,8.49834,-40.4665,-39.2648,-5.72334,-2.92538,41.5674,38.3045,5.91945,-3.23536,25.8783,27.6201,4.66649,-2.16971,-27.1081,-28.4311,-4.84986,8.48781,-40.1948,-39.271,-5.73886,0.0128529,0.212938,-1.58323,0.0233221,0.440337,-1.7345,-0.00838707,-0.431303,1.74744,-0.0406911,-0.2408,1.60925,0.00641917,0.36139,-1.49108,0.0158246,0.535826,-1.65729,-0.0141731,-0.530631,1.66507,-0.019233,-0.384422,1.51374,-2.95218,-2.31718,2.41843,2.86167,0,0,0,0,
-3.00361,40.5822,39.0054,5.59501,-3.37166,25.6926,28.3938,4.09035,-2.19532,-26.2277,-29.9317,-4.43225,8.46652,-39.5754,-40.2981,-5.32496,-3.00664,40.2972,39.0356,5.60733,-3.36068,25.5162,28.2996,4.10792,-2.18736,-26.0198,-29.7094,-4.47047,8.45559,-39.2936,-40.2995,-5.33943,0.0130743,0.223221,-1.58434,0.0234809,0.447477,-1.73281,-0.00844198,-0.438882,1.74523,-0.0406058,-0.250659,1.61023,0.00633873,0.366704,-1.49208,0.0156263,0.538954,-1.65621,-0.0139955,-0.533823,1.66389,-0.018992,-0.389447,1.51446,-2.79751,-2.04518,2.21612,2.66248,0,0,0,0,
-2.8332,40.1538,40.3023,4.98235,-3.25557,25.052,29.1176,3.71846,-2.20025,-26.1163,-30.6214,-3.88608,8.4814,-38.5244,-41.3081,-5.03368,-2.83917,39.8126,40.3763,5.00408,-3.24425,24.8832,29.0167,3.73168,-2.21408,-25.9217,-30.5135,-3.90375,8.47162,-38.2453,-41.307,-5.04417,0.013185,0.233313,-1.58597,0.023547,0.453799,-1.7317,-0.00843326,-0.445515,1.74382,-0.0404913,-0.260346,1.6117,0.0062583,0.372017,-1.49308,0.015428,0.542081,-1.65512,-0.0138179,-0.537016,1.66271,-0.018751,-0.394471,1.51517,-2.49117,-1.85923,1.94304,2.51684,0,0,0,0,
-2.79784,39.8201,40.8377,4.59484,-3.27423,24.359,29.9659,3.43352,-2.32036,-25.7089,-31.3957,-3.56155,8.37354,-38.6572,-42.7565,-4.41748,-2.79265,39.508,40.8636,4.60691,-3.25197,24.187,29.7919,3.45084,-2.33231,-25.5292,-31.2842,-3.57319,8.37696,-38.2992,-42.8439,-4.44298,0.0131893,0.24213,-1.58788,0.0235233,0.459813,-1.73099,-0.0083575,-0.451551,1.74294,-0.0403289,-0.269028,1.61365,0.00617786,0.37733,-1.49408,0.0152297,0.545208,-1.65404,-0.0136403,-0.540208,1.66152,-0.01851,-0.399496,1.51589,-2.29742,-1.71676,1.78077,2.20874,0,0,0,0,
-2.83788,39.366,41.686,4.31306,-3.3565,24.084,30.792,3.13442,-2.31351,-25.1245,-32.2245,-3.33269,8.42219,-39.0227,-43.6227,-3.90424,-2.83137,39.0484,41.7206,4.32229,-3.33514,23.8998,30.6865,3.14422,-2.3273,-24.9485,-32.1082,-3.34088,8.41351,-38.7008,-43.6794,-3.91447,0.0131907,0.250453,-1.59004,0.0234989,0.465448,-1.7307,-0.0082205,-0.457263,1.74241,-0.0401178,-0.276363,1.6159,0.00609742,0.382643,-1.49508,0.0150314,0.548336,-1.65295,-0.0134627,-0.543401,1.66034,-0.018269,-0.404521,1.5166,-2.15653,-1.56721,1.66635,1.95212,0,0,0,0,
-2.84378,38.9932,42.3685,4.16807,-3.46081,23.7489,32.4031,2.8796,-2.26824,-24.873,-33.0252,-3.09657,8.47471,-38.7602,-44.0154,-3.74152,-2.84627,38.6785,42.3997,4.17417,-3.40002,23.6561,31.4935,2.96518,-2.28482,-24.6935,-32.9141,-3.10528,8.46278,-38.4624,-44.0315,-3.74743,0.0131865,0.257753,-1.59215,0.0234795,0.470307,-1.73067,-0.00810169,-0.462259,1.74225,-0.0399487,-0.283235,1.61796,0.00601698,0.387957,-1.49608,0.0148331,0.551463,-1.65187,-0.0132851,-0.546593,1.65916,-0.018028,-0.409545,1.51732,-2.08403,-1.4398,1.54828,1.87076,0,0,0,0,
-2.81783,38.5468,43.1986,3.98724,-3.44157,23.6343,32.4588,2.73681,-2.28164,-24.4166,-33.7502,-2.92162,8.47381,-38.224,-44.796,-3.62842,-2.81828,38.2307,43.2317,3.99295,-3.42588,23.4486,32.3586,2.74323,-2.29603,-24.2315,-33.6543,-2.9263,8.46315,-37.9287,-44.8049,-3.63318,0.0131588,0.26545,-1.59463,0.0234453,0.475295,-1.73088,-0.00797362,-0.467463,1.74222,-0.0397644,-0.290211,1.62026,0.00593654,0.39327,-1.49708,0.0146349,0.554591,-1.65079,-0.0131075,-0.549786,1.65798,-0.017787,-0.41457,1.51803,-1.99362,-1.36841,1.46081,1.81421,0,0,0,0,
-2.73975,37.9278,43.9036,3.891,-3.41733,23.257,33.1215,2.60607,-2.3229,-24.0508,-34.4944,-2.69354,8.42164,-37.5908,-45.5674,-3.54856,-2.74232,37.6148,43.9404,3.89407,-3.40327,23.0727,33.0277,2.61057,-2.3349,-23.8589,-34.3899,-2.70137,8.41233,-37.2947,-45.5866,-3.55161,0.0130888,0.27319,-1.59736,0.0233701,0.48023,-1.7312,-0.00782351,-0.47283,1.74238,-0.0395424,-0.297339,1.62282,0.0058561,0.398583,-1.49808,0.0144366,0.557718,-1.6497,-0.0129299,-0.552978,1.6568,-0.017546,-0.419595,1.51875,-1.9455,-1.30304,1.34677,1.77428,0,0,0,0,
-2.63099,37.4642,45.2378,3.68884,-3.35042,22.8819,33.6568,2.51516,-2.41722,-23.7247,-35.015,-2.5697,8.34337,-36.9534,-46.1636,-3.50665,-2.62012,37.0451,45.2806,3.72362,-3.34327,22.6996,33.5676,2.51841,-2.43006,-23.5388,-34.9136,-2.57335,8.33254,-36.6559,-46.1775,-3.50797,0.0129618,0.280741,-1.59991,0.0232442,0.484974,-1.73151,-0.00762116,-0.477538,1.74253,-0.0392945,-0.304355,1.62517,0.00577566,0.403897,-1.49908,0.0142383,0.560845,-1.64862,-0.0127523,-0.556171,1.65562,-0.017305,-0.424619,1.51946,-1.84442,-1.25758,1.28485,1.75333,0,0,0,0,
-2.52528,38.3743,44.9189,3.23504,-3.30473,22.4395,34,2.45899,-2.4318,-23.4691,-35.522,-2.48099,8.32949,-36.3973,-46.7177,-3.48801,-2.52609,38.0156,44.9297,3.25384,-3.28865,22.2588,33.9164,2.46085,-2.44698,-23.2726,-35.4195,-2.48389,8.31917,-36.0984,-46.7256,-3.4897,0.0127772,0.287564,-1.6025,0.0230592,0.489584,-1.73176,-0.00739666,-0.482255,1.74268,-0.0390163,-0.311262,1.62756,0.00569522,0.40921,-1.50007,0.01404,0.563973,-1.64754,-0.0125747,-0.559363,1.65444,-0.017064,-0.429644,1.52018,-1.61752,-1.22949,1.2405,1.744,0,0,0,0,
-2.60726,38.5875,45.0396,3.06975,-3.42373,22.1198,34.4051,2.40079,-2.41264,-23.2952,-35.9435,-2.44376,8.38078,-37.3649,-47.2818,-3.01167,-2.59257,38.2535,45.012,3.0813,-3.39613,21.9379,34.19,2.41836,-2.42787,-23.1058,-35.8471,-2.44504,8.36614,-36.9941,-47.437,-3.01685,0.0126246,0.29354,-1.60476,0.0229007,0.493927,-1.73188,-0.00718313,-0.486581,1.74279,-0.0387587,-0.317401,1.62989,0.00561478,0.414523,-1.50107,0.0138417,0.5671,-1.64645,-0.0123971,-0.562556,1.65326,-0.0168229,-0.434669,1.52089,-1.53488,-1.20039,1.22188,1.50583,0,0,0,0,
-2.70288,38.2619,45.1143,3.07887,-3.56269,22.9036,34.5793,2.06013,-2.31434,-23.0097,-36.3176,-2.43781,8.47739,-37.7192,-47.127,-2.87312,-2.69567,37.9394,45.1676,3.07695,-3.54126,22.6374,34.7598,2.0674,-2.33066,-22.8161,-36.2227,-2.43784,8.46137,-37.3976,-47.1704,-2.87383,0.0125426,0.299649,-1.60678,0.0228063,0.497975,-1.73193,-0.00700488,-0.490952,1.74283,-0.0385373,-0.323101,1.63192,0.00553435,0.419836,-1.50207,0.0136434,0.570228,-1.64537,-0.0122195,-0.565748,1.65207,-0.0165819,-0.439693,1.52161,-1.53944,-1.03007,1.2189,1.43656,0,0,0,0,
-2.65152,37.891,45.3151,3.12749,-3.52701,23.5255,34.5859,1.82273,-2.27701,-23.5708,-36.5134,-2.20093,8.53392,-37.6517,-47.2571,-2.9123,-2.64712,37.5725,45.363,3.12594,-3.51897,23.2729,34.864,1.78935,-2.28603,-23.3452,-36.4375,-2.2083,8.52952,-37.3425,-47.291,-2.90935,0.0124714,0.30558,-1.60873,0.0227282,0.501311,-1.73177,-0.00687727,-0.494882,1.74284,-0.0383743,-0.32842,1.63363,0.00545391,0.42515,-1.50307,0.0134451,0.573355,-1.64428,-0.0120419,-0.568941,1.65089,-0.0163409,-0.444718,1.52232,-1.56375,-0.911363,1.10047,1.45615,0,0,0,0,
-2.52727,37.615,45.5194,3.19895,-3.47858,23.653,34.8883,1.78472,-2.34182,-24.3291,-36.5104,-1.96279,8.45612,-37.4288,-47.4197,-3.01118,-2.54009,37.2909,45.566,3.19626,-3.48808,23.4651,34.7058,1.79657,-2.37672,-24.1015,-36.5214,-1.95908,8.44552,-37.1297,-47.4559,-3.00754,0.0123579,0.311328,-1.61046,0.0226091,0.504311,-1.73144,-0.00674101,-0.498134,1.74263,-0.0381861,-0.333561,1.63515,0.00537347,0.430463,-1.50407,0.0132468,0.576483,-1.6432,-0.0118643,-0.572134,1.64971,-0.0160999,-0.449743,1.52304,-1.59948,-0.892362,0.981393,1.50559,0,0,0,0,
-2.3401,37.2289,45.7521,3.29048,-3.34504,23.6778,34.7812,1.83204,-2.48082,-24.5492,-36.3601,-1.92137,8.28773,-36.9878,-47.5747,-3.12655,-2.34751,36.9082,45.8058,3.28645,-3.33866,23.4785,34.7178,1.82967,-2.51841,-24.354,-36.2546,-1.92191,8.28184,-36.6901,-47.609,-3.12284,0.0121572,0.317377,-1.61221,0.0224088,0.50742,-1.731,-0.00651979,-0.501227,1.7422,-0.0379079,-0.339061,1.63664,0.00529303,0.435776,-1.50507,0.0130485,0.57961,-1.64212,-0.0116866,-0.575326,1.64853,-0.0158589,-0.454767,1.52375,-1.64524,-0.916021,0.960687,1.56328,0,0,0,0,
-2.13581,36.788,45.929,3.39554,-3.2065,23.6097,34.7625,1.88835,-2.65567,-24.4393,-36.7294,-1.91038,8.0903,-36.5037,-47.6752,-3.24002,-2.14112,36.4702,45.9892,3.39039,-3.19428,23.4198,34.6945,1.88639,-2.63832,-24.26,-36.5431,-1.91925,8.09318,-36.2058,-47.7129,-3.23658,0.011875,0.323491,-1.61392,0.0221346,0.510554,-1.73045,-0.00622012,-0.504321,1.74159,-0.0375404,-0.344709,1.63804,0.00521259,0.441089,-1.50607,0.0128502,0.582737,-1.64103,-0.011509,-0.578519,1.64735,-0.0156179,-0.459792,1.52447,-1.69777,-0.944176,0.955189,1.62001,0,0,0,0,
-1.93561,36.9589,46.4248,3.23187,-3.04298,23.5259,34.7496,1.94796,-2.81143,-24.3374,-36.5174,-1.97137,7.94567,-36.5985,-47.7206,-3.14035,-1.94458,36.5584,46.5886,3.24413,-3.03461,23.3317,34.6823,1.94541,-2.82732,-24.1379,-36.4392,-1.96881,7.93487,-36.2732,-47.7756,-3.14342,0.0115263,0.329613,-1.61565,0.0217974,0.513733,-1.72979,-0.00585294,-0.507493,1.74084,-0.0371015,-0.350363,1.63936,0.00513215,0.446403,-1.50707,0.0126519,0.585865,-1.63995,-0.0113314,-0.581711,1.64617,-0.0153769,-0.464817,1.52518,-1.61594,-0.973978,0.985684,1.57017,0,0,0,0,
-1.86132,37.7027,45.9964,3.00096,-3.01901,23.3912,34.7119,2.01656,-2.82594,-24.2747,-36.553,-2.02365,7.92618,-36.8514,-47.6294,-3.02893,-1.85755,37.354,46.0703,3.00457,-3.00088,23.199,34.6434,2.01406,-2.84153,-24.079,-36.4709,-2.02094,7.91186,-36.5317,-47.6758,-3.0301,0.0111556,0.335151,-1.61721,0.021433,0.516958,-1.72902,-0.00549726,-0.510717,1.74,-0.0366671,-0.355732,1.64045,0.00505171,0.451716,-1.50807,0.0124536,0.588992,-1.63886,-0.0111538,-0.584904,1.64499,-0.0151359,-0.469841,1.5259,-1.50048,-1.00828,1.01183,1.51447,0,0,0,0,
-1.89601,37.6524,45.8215,3.02989,-3.09569,23.2323,34.7209,2.08415,-2.80199,-24.1802,-36.617,-2.08829,7.94583,-36.6505,-47.508,-3.08439,-1.89354,37.3275,45.8875,3.02667,-3.0777,23.0411,34.6451,2.0812,-2.81875,-23.9854,-36.5376,-2.08509,7.93303,-36.3482,-47.5555,-3.08092,0.0108494,0.340489,-1.6185,0.0211285,0.520239,-1.72818,-0.00518164,-0.513975,1.73911,-0.036278,-0.361021,1.64145,0.00497127,0.457029,-1.50906,0.0122553,0.59212,-1.63778,-0.0109762,-0.588096,1.64381,-0.0148949,-0.474866,1.52661,-1.51494,-1.04208,1.04415,1.5422,0,0,0,0,
-1.91285,37.4503,45.7853,3.13821,-3.15233,23.1195,34.7717,2.1508,-2.76425,-24.1387,-36.7241,-2.15715,7.98946,-36.4042,-47.4305,-3.19673,-1.91039,37.1331,45.8452,3.13353,-3.13616,22.9319,34.6976,2.14839,-2.77972,-23.9452,-36.6435,-2.15345,7.97498,-36.1089,-47.4762,-3.19167,0.0106227,0.345503,-1.6196,0.0209,0.52331,-1.72737,-0.00493519,-0.517011,1.73827,-0.0359656,-0.365984,1.64228,0.00489083,0.462343,-1.51006,0.012057,0.595247,-1.6367,-0.0107986,-0.591289,1.64262,-0.0146539,-0.479891,1.52733,-1.56911,-1.0754,1.07857,1.59836,0,0,0,0,
-1.93174,36.9782,45.789,3.26245,-3.21341,22.9086,34.7853,2.21627,-2.75091,-23.8993,-36.7588,-2.23484,8.00356,-36.382,-47.3196,-3.15785,-1.93144,36.6618,45.853,3.25796,-3.19737,22.7191,34.7179,2.2138,-2.76846,-23.71,-36.6775,-2.23217,7.9906,-36.0704,-47.3794,-3.15607,0.0104198,0.351178,-1.62072,0.0206923,0.526735,-1.72649,-0.00469162,-0.520403,1.73737,-0.0356585,-0.371439,1.64318,0.0048104,0.467656,-1.51106,0.0118587,0.598375,-1.63561,-0.010621,-0.594481,1.64144,-0.0144128,-0.484915,1.52804,-1.63122,-1.10813,1.11742,1.57892,0,0,0,0,
-1.93469,36.9917,45.7676,3.38657,-3.2576,22.9965,34.9226,2.27763,-2.69893,-24.006,-36.9152,-2.30348,8.05682,-36.5629,-47.1903,-3.21854,-1.93383,36.6864,45.8174,3.37892,-3.2422,22.8112,34.8501,2.27348,-2.71505,-23.8227,-36.8348,-2.29925,8.04263,-36.2669,-47.2383,-3.21293,0.0102925,0.355578,-1.62159,0.0205515,0.529345,-1.72574,-0.00453997,-0.522875,1.73663,-0.0354485,-0.375528,1.64376,0.00472996,0.472969,-1.51206,0.0116604,0.601502,-1.63453,-0.0104434,-0.597674,1.64026,-0.0141718,-0.48994,1.52876,-1.69329,-1.13881,1.15174,1.60927,0,0,0,0,
-1.92083,36.3332,45.8332,3.54534,-3.28818,22.7219,34.9272,2.35826,-2.68094,-23.5637,-36.8919,-2.38104,8.06758,-36.2454,-47.1362,-3.24778,-1.92018,36.0222,45.8929,3.54036,-3.27163,22.5335,34.861,2.35558,-2.69641,-23.3797,-36.8157,-2.37871,8.05103,-35.9457,-47.1869,-3.24461,0.0101198,0.361678,-1.62281,0.0203788,0.532904,-1.72479,-0.00433796,-0.526641,1.73559,-0.0351719,-0.381074,1.64448,0.00464952,0.478282,-1.51306,0.0114621,0.604629,-1.63345,-0.0102658,-0.600866,1.63908,-0.0139308,-0.494965,1.52947,-1.77267,-1.17913,1.19052,1.62389,0,0,0,0,
-1.8949,36.5734,45.5011,3.38362,-3.31719,22.4197,34.8162,2.41773,-2.65001,-23.2065,-36.8268,-2.43403,8.09737,-35.681,-46.9983,-3.33731,-1.88771,36.2279,45.5281,3.39534,-3.29366,22.2034,34.8719,2.40722,-2.66191,-23.016,-36.7482,-2.43222,8.08938,-35.3829,-47.0506,-3.33391,0.00995248,0.367915,-1.62398,0.0202033,0.536657,-1.72377,-0.00415758,-0.530507,1.73449,-0.0349287,-0.386964,1.64515,0.00456908,0.483596,-1.51406,0.0112638,0.607757,-1.63236,-0.0100882,-0.604059,1.6379,-0.0136898,-0.499989,1.53019,-1.69181,-1.20887,1.21702,1.66865,0,0,0,0,
-1.90229,36.4259,45.5742,3.30878,-3.34921,22.0672,34.7636,2.44919,-2.5927,-22.9456,-36.7626,-2.47533,8.13981,-35.0929,-46.8768,-3.43937,-1.90245,36.1014,45.6469,3.30712,-3.33453,21.8809,34.6955,2.44802,-2.61612,-22.7168,-36.8159,-2.46453,8.12434,-34.7964,-46.9229,-3.43573,0.00980492,0.373906,-1.62502,0.0200472,0.540446,-1.72266,-0.00399748,-0.534396,1.73335,-0.0346926,-0.392981,1.64575,0.00448864,0.488909,-1.51506,0.0110655,0.610884,-1.63128,-0.00991061,-0.607251,1.63672,-0.0134488,-0.505014,1.5309,-1.65439,-1.22459,1.23767,1.71968,0,0,0,0,
-1.91031,35.873,45.4068,3.39376,-3.38814,22.1827,34.6812,2.30437,-2.63065,-22.6757,-36.8335,-2.50689,8.10814,-34.4755,-46.7668,-3.55297,-1.9115,35.5567,45.4771,3.39064,-3.37478,21.965,34.6397,2.31141,-2.64302,-22.4813,-36.7586,-2.50556,8.09602,-34.1762,-46.8089,-3.54949,0.00968192,0.379963,-1.62596,0.0199033,0.544223,-1.72163,-0.00384332,-0.538267,1.73219,-0.0344622,-0.399117,1.6463,0.0044082,0.494222,-1.51606,0.0108672,0.614012,-1.63019,-0.00973301,-0.610444,1.63554,-0.0132078,-0.510039,1.53162,-1.69688,-1.15218,1.25345,1.77649,0,0,0,0,
-1.75561,35.7351,45.3536,3.34134,-3.28968,22.5951,34.4059,2.10666,-2.67345,-23.1558,-36.7688,-2.32991,8.0969,-34.6109,-47.0743,-3.3888,-1.75435,35.3948,45.4497,3.34169,-3.2723,22.3757,34.3344,2.11681,-2.67894,-22.9383,-36.7,-2.33423,8.09662,-34.2153,-47.1889,-3.40875,0.00951832,0.385883,-1.6269,0.0197316,0.547533,-1.72036,-0.00366639,-0.54183,1.73114,-0.0342265,-0.405028,1.6469,0.00432776,0.499536,-1.51706,0.0106689,0.617139,-1.62911,-0.00955541,-0.613636,1.63436,-0.0129668,-0.515063,1.53233,-1.67067,-1.05333,1.16496,1.6944,0,0,0,0,
-1.71405,35.6321,45.332,3.32313,-3.29706,22.891,34.3081,2.02691,-2.75409,-23.6678,-36.6625,-2.14782,7.97998,-35.5802,-46.5535,-3.07264,-1.71152,35.2566,45.5909,3.31022,-3.28707,22.6885,34.2404,2.02743,-2.77117,-23.4512,-36.5855,-2.15361,7.96273,-35.251,-46.6162,-3.07622,0.009334,0.391682,-1.62772,0.0195394,0.550576,-1.71909,-0.00344797,-0.545016,1.72993,-0.0339388,-0.410255,1.64754,0.00424732,0.504849,-1.51805,0.0104706,0.620266,-1.62803,-0.0093778,-0.616829,1.63317,-0.0127258,-0.520088,1.53305,-1.66156,-1.01346,1.07391,1.53632,0,0,0,0,
-1.61074,35.4748,45.2251,3.33457,-3.24389,22.859,34.3223,2.05621,-2.78354,-23.7369,-36.5161,-2.11763,7.94666,-35.4103,-46.3391,-3.0973,-1.61103,35.1476,45.2883,3.33147,-3.23087,22.6638,34.2501,2.05485,-2.79601,-23.5402,-36.4432,-2.11632,7.93719,-35.1059,-46.3848,-3.09475,0.0091147,0.397639,-1.62859,0.0193147,0.553692,-1.71779,-0.00320734,-0.548139,1.72862,-0.0336236,-0.415477,1.64796,0.00416688,0.510162,-1.51905,0.0102723,0.623394,-1.62694,-0.0092002,-0.620021,1.63199,-0.0124848,-0.525113,1.53376,-1.66729,-1.0281,1.05882,1.54865,0,0,0,0,
-1.53286,35.1171,45.2292,3.42831,-3.21417,22.7608,34.406,2.11106,-2.84104,-23.5905,-36.5068,-2.15787,7.88972,-35.0202,-46.2743,-3.19616,-1.53478,34.7992,45.2951,3.42394,-3.20057,22.5686,34.3329,2.10916,-2.85116,-23.3961,-36.4304,-2.15682,7.88133,-34.7215,-46.3162,-3.19256,0.00888869,0.403407,-1.62948,0.0190852,0.556742,-1.71662,-0.002956,-0.551206,1.72734,-0.0333107,-0.420641,1.64837,0.00408645,0.515475,-1.52005,0.010074,0.626521,-1.62586,-0.00902259,-0.623214,1.63081,-0.0122438,-0.530137,1.53448,-1.71416,-1.05553,1.07893,1.59808,0,0,0,0,
-1.43049,34.5382,45.2399,3.54493,-3.16451,22.5463,34.4798,2.17191,-2.91468,-23.3151,-36.508,-2.2056,7.80489,-34.4493,-46.255,-3.29769,-1.43207,34.2212,45.3025,3.54155,-3.15253,22.3559,34.4085,2.16994,-2.92519,-23.1249,-36.43,-2.20375,7.79714,-34.152,-46.2978,-3.29344,0.00863651,0.409551,-1.63037,0.018832,0.560011,-1.71547,-0.00269405,-0.554536,1.72604,-0.0329627,-0.42624,1.64884,0.00400601,0.520789,-1.52105,0.00987567,0.629649,-1.62478,-0.00884499,-0.626406,1.62963,-0.0120027,-0.535162,1.53519,-1.77247,-1.08596,1.1028,1.64885,0,0,0,0,
-1.33524,33.9969,45.2136,3.66224,-3.117,22.3826,34.5839,2.22629,-2.92314,-23.1175,-36.4179,-2.25893,7.78662,-33.8808,-46.2016,-3.40444,-1.33615,33.682,45.278,3.65772,-3.10193,22.1943,34.5116,2.22383,-2.93045,-22.9127,-36.4116,-2.24977,7.78071,-33.5853,-46.2471,-3.40069,0.00837606,0.415602,-1.63129,0.0185726,0.563238,-1.71442,-0.00241206,-0.557866,1.72486,-0.032612,-0.431821,1.64934,0.00392557,0.526102,-1.52205,0.00967737,0.632776,-1.62369,-0.00866739,-0.629599,1.62845,-0.0117617,-0.540187,1.53591,-1.83112,-1.11315,1.12946,1.70222,0,0,0,0,
-1.2697,34.3171,46.1868,3.28672,-3.09515,22.1902,34.609,2.28458,-2.96312,-22.8188,-36.8857,-2.26599,7.79307,-33.3076,-46.1444,-3.50269,-1.28602,34.0456,45.5413,3.37614,-3.08214,22.0003,34.5313,2.28216,-3.00201,-22.6047,-36.8565,-2.26089,7.77288,-33.0186,-46.1915,-3.49836,0.00811647,0.421641,-1.63231,0.0183111,0.566534,-1.7134,-0.00214481,-0.561285,1.72368,-0.0322779,-0.437585,1.64984,0.00384513,0.531415,-1.52305,0.00947907,0.635904,-1.62261,-0.00848978,-0.632791,1.62727,-0.0115207,-0.545211,1.53662,-1.64336,-1.14229,1.13299,1.75134,0,0,0,0,
-1.32778,35.019,45.1087,3.16644,-3.18108,22.0318,34.6162,2.35055,-2.8722,-22.8224,-37.1759,-2.31511,7.88965,-33.0297,-46.0892,-3.61867,-1.32126,34.6853,45.1877,3.16781,-3.16367,21.8478,34.5401,2.34887,-2.90243,-22.6109,-37.0447,-2.3124,7.86522,-32.7441,-46.13,-3.61373,0.00790736,0.426656,-1.63323,0.0180843,0.569512,-1.71244,-0.001958,-0.564445,1.72274,-0.0320322,-0.442753,1.6503,0.00376469,0.536729,-1.52405,0.00928077,0.639031,-1.62152,-0.00831218,-0.635984,1.62609,-0.0112797,-0.550236,1.53734,-1.58322,-1.17527,1.15756,1.80934,0,0,0,0,
-1.4447,34.7157,44.8834,3.19872,-3.32884,22.0093,34.6314,2.25918,-2.73338,-22.7562,-37.4252,-2.36235,8.00422,-32.7665,-46.1013,-3.56696,-1.44139,34.3922,44.9473,3.19655,-3.30927,21.8129,34.574,2.26056,-2.74114,-22.5531,-37.2936,-2.37095,7.99636,-32.4118,-46.1785,-3.5788,0.00775394,0.432128,-1.63404,0.0179231,0.573103,-1.71148,-0.00181021,-0.567898,1.72177,-0.0318266,-0.449002,1.65087,0.00368425,0.542042,-1.52505,0.00908247,0.642158,-1.62044,-0.00813458,-0.639176,1.6249,-0.0110387,-0.555261,1.53805,-1.59936,-1.12959,1.18117,1.78348,0,0,0,0,
-1.3574,34.4145,44.8952,3.2742,-3.2918,21.8687,34.5806,2.24545,-2.87785,-22.9808,-37.2755,-2.29408,7.86686,-33.6034,-46.0728,-3.18361,-1.35923,34.0931,44.9558,3.27055,-3.27862,21.6741,34.5103,2.24506,-2.88824,-22.782,-37.2015,-2.29396,7.85556,-33.269,-46.1285,-3.18948,0.00762284,0.437732,-1.63486,0.0177798,0.576605,-1.71034,-0.00162059,-0.571235,1.72092,-0.0315773,-0.454695,1.65155,0.00360381,0.547355,-1.52605,0.00888417,0.645286,-1.61936,-0.00795697,-0.642369,1.62372,-0.0107977,-0.560285,1.53877,-1.6371,-1.12272,1.14704,1.59181,0,0,0,0,
-1.26961,34.134,44.8772,3.37494,-3.25345,22.0607,34.7617,2.16702,-2.90074,-23.0226,-37.2868,-2.29522,7.83363,-33.7958,-45.8288,-3.17454,-1.26913,33.8159,44.9351,3.36941,-3.24097,21.858,34.687,2.168,-2.90792,-22.8193,-37.1902,-2.2709,7.82385,-33.4895,-45.8777,-3.17165,0.00746203,0.443216,-1.63563,0.0176143,0.579762,-1.70938,-0.00142601,-0.574392,1.71997,-0.031325,-0.459394,1.65204,0.00352337,0.552668,-1.52705,0.00868587,0.648413,-1.61827,-0.00777937,-0.645562,1.62254,-0.0105567,-0.56531,1.53948,-1.68747,-1.08351,1.14761,1.58727,0,0,0,0,
-1.25077,33.6392,44.9061,3.50446,-3.28205,22.2039,34.913,2.1814,-2.84376,-23.1196,-37.4716,-2.24491,7.91405,-33.5107,-45.7136,-3.28176,-1.24842,33.328,44.9633,3.49956,-3.26612,22.0092,34.8337,2.17998,-2.86266,-22.9256,-37.392,-2.24449,7.89899,-33.2182,-45.7604,-3.2762,0.00729747,0.448871,-1.63645,0.0174362,0.582583,-1.70844,-0.00123919,-0.577376,1.71909,-0.0310883,-0.464205,1.65248,0.00344293,0.557982,-1.52804,0.00848758,0.651541,-1.61719,-0.00760177,-0.648754,1.62136,-0.0103157,-0.570335,1.5402,-1.75223,-1.0907,1.12245,1.64088,0,0,0,0,
-1.23622,33.1467,44.9371,3.63126,-3.31631,22.0043,35.0589,2.23648,-2.80358,-22.8552,-37.6185,-2.27971,7.94626,-32.944,-45.5859,-3.40288,-1.23437,32.8359,44.9983,3.62596,-3.30058,21.8125,34.9825,2.2338,-2.81821,-22.6627,-37.5322,-2.27826,7.9324,-32.6516,-45.6353,-3.39856,0.00712643,0.454711,-1.6374,0.0172726,0.585972,-1.70755,-0.00107415,-0.580819,1.71814,-0.0308552,-0.469689,1.65295,0.0033625,0.563295,-1.52904,0.00828928,0.654668,-1.6161,-0.00742416,-0.651947,1.62018,-0.0100747,-0.575359,1.54091,-1.81563,-1.11824,1.13986,1.70144,0,0,0,0,
-1.21595,32.4755,44.9469,3.74404,-3.33624,21.8421,35.1575,2.29724,-2.8291,-22.5769,-37.6863,-2.32502,7.93494,-32.6514,-45.4945,-3.37062,-1.21684,32.1616,45.0118,3.73982,-3.32207,21.6526,35.0805,2.2953,-2.84427,-22.3889,-37.6073,-2.3238,7.92317,-32.3398,-45.5568,-3.37097,0.00696996,0.461209,-1.6384,0.0171025,0.589287,-1.70661,-0.000898675,-0.584235,1.71716,-0.0306333,-0.475545,1.65353,0.00328206,0.568608,-1.53004,0.00809098,0.657795,-1.61502,-0.00724656,-0.655139,1.619,-0.00983365,-0.580384,1.54163,-1.87202,-1.14862,1.16251,1.68531,0,0,0,0,
-1.11344,32.7628,45.4779,3.4804,-3.26516,21.6719,35.61,2.30396,-2.78216,-22.3375,-37.8058,-2.36718,7.98583,-32.3936,-45.2604,-3.42142,-1.1255,32.3324,45.7601,3.48642,-3.26178,21.4485,35.5876,2.30526,-2.80044,-22.142,-37.7228,-2.36588,7.96796,-32.0955,-45.3041,-3.41806,0.00680567,0.467158,-1.63944,0.0169317,0.592518,-1.7058,-0.000738348,-0.587615,1.71625,-0.0304182,-0.480908,1.6539,0.00320162,0.573922,-1.53104,0.00789268,0.660923,-1.61394,-0.00706895,-0.658332,1.61782,-0.00959264,-0.585409,1.54234,-1.7402,-1.15198,1.18359,1.71071,0,0,0,0,
-1.05237,33.4343,44.9493,3.24702,-3.25607,21.7357,35.2028,2.3024,-2.81481,-22.2922,-38.2691,-2.30132,7.93668,-32.2052,-45.2711,-3.42282,-1.05951,33.0902,45.0217,3.24904,-3.24888,21.5482,35.1329,2.30206,-2.80401,-22.0465,-38.3492,-2.29196,7.9317,-31.8944,-45.3062,-3.42269,0.00661126,0.472793,-1.64048,0.0167262,0.595844,-1.7049,-0.000585728,-0.591155,1.71538,-0.0301989,-0.48653,1.65428,0.00312118,0.579235,-1.53204,0.00769438,0.66405,-1.61285,-0.00689135,-0.661524,1.61664,-0.00935163,-0.590433,1.54306,-1.62351,-1.1512,1.15066,1.71141,0,0,0,0,
-0.957669,33.3525,44.7766,3.29381,-3.23655,21.4539,35.6634,2.28499,-2.91946,-22.5218,-38.1074,-2.27097,7.845,-31.9366,-45.2186,-3.50081,-0.960854,33.0289,44.8434,3.28992,-3.20114,21.3965,35.0696,2.33082,-2.93885,-22.3124,-38.04,-2.27208,7.83038,-31.6417,-45.2662,-3.49555,0.00639521,0.478054,-1.64134,0.0165037,0.599077,-1.70395,-0.000368655,-0.594431,1.7145,-0.0299285,-0.491926,1.65475,0.00304074,0.584548,-1.53304,0.00749608,0.667178,-1.61177,-0.00671375,-0.664717,1.61545,-0.00911062,-0.595458,1.54377,-1.64691,-1.1425,1.13549,1.75041,0,0,0,0,
-0.964792,32.9235,44.7356,3.39839,-3.26381,21.6606,35.2808,2.24023,-2.90424,-22.6468,-38.2206,-2.2136,7.85542,-31.8431,-45.1282,-3.41685,-0.964105,32.6064,44.8016,3.39451,-3.24862,21.464,35.2114,2.24161,-2.92067,-22.4474,-38.1378,-2.21337,7.84286,-31.5237,-45.1922,-3.41866,0.0061754,0.483696,-1.64224,0.0162808,0.602525,-1.70291,-0.000142665,-0.597841,1.71361,-0.0296452,-0.497828,1.65537,0.0029603,0.589861,-1.53404,0.00729778,0.670305,-1.61069,-0.00653614,-0.667909,1.61427,-0.00886961,-0.600483,1.54449,-1.6992,-1.12012,1.1068,1.70842,0,0,0,0,
-0.878459,32.5072,44.5877,3.46319,-3.2267,21.5703,35.3245,2.26549,-2.81384,-22.5246,-38.3314,-2.25477,7.91323,-31.7301,-45.0164,-3.3828,-0.894583,32.1776,44.7596,3.44841,-3.20981,21.3774,35.2593,2.26337,-2.82162,-22.3268,-38.2485,-2.25255,7.90139,-31.4173,-45.0436,-3.38776,0.00597821,0.489753,-1.64318,0.0160761,0.605801,-1.70195,7.90255e-05,-0.601098,1.7127,-0.0293867,-0.503343,1.65581,0.00287986,0.595175,-1.53504,0.00709948,0.673433,-1.6096,-0.00635854,-0.671102,1.61309,-0.0086286,-0.605507,1.5452,-1.73159,-1.13275,1.12739,1.6914,0,0,0,0,
-0.892307,32.3671,44.6123,3.43996,-3.2768,21.3878,35.3749,2.31859,-2.87211,-22.311,-38.4787,-2.30998,7.90921,-31.5151,-44.8386,-3.40243,-0.890398,32.0436,44.6827,3.43731,-3.26031,21.2001,35.3005,2.31709,-2.88623,-22.1198,-38.3979,-2.30747,7.89667,-31.2126,-44.8865,-3.39965,0.00578553,0.495527,-1.64409,0.0158745,0.60912,-1.70098,0.000252416,-0.604433,1.7118,-0.0291487,-0.508818,1.65626,0.00279942,0.600488,-1.53604,0.00690118,0.67656,-1.60852,-0.00618094,-0.674294,1.61191,-0.00838759,-0.610532,1.54592,-1.71998,-1.15929,1.15499,1.70122,0,0,0,0,
-0.882137,32.2892,44.4679,3.4761,-3.31119,21.2573,35.4923,2.3741,-2.87562,-22.1852,-38.6515,-2.36417,7.91959,-31.2688,-44.6299,-3.49563,-0.879002,31.9705,44.493,3.4788,-3.2968,21.0721,35.4211,2.37174,-2.88808,-21.9955,-38.5714,-2.36186,7.90504,-30.9736,-44.6795,-3.48972,0.00562471,0.500842,-1.64479,0.0157089,0.612232,-1.7001,0.000416512,-0.607571,1.711,-0.0289337,-0.513919,1.65663,0.00271898,0.605801,-1.53703,0.00670288,0.679687,-1.60743,-0.00600333,-0.677487,1.61073,-0.00814658,-0.615557,1.54663,-1.73805,-1.18705,1.18209,1.74782,0,0,0,0,
-0.856252,32.4146,44.5144,3.54097,-3.32337,21.2156,35.6601,2.43408,-2.84634,-22.2495,-38.8993,-2.42611,7.95833,-31.1416,-44.4927,-3.62261,-0.854656,32.1065,44.5741,3.53473,-3.31854,21.0339,35.587,2.42925,-2.85905,-22.0629,-38.8165,-2.42249,7.94507,-30.8558,-44.54,-3.61561,0.00549643,0.505251,-1.6455,0.0155747,0.614995,-1.69936,0.000557999,-0.610208,1.71032,-0.0287502,-0.518453,1.65693,0.00263855,0.611114,-1.53803,0.00650458,0.682815,-1.60635,-0.00582573,-0.680679,1.60955,-0.00790557,-0.620582,1.54735,-1.77048,-1.21704,1.21305,1.81131,0,0,0,0,
-0.796278,31.4646,45.3541,3.55356,-3.29554,20.7416,35.7042,2.50837,-2.87733,-21.7335,-39.0543,-2.51138,7.92599,-30.3266,-44.3685,-3.77802,-0.781552,31.1012,45.3605,3.57586,-3.28735,20.5629,35.6326,2.50614,-2.89126,-21.5456,-38.9707,-2.50838,7.90972,-30.0318,-44.4193,-3.77361,0.00530158,0.511845,-1.6465,0.0153721,0.618768,-1.6984,0.000746582,-0.614147,1.70945,-0.0285057,-0.524652,1.65735,0.00255811,0.616428,-1.53903,0.00630628,0.685942,-1.60527,-0.00564813,-0.683872,1.60837,-0.00766456,-0.625606,1.54806,-1.77678,-1.25418,1.25569,1.88901,0,0,0,0,
-0.74852,31.6218,44.3609,3.51839,-3.28922,20.3658,36.3897,2.40758,-2.92942,-21.4026,-39.0979,-2.56774,7.89206,-30.4814,-44.8383,-3.47874,-0.732037,31.2972,44.4303,3.51798,-3.27054,20.0758,36.4297,2.42358,-2.9259,-21.2111,-39.0207,-2.56527,7.90094,-30.0766,-45.0745,-3.48069,0.00509918,0.518069,-1.64748,0.0151579,0.622639,-1.69746,0.000950032,-0.61801,1.70856,-0.0282555,-0.530772,1.65794,0.00247767,0.621741,-1.54003,0.00610798,0.68907,-1.60418,-0.00547052,-0.687064,1.60719,-0.00742355,-0.630631,1.54878,-1.75919,-1.20379,1.28387,1.73937,0,0,0,0,
-0.639698,31.5141,44.322,3.4498,-3.25092,21.0673,36.5077,2.11316,-2.96048,-21.9573,-39.5979,-2.20782,7.86363,-30.7953,-44.6679,-3.31388,-0.639321,31.182,44.3912,3.44876,-3.26115,20.7714,35.7115,2.1095,-2.97123,-21.7676,-39.3257,-2.24081,7.85717,-30.4828,-44.6359,-3.34212,0.00491483,0.524157,-1.64837,0.0149638,0.626113,-1.69653,0.00118382,-0.621726,1.7077,-0.0279716,-0.536413,1.65846,0.00239723,0.627054,-1.54103,0.00590969,0.692197,-1.6031,-0.00529292,-0.690257,1.606,-0.00718254,-0.635656,1.54949,-1.7249,-1.05658,1.10391,1.65694,0,0,0,0,
-0.438589,31.2609,44.2139,3.52622,-3.11634,21.6715,35.7373,2.0142,-3.14785,-22.6935,-39.1233,-2.0399,7.67105,-30.7446,-44.1231,-3.36918,-0.444762,30.9373,44.2823,3.52142,-3.10871,21.4666,35.6668,2.01584,-3.15357,-22.4828,-39.0559,-2.04238,7.66762,-30.4335,-44.1733,-3.3658,0.00465964,0.529951,-1.64918,0.0147186,0.629089,-1.69555,0.0014479,-0.62461,1.7068,-0.0276591,-0.541701,1.65887,0.00231679,0.632368,-1.54203,0.00571139,0.695324,-1.60202,-0.00511531,-0.693449,1.60482,-0.00694153,-0.64068,1.55021,-1.76311,-1.0071,1.01995,1.68459,0,0,0,0,
-0.223468,30.8199,44.1704,3.64964,-2.94863,21.7208,35.7795,2.02775,-3.32704,-22.6949,-39.108,-2.04206,7.48707,-30.3476,-43.9967,-3.47396,-0.228249,30.5056,44.2333,3.64406,-2.9392,21.5215,35.7074,2.02605,-3.33635,-22.4937,-39.0237,-2.04131,7.47808,-30.0495,-44.0449,-3.47002,0.00432377,0.535837,-1.65,0.014376,0.631987,-1.69454,0.00181498,-0.627638,1.70574,-0.0272332,-0.547082,1.65927,0.00223635,0.637681,-1.54303,0.00551309,0.698452,-1.60093,-0.00493771,-0.696642,1.60364,-0.00670052,-0.645705,1.55092,-1.82482,-1.01387,1.02103,1.73698,0,0,0,0,
-0.0588988,30.405,43.9823,3.7867,-2.84064,21.6896,35.9202,2.07906,-3.44135,-22.6422,-39.2025,-2.08806,7.37566,-29.9077,-43.8686,-3.59138,-0.0638863,30.0951,44.045,3.78097,-2.83032,21.4982,35.8407,2.07637,-3.44711,-22.448,-39.1239,-2.08586,7.37136,-29.6143,-43.9183,-3.58672,0.00395701,0.541617,-1.65081,0.0140176,0.634825,-1.69361,0.00218599,-0.630509,1.70475,-0.0268045,-0.552406,1.65965,0.00215591,0.642994,-1.54403,0.00531479,0.701579,-1.59985,-0.00476011,-0.699834,1.60246,-0.00645951,-0.65073,1.55164,-1.89335,-1.03953,1.04403,1.79569,0,0,0,0,
0.0594069,30.5924,44.2625,3.62775,-2.75133,21.6292,36.0733,2.1425,-3.51754,-22.6002,-39.3492,-2.15402,7.31379,-29.4915,-43.7581,-3.71073,0.0662358,30.2652,44.1533,3.66013,-2.7338,21.4379,35.9967,2.13999,-3.52651,-22.4018,-39.2669,-2.15171,7.30683,-29.2053,-43.8054,-3.70491,0.0035978,0.547204,-1.65169,0.0136636,0.63763,-1.69276,0.00255288,-0.633358,1.70382,-0.0263875,-0.557681,1.66001,0.00207547,0.648307,-1.54503,0.00511649,0.704707,-1.59876,-0.0045825,-0.703027,1.60128,-0.0062185,-0.655754,1.55235,-1.81388,-1.07125,1.07701,1.85537,0,0,0,0,
0.0264367,31.1794,44.1468,3.43524,-2.83081,21.5473,36.237,2.20679,-3.50197,-22.7444,-39.6176,-2.21591,7.34656,-29.2359,-43.8124,-3.79864,0.0355791,30.8505,44.2228,3.43658,-2.8111,21.3624,36.1636,2.20369,-3.51388,-22.5498,-39.529,-2.21107,7.34041,-28.9026,-44.0006,-3.78467,0.00328781,0.552012,-1.65259,0.0133401,0.640415,-1.692,0.0028733,-0.636007,1.70301,-0.0260391,-0.562634,1.66041,0.00199503,0.653621,-1.54602,0.00491819,0.707834,-1.59768,-0.0044049,-0.706219,1.6001,-0.00597749,-0.660779,1.55307,-1.71762,-1.10339,1.10795,1.89932,0,0,0,0,
-0.0149675,30.7416,43.8033,3.49666,-2.91237,21.199,36.3991,2.27672,-3.5035,-22.5163,-39.8545,-2.31252,7.3547,-28.5607,-43.6073,-3.91197,-0.0102718,30.4235,43.88,3.49405,-2.89546,21.0153,36.3223,2.27503,-3.51569,-22.3213,-39.7656,-2.30826,7.34193,-28.2676,-43.6562,-3.90739,0.00299377,0.557969,-1.65344,0.0130557,0.643753,-1.6911,0.00320757,-0.639394,1.70209,-0.0256405,-0.568944,1.6609,0.0019146,0.658934,-1.54702,0.00471989,0.710962,-1.5966,-0.0042273,-0.709412,1.59892,-0.00573648,-0.665804,1.55378,-1.74833,-1.13836,1.15626,1.95598,0,0,0,0,
-0.067307,30.4155,43.3288,3.59589,-2.99905,20.9417,36.5665,2.32326,-3.54673,-22.3034,-39.9432,-2.40045,7.32807,-29.2031,-43.88,-3.47918,-0.05122,30.0169,43.6832,3.56341,-2.98186,20.7546,36.484,2.32179,-3.5655,-22.1128,-39.8618,-2.39745,7.30912,-28.8566,-43.9159,-3.49683,0.00277964,0.563815,-1.65413,0.0128363,0.647212,-1.69028,0.00353145,-0.642734,1.70123,-0.0252806,-0.574793,1.66157,0.00183416,0.664247,-1.54802,0.00452159,0.714089,-1.59551,-0.00404969,-0.712605,1.59774,-0.00549547,-0.670828,1.5545,-1.79795,-1.16163,1.20022,1.73959,0,0,0,0,
-0.206878,30.1609,43.3948,3.6795,-3.18888,21.0742,36.9288,2.36992,-3.35193,-22.2518,-40.1744,-2.47481,7.54573,-29.5962,-43.5888,-3.37585,-0.196368,29.85,43.4666,3.67327,-3.16375,20.8852,36.8455,2.36709,-3.37356,-22.0684,-40.0914,-2.47031,7.52284,-29.286,-43.6502,-3.37578,0.00266342,0.568809,-1.65469,0.0127123,0.649972,-1.68968,0.00372744,-0.645619,1.70059,-0.0250559,-0.579318,1.66204,0.00175372,0.669561,-1.54902,0.00432329,0.717216,-1.59443,-0.00387209,-0.715797,1.59655,-0.00525446,-0.675853,1.55521,-1.83975,-1.18496,1.23741,1.68792,0,0,0,0,
-0.325949,30.2082,43.1746,3.81101,-3.35853,21.156,37.2971,2.43839,-3.20289,-22.2735,-40.4599,-2.56675,7.70951,-29.8337,-43.2879,-3.4424,-0.318371,29.9049,43.2458,3.80228,-3.34258,20.9737,37.2177,2.43365,-3.22364,-22.0939,-40.3739,-2.56195,7.68269,-29.54,-43.345,-3.43662,0.00262278,0.57319,-1.65517,0.0126685,0.652614,-1.68919,0.00383571,-0.648145,1.69999,-0.0249186,-0.583195,1.66239,0.00167328,0.674874,-1.55002,0.00412499,0.720344,-1.59335,-0.00369449,-0.71899,1.59537,-0.00501345,-0.680878,1.55593,-1.90551,-1.21919,1.28337,1.7212,0,0,0,0,
-0.367748,30.2781,43.1851,3.88533,-3.42015,21.2464,37.5938,2.51152,-3.0949,-22.2595,-40.7111,-2.64758,7.83789,-29.9409,-43.0737,-3.54529,-0.360397,29.9563,43.329,3.87158,-3.40839,21.0712,37.5202,2.50558,-3.10616,-22.083,-40.6321,-2.64118,7.81649,-29.6635,-43.1235,-3.5358,0.00260773,0.577722,-1.65576,0.0126484,0.655166,-1.68876,0.00390229,-0.650777,1.6994,-0.0248244,-0.587187,1.66267,0.00159284,0.680187,-1.55102,0.00392669,0.723471,-1.59226,-0.00351688,-0.722182,1.59419,-0.00477244,-0.685902,1.55664,-1.94267,-1.25576,1.32379,1.77265,0,0,0,0,
-0.419879,30.9349,42.8566,4.01681,-3.52069,21.6348,37.9698,2.58706,-3.06585,-22.5899,-41.0797,-2.72127,7.89408,-30.4862,-43.2677,-3.61027,-0.420274,30.6604,42.9159,4.00158,-3.516,21.4759,37.8856,2.57853,-3.07806,-22.4265,-40.99,-2.71259,7.85809,-30.3394,-42.8647,-3.63798,0.00260091,0.580698,-1.65609,0.0126346,0.656862,-1.68849,0.0039407,-0.652544,1.69903,-0.0247717,-0.589864,1.66291,0.0015124,0.6855,-1.55202,0.00372839,0.726599,-1.59118,-0.00333928,-0.725375,1.59301,-0.00453143,-0.690927,1.55736,-2.00841,-1.29353,1.36064,1.80513,0,0,0,0,
