FengTian-Bit/rl_sar_bitter/src/rl_sar/models/w1/csv_data/csv_standup.csv
joint_tau_cal_0,joint_tau_cal_1,joint_tau_cal_2,joint_tau_cal_3,joint_tau_cal_4,joint_tau_cal_5,joint_tau_cal_6,joint_tau_cal_7,joint_tau_cal_8,joint_tau_cal_9,joint_tau_cal_10,joint_tau_cal_11,joint_tau_cal_12,joint_tau_cal_13,joint_tau_cal_14,joint_tau_cal_15,joint_tau_est_0,joint_tau_est_1,joint_tau_est_2,joint_tau_est_3,joint_tau_est_4,joint_tau_est_5,joint_tau_est_6,joint_tau_est_7,joint_tau_est_8,joint_tau_est_9,joint_tau_est_10,joint_tau_est_11,joint_tau_est_12,joint_tau_est_13,joint_tau_est_14,joint_tau_est_15,joint_pos_0,joint_pos_1,joint_pos_2,joint_pos_4,joint_pos_5,joint_pos_6,joint_pos_8,joint_pos_9,joint_pos_10,joint_pos_12,joint_pos_13,joint_pos_14,joint_pos_target_0,joint_pos_target_1,joint_pos_target_2,joint_pos_target_4,joint_pos_target_5,joint_pos_target_6,joint_pos_target_8,joint_pos_target_9,joint_pos_target_10,joint_pos_target_12,joint_pos_target_13,joint_pos_target_14,joint_vel_3,joint_vel_7,joint_vel_11,joint_vel_15,joint_vel_target_3,joint_vel_target_7,joint_vel_target_11,joint_vel_target_15,
-0.0765306,-0.0203033,-0.120057,0.00259553,-0.0875866,0.00465012,-0.27228,0.00088557,-0.0559516,-0.0152911,0.0292817,0.00240306,-0.0967129,0.0645026,0.0710457,-0.052907,0,0,0,0,0,0,0,0,0,0,0,0,0,0,0,0,-0.672843,-1.10315,8.6378e-06,-0.665975,-1.04583,1.52883e-05,-0.366506,-1.5049,0.443161,-0.870002,-1.67594,0.663937,-0.672843,-1.10315,8.6378e-06,-0.665975,-1.04583,1.52883e-05,-0.366506,-1.5049,0.443161,-0.870002,-1.67594,0.663937,-0.000576785,-0.000196793,-0.000534014,0.0117571,0,0,0,0,
0.139363,0.323892,-0.108297,-0.000533043,0.167912,0.353403,-0.408334,-0.0252035,0.0397705,0.391648,0.0142722,-0.116981,-0.0782964,0.604712,-0.382426,0.03986,-0.0573629,0.199046,0.116017,0.00273607,-0.111562,0.13864,0.130201,-0.0141623,-0.0597791,0.272578,-0.149942,0.060105,0.265335,0.399984,-0.120328,-0.130957,-0.67269,-1.10311,6.64556e-06,-0.665966,-1.0458,2.12188e-05,-0.366314,-1.50487,0.443166,-0.870009,-1.67615,0.664178,-0.672554,-1.10256,8.63567e-06,-0.665934,-1.04525,1.52845e-05,-0.366292,-1.50421,0.443052,-0.869911,-1.67521,0.663773,0.000118454,0.00560077,0.0259958,-0.00885778,0,0,0,0,
0.387539,1.37003,0.169118,-0.000389094,-0.015609,1.3672,0.192081,-0.0421368,0.084648,1.57521,-0.339959,0.070003,0.19764,2.02057,-0.51499,-0.150898,0.190244,1.10343,-0.156869,0.00925467,-0.0942676,1.06379,-0.109616,-0.0173618,0.0299179,1.24058,-0.0511694,-0.0425166,0.046812,1.55777,-0.718921,0.00756359,-0.672446,-1.10306,-9.37609e-06,-0.665904,-1.04577,-1.38631e-05,-0.366022,-1.5048,0.443147,-0.870006,-1.67625,0.664306,-0.671686,-1.10078,8.62928e-06,-0.665811,-1.04351,1.52732e-05,-0.365651,-1.50213,0.442724,-0.869637,-1.67301,0.663282,8.64652e-05,0.00936373,-0.0155562,0.033533,0,0,0,0,
1.14772,3.03851,-0.00293437,-0.000253794,0.0618996,3.02762,0.202482,-0.0175494,0.641283,3.46717,-0.474643,0.00170595,0.415927,4.05663,-0.865509,-0.000177449,0.88072,2.71497,0,-0.0410578,0.0348892,2.5898,-0.123377,-0.0306587,0.401474,3.01122,-0.392714,0.061796,0.651242,3.56447,-0.825894,-0.0139384,-0.672163,-1.10299,-6.33568e-06,-0.665812,-1.04572,-1.41143e-05,-0.365653,-1.50459,0.443024,-0.870013,-1.6762,0.664291,-0.67024,-1.09782,8.61863e-06,-0.665606,-1.04062,1.52544e-05,-0.364583,-1.49867,0.442178,-0.869181,-1.66934,0.662464,5.63987e-05,0.00389987,-0.000379101,3.94332e-05,0,0,0,0,
2.0481,5.81118,-0.0955242,-0.719174,0.395169,5.58227,0.00877934,-0.456652,1.45756,6.08245,-0.643964,0.0385812,1.11468,6.84542,-1.3379,-0.000243938,1.87353,4.8799,0.749488,0.177007,0.22359,4.9685,0.00469718,-0.311998,1.14362,5.46245,-0.501507,0.0254326,0.739925,6.12496,-1.36217,0.0245484,-0.671748,-1.10294,-3.64572e-05,-0.66577,-1.04573,-1.3581e-05,-0.365404,-1.50417,0.442613,-0.870024,-1.67581,0.663906,-0.668219,-1.09367,8.60374e-06,-0.66532,-1.03658,1.5228e-05,-0.36309,-1.49384,0.441414,-0.868543,-1.66421,0.66132,0.159816,0.101478,-0.00857361,5.42084e-05,0,0,0,0,
3.37439,8.3638,-0.0682314,0.127539,0.515047,8.36749,0.0113067,-0.542773,2.29826,8.88385,-0.267817,0.0235835,1.34644,9.70164,-1.08338,-0.00205776,2.94744,7.97861,0.742269,-0.167161,0.435448,7.70017,0.00201935,-0.376659,2.07434,8.06693,-0.171307,0.0146209,1.39593,8.82373,-1.23547,0.021368,-0.671159,-1.10287,-4.21314e-05,-0.665665,-1.04555,-1.57538e-05,-0.3651,-1.50296,0.441441,-0.870011,-1.67438,0.662566,-0.665623,-1.08836,8.58462e-06,-0.664953,-1.03138,1.51942e-05,-0.361172,-1.48763,0.440433,-0.867724,-1.65763,0.65985,-0.0283421,0.120616,-0.00524079,0.000457279,0,0,0,0,
5.03763,11.1818,-0.627793,-0.722005,0.833109,9.70797,0.00325908,-0.191133,3.49568,10.8865,1.20696,0.0291232,1.94983,11.7357,0.202687,0.0363055,4.53695,10.602,0.639172,-0.254045,0.728405,8.91761,0.00667868,-0.139429,3.16748,10.0035,1.28101,0.0226846,1.81864,10.6874,0.167086,-0.000458507,-0.670904,-1.10167,3.49314e-05,-0.665854,-1.04264,-1.25674e-05,-0.364733,-1.49964,0.438461,-0.870001,-1.67061,0.659063,-0.662456,-1.08187,8.5613e-06,-0.664505,-1.02505,1.51529e-05,-0.358832,-1.48006,0.439236,-0.866725,-1.64959,0.658057,0.160446,0.042474,-0.00647182,-0.00806788,0,0,0,0,
6.11026,11.0021,0.583828,-0.000188775,0.289827,9.49583,0.0120068,-0.219284,4.8526,11.6303,4.41713,0.0108316,2.38362,12.5954,2.73329,0.0131427,5.73976,10.3255,-0.55086,-0.341511,0.296756,8.60553,0.00176624,-0.202577,4.54503,10.6251,4.49217,0.0145548,2.32875,11.4771,2.92762,8.67012e-05,-0.669579,-1.09509,-3.02544e-05,-0.665007,-1.03566,-1.3665e-05,-0.364392,-1.49291,0.432513,-0.869817,-1.66347,0.653303,-0.65872,-1.07421,8.53378e-06,-0.663976,-1.01758,1.51042e-05,-0.356072,-1.47112,0.437825,-0.865547,-1.64011,0.655942,4.19501e-05,0.0487298,-0.00240702,-0.00292061,0,0,0,0,
6.75889,10.4993,-0.595393,-0.389281,-1.26222,8.97936,0.00818112,-0.232207,5.82402,11.7105,8.48576,0.0139896,1.88008,13.3318,6.29194,-0.0587715,6.15527,9.32084,0.606289,-0.000273495,-1.33072,7.97001,0.0122439,-0.198282,5.42249,10.5454,8.61613,0.0108685,1.84883,12.0766,6.24685,-0.0414785,-0.666581,-1.0856,3.33604e-05,-0.662196,-1.02666,-1.2876e-05,-0.363076,-1.48325,0.424469,-0.868182,-1.65424,0.645752,-0.654419,-1.0654,8.50211e-06,-0.663367,-1.00898,1.50481e-05,-0.352894,-1.46084,0.4362,-0.86419,-1.6292,0.653508,0.0865069,0.0516016,-0.00310879,0.0130603,0,0,0,0,
7.69252,10.4477,-0.531216,-0.375331,-2.69111,8.68178,0.0178355,-0.266853,7.08056,12.4372,12.7106,0.000348343,1.93969,14.7169,9.45625,-0.275693,7.02659,9.1768,0.542661,-0.0362419,-2.74893,7.58751,0.00587194,-0.242837,6.65379,11.105,12.865,-0.00405263,1.60075,13.2342,9.39863,0.0355734,-0.663207,-1.07555,2.9813e-05,-0.659055,-1.01642,-1.43021e-05,-0.361498,-1.47282,0.41561,-0.866269,-1.6441,0.637465,-0.649558,-1.05544,8.46631e-06,-0.662679,-0.999253,1.49848e-05,-0.349303,-1.44921,0.434363,-0.862656,-1.61686,0.650756,0.0834069,0.0593008,-7.74096e-05,0.0612651,0,0,0,0,
8.68394,11.0208,0.022578,-0.355576,-4.07742,9.35939,0.0058743,-0.0864173,8.43796,14.4568,16.4546,-0.115325,1.50675,17.2612,11.8429,0.0384924,8.19547,9.9289,0,0.000759597,-4.18009,8.13421,0.00194343,-0.120377,7.9931,12.986,16.5148,0.0139235,1.61149,15.5692,12.5617,-0.124701,-0.659793,-1.06558,-3.00033e-05,-0.655997,-1.00672,-1.53894e-05,-0.359889,-1.4631,0.407249,-0.864308,-1.63446,0.629781,-0.644141,-1.04434,8.42642e-06,-0.661913,-0.988419,1.49142e-05,-0.345301,-1.43626,0.432316,-0.860948,-1.60312,0.64769,0.0790168,0.0192038,0.0256277,-0.00855388,0,0,0,0,
9.97496,12.2303,0.0106553,-0.0701064,-5.92453,10.6444,-0.00156204,0.0149979,9.80242,17.086,20.0125,-0.136304,1.36874,20.612,14.8888,-0.0123469,9.22893,10.6617,-0.587194,0.000609061,-6.00103,9.38378,0.288618,0.045552,9.32412,15.3845,20.1088,-0.00975756,1.19844,18.8507,14.8527,6.9481e-05,-0.655912,-1.05537,3.01107e-05,-0.652307,-0.997159,-1.43593e-05,-0.357855,-1.45321,0.39915,-0.862004,-1.6251,0.621943,-0.638174,-1.03211,8.38247e-06,-0.661068,-0.976483,1.48364e-05,-0.340892,-1.42199,0.430061,-0.859065,-1.58798,0.644312,0.0155792,-0.00333287,0.0302899,0.00274376,0,0,0,0,
11.2523,13.2373,-0.00966125,-0.000117437,-7.78754,11.6179,-0.246358,0.17773,11.3845,20.0246,23.8025,-0.0220835,1.13196,24.2196,17.3602,0.0298831,10.3575,11.5494,0.0128546,-0.0539394,-7.82252,10.277,0.00553723,0.125524,10.8356,18.2553,23.9827,0.0146895,0.745928,22.3024,18.0305,-0.346824,-0.651591,-1.04397,-2.59175e-05,-0.648378,-0.986181,1.38973e-05,-0.355711,-1.44289,0.390444,-0.859562,-1.61483,0.613868,-0.631662,-1.01877,8.33451e-06,-0.660147,-0.963459,1.47515e-05,-0.336081,-1.40641,0.427601,-0.857011,-1.57145,0.640625,2.60972e-05,-0.0394954,0.00490745,-0.00664068,0,0,0,0,
12.5007,13.6643,0.550874,0.000172607,-9.85161,11.8915,-0.275681,0.668194,12.8965,22.778,28.2624,-0.134455,0.567748,27.6644,20.6894,0.0724611,11.8311,12.2203,-0.548042,0.0171531,-9.85252,10.2637,0.0225095,0.715065,12.2589,20.7582,28.3772,0.0186192,0.0751419,25.6002,21.5063,-0.0277678,-0.646968,-1.03109,-2.83703e-05,-0.644117,-0.973211,1.56786e-05,-0.353136,-1.43099,0.380819,-0.856562,-1.60314,0.604558,-0.624612,-1.00433,8.28259e-06,-0.659149,-0.949358,1.46596e-05,-0.330873,-1.38955,0.424937,-0.854787,-1.55357,0.636634,-3.83571e-05,-0.148488,0.0298789,-0.0161025,0,0,0,0,
13.5937,14.4926,0.00594557,-0.559711,-9.31556,8.85537,-0.0982265,1.17307,14.7446,25.3738,33.4061,-0.325867,0.605731,31.4794,24.003,0.0531846,12.5414,12.2858,0,0.469297,-9.5605,7.2707,-0.102774,0.444063,14.0368,23.3303,33.671,-0.263037,0.132233,29.3384,24.7037,0.012793,-0.641671,-1.01667,-4.66679e-05,-0.641868,-0.955549,6.34931e-05,-0.350612,-1.41771,0.369822,-0.853742,-1.59045,0.59452,-0.617031,-0.988792,8.22676e-06,-0.658076,-0.934195,1.45608e-05,-0.325272,-1.37142,0.422072,-0.852395,-1.53433,0.632343,0.12438,-0.260683,0.0724149,-0.0118188,0,0,0,0,
10.8385,14.3499,-0.510036,-0.000194783,-6.94032,3.60213,-0.678596,0.0937182,14.6436,28.1361,39.3894,-1.06773,-0.0345655,37.5555,27.0235,0.0698154,9.88885,12.6913,0,-0.114143,-7.08356,1.81024,-0.801912,-0.00098348,13.9332,25.6533,38.656,0.138691,-0.732128,35.1709,26.4353,-0.365688,-0.630884,-1.00094,2.95906e-05,-0.645026,-0.930676,0.00108043,-0.345728,-1.40306,0.357574,-0.85073,-1.57924,0.585961,-0.608927,-0.972185,8.16707e-06,-0.656929,-0.917985,1.44551e-05,-0.319284,-1.35204,0.41901,-0.849838,-1.51377,0.627755,4.32852e-05,-0.0208263,0.237273,-0.0155145,0,0,0,0,
7.69738,13.3976,0.403855,1.0209,-10.3198,5.5773,-0.357305,-0.558408,15.1877,32.1317,43.8986,-1.15422,-0.315576,43.7773,28.1346,0.399289,6.68958,11.6501,-0.35926,0.909951,-10.4311,3.56093,0.0442856,-0.145446,14.4803,29.7376,44.1992,-1.09334,-0.741302,41.3622,28.8848,0.349733,-0.616199,-0.982685,-2.22524e-05,-0.641008,-0.912663,2.42641e-05,-0.339596,-1.38904,0.345787,-0.847122,-1.5686,0.577942,-0.600307,-0.954522,8.10358e-06,-0.65571,-0.900744,1.43428e-05,-0.312915,-1.33142,0.415753,-0.847119,-1.49189,0.622875,-0.226867,0.124091,0.256493,-0.088731,0,0,0,0,
10.7936,13.3806,0.386259,0.169055,-10.5523,6.10382,-0.183309,0.00191599,18.5632,37.2487,47.548,-1.29139,1.10713,48.0237,33.0962,-0.00759927,9.58659,11.0822,-0.369781,0.106332,-10.6588,4.05592,-0.287646,-0.00247606,17.7008,34.7186,47.8565,-1.29387,0.483228,45.2736,34.1508,-0.029558,-0.610255,-0.963049,-1.91683e-05,-0.636397,-0.898265,0.000126245,-0.337352,-1.3755,0.335851,-0.845941,-1.55342,0.566041,-0.591179,-0.93582,8.03636e-06,-0.654418,-0.882488,1.42238e-05,-0.306172,-1.3096,0.412304,-0.844239,-1.46873,0.617708,-0.0375678,-0.000425776,0.286975,0.00168873,0,0,0,0,
11.1157,13.8252,0.630289,0.229052,-8.99964,2.56552,-1.67118,0.000288598,19.3502,41.2323,51.932,-0.772168,-1.01771,52.2053,39.3575,-0.218476,9.86166,11.7833,-0.349311,0.000606491,-9.22563,0.478026,-1.66038,0.000291831,18.593,38.5879,52.2577,-0.76419,-1.24827,49.4142,39.8188,-0.268276,-0.602737,-0.944739,-4.88431e-05,-0.637998,-0.874599,0.00217864,-0.333259,-1.35999,0.325156,-0.841733,-1.53623,0.551138,-0.581553,-0.916098,7.96547e-06,-0.653056,-0.863235,1.40983e-05,-0.29906,-1.28658,0.408667,-0.841203,-1.44431,0.612259,-0.0509005,-6.41328e-05,0.171593,0.0485503,0,0,0,0,
10.8349,14.1622,0.0447973,0.274766,-7.78332,0.866827,-2.50505,-0.00125621,19.8844,44.7462,55.2675,-0.0990258,-3.56522,56.763,46.4502,-0.177021,9.56793,11.6916,0,0.127909,-8.05124,-1.40058,-2.42032,-0.00120643,18.999,42.0042,55.6555,-0.102279,-3.92882,53.8451,46.9451,-0.171544,-0.592243,-0.924597,-1.81584e-05,-0.638426,-0.850621,0.00392936,-0.326475,-1.34229,0.315287,-0.834047,-1.51839,0.534196,-0.571439,-0.895374,7.89098e-06,-0.651624,-0.843006,1.39665e-05,-0.291588,-1.26239,0.404845,-0.838012,-1.41865,0.606533,-0.0610591,0.000279157,0.0220057,0.039338,0,0,0,0,
11.2517,13.6302,-0.248382,0.425486,-8.50083,2.10828,-0.320742,-0.000146446,21.342,47.892,57.2663,-0.0178605,-5.2335,61.342,54.7326,-0.019105,10.1229,10.9924,0,0.856638,-8.77767,-0.293743,-0.249648,-8.36204e-05,20.3775,45.0228,57.7031,-0.0146898,-5.66246,58.2654,55.226,-0.0635215,-0.582223,-0.902729,1.55367e-05,-0.636928,-0.830697,0.0018558,-0.320724,-1.32252,0.307345,-0.827532,-1.49945,0.515048,-0.560846,-0.873669,7.81296e-06,-0.650125,-0.821819,1.38284e-05,-0.283762,-1.23705,0.400843,-0.83467,-1.39177,0.600537,-0.0945525,3.25436e-05,0.00396901,0.00424555,0,0,0,0,
13.0292,10.2427,0.254637,1.0969,-10.8529,5.40346,-0.585434,-1.6593,22.5365,51.5077,58.9912,0.333924,-7.8252,63.9162,64.6688,-0.0298475,11.6844,7.77889,-0.339905,1.59167,-10.989,2.93421,0.0339011,-1.61786,21.5917,48.4934,59.4243,0.329862,-8.15348,60.7613,65.1889,-0.0264563,-0.573144,-0.875936,-1.17081e-05,-0.63174,-0.814089,3.23695e-05,-0.314686,-1.30231,0.300368,-0.820155,-1.47721,0.492835,-0.549785,-0.851005,7.7315e-06,-0.64856,-0.799695,1.36842e-05,-0.27559,-1.2106,0.396663,-0.831181,-1.3637,0.594275,-0.243754,0.368734,-0.0742053,0.00663278,0,0,0,0,
17.175,10.3267,0.119999,0.423238,-10.5583,4.4939,-0.187417,0.00104881,25.1475,54.236,61.1831,1.44574,-9.66204,67.3261,71.956,-0.0429131,15.6114,7.66208,0,0.129455,-10.8766,1.94026,-0.0541709,0.00112492,24.1385,51.1507,61.6292,1.44819,-10.0423,64.0049,72.5863,-0.0428877,-0.568333,-0.850802,-2.92238e-05,-0.629352,-0.791036,6.85901e-05,-0.310126,-1.28022,0.292708,-0.813366,-1.45303,0.472644,-0.538267,-0.827404,7.64667e-06,-0.64693,-0.776657,1.35341e-05,-0.26708,-1.18305,0.392311,-0.827547,-1.33447,0.587755,-0.0940528,-0.000233069,-0.321276,0.00953624,0,0,0,0,
17.4352,10.9032,-0.0404544,9.43721e-05,-10.533,3.72143,-0.483305,-0.00127469,27.6001,55.3225,63.9018,1.94775,-13.0114,74.0314,74.7697,0.275918,16.4127,8.24318,0.383568,0.000168773,-10.6837,1.09715,-0.532108,-0.00139655,26.6122,52.136,64.3516,1.96319,-13.3162,70.5327,75.4998,0.256107,-0.559174,-0.828069,-1.41383e-05,-0.628117,-0.76609,0.000574756,-0.305614,-1.25444,0.283881,-0.804897,-1.43287,0.459281,-0.526303,-0.802889,7.55855e-06,-0.645237,-0.752727,1.33781e-05,-0.258241,-1.15444,0.38779,-0.823772,-1.30412,0.580982,-2.09716e-05,0.000283264,-0.432834,-0.061315,0,0,0,0,
16.6403,10.2874,0.549503,0.33115,-9.29999,2.97037,-1.87158,0.000179703,30.9666,55.1527,66.1219,2.10809,-16.6045,79.7059,76.6732,2.41747,15.5898,7.45579,-0.487486,0.354659,-9.59674,0.239689,-1.7602,0.000101213,29.8965,51.8789,66.6125,2.12373,-16.9575,76.1564,77.4009,2.39205,-0.545836,-0.802237,-3.61844e-05,-0.627977,-0.740219,0.00253441,-0.301699,-1.22537,0.275173,-0.795041,-1.41209,0.449234,-0.513904,-0.777485,7.46724e-06,-0.643482,-0.727929,1.32165e-05,-0.249081,-1.12479,0.383106,-0.819861,-1.27266,0.573963,-0.0735889,-3.9934e-05,-0.468464,-0.537215,0,0,0,0,
15.4246,9.7191,-0.602124,-0.000251804,-8.96644,2.38849,-2.62578,0.000863286,34.6733,54.0331,67.1263,2.25149,-17.7657,81.2687,77.8591,3.31937,13.7727,6.91183,0.121822,0.186422,-9.1662,-0.461482,-2.62159,0.000844082,33.5959,50.6895,67.6685,2.25145,-18.2447,77.8982,78.7833,4.68218,-0.530998,-0.775409,2.80818e-05,-0.62734,-0.713786,0.0040798,-0.298447,-1.19357,0.268202,-0.787569,-1.38467,0.439224,-0.501084,-0.751216,7.37282e-06,-0.641668,-0.702287,1.30494e-05,-0.239609,-1.09413,0.378262,-0.815817,-1.24013,0.566706,5.59565e-05,-0.000191841,-0.500332,-0.737637,0,0,0,0,
12.5031,8.51602,0.0984381,-0.0543706,-8.81475,2.9768,-4.82819,0.000592756,37.2381,51.9007,66.7271,2.49295,-16.1479,77.6954,77.3139,4.20002,11.0064,5.46844,0,-0.000485249,-9.07445,-0.00803012,-4.73369,0.000591758,36.1314,48.4593,67.3113,2.49887,-15.6071,73.5951,75.9286,4.599,-0.514003,-0.746573,-3.29492e-05,-0.625419,-0.688118,0.00673386,-0.29365,-1.15887,0.263065,-0.785665,-1.34742,0.433358,-0.487855,-0.724109,7.27539e-06,-0.639796,-0.675826,1.28769e-05,-0.229835,-1.06249,0.373263,-0.811643,-1.20656,0.559217,0.0120824,-0.000131724,-0.553989,-0.933338,0,0,0,0,
7.58489,6.8254,0.717071,-0.00416152,-8.41852,2.45995,-7.15373,-5.33913e-06,37.4505,50.0453,64.3881,3.02868,-13.2755,70.7318,73.1948,4.74434,6.15317,3.93219,0.0592877,-0.349718,-8.68703,-0.57735,-7.15829,-4.6692e-05,36.398,46.5255,65.0016,3.0472,-14.5343,66.7235,72.4271,4.53401,-0.493058,-0.716374,-4.68538e-05,-0.624229,-0.660712,0.0113464,-0.285066,-1.12374,0.260997,-0.784811,-1.30264,0.431099,-0.474229,-0.69619,7.17504e-06,-0.637868,-0.648573,1.26993e-05,-0.219768,-1.0299,0.368114,-0.807344,-1.17199,0.551503,0.000924783,1.18647e-06,-0.67304,-1.0543,0,0,0,0,
2.44952,5.24208,-0.572965,-0.363616,-7.36385,1.85222,-5.92291,-0.000389726,37.2285,47.1552,59.9264,3.75412,-11.0879,63.1204,66.7532,4.43936,0.934926,2.21554,0.073078,-0.896167,-7.59215,-1.22335,-5.95094,-0.000335284,36.0999,43.5401,60.6327,3.77269,-12.2818,59.5594,69.3196,4.74604,-0.470497,-0.685017,2.77485e-05,-0.623627,-0.631775,0.010558,-0.274579,-1.08579,0.262213,-0.784168,-1.25543,0.431076,-0.460221,-0.667487,7.07187e-06,-0.635885,-0.620555,1.25167e-05,-0.209419,-0.996403,0.362821,-0.802925,-1.13644,0.543573,0.0808036,8.66058e-05,-0.834249,-0.986525,0,0,0,0,
-1.67193,4.02526,-0.0539379,-0.662022,-5.97586,2.63174,-4.74366,-0.000623026,36.5286,43.9141,54.5279,4.55345,-10.7079,56.056,63.1145,4.40536,-3.31647,0.685661,0.0618052,-1.42478,-6.21482,-0.574389,-4.74654,-0.000640554,35.3453,40.1721,55.2604,4.56782,-10.63,52.032,65.5996,4.1725,-0.449087,-0.653643,-2.62836e-05,-0.623917,-0.604053,0.00838601,-0.262973,-1.04667,0.265517,-0.781882,-1.20707,0.429833,-0.445843,-0.638028,6.96598e-06,-0.633851,-0.591799,1.23293e-05,-0.198797,-0.962019,0.357389,-0.79839,-1.09996,0.535435,0.147116,0.00013845,-1.01188,-0.97897,0,0,0,0,
-4.50519,2.30183,-0.0556134,-2.0519,-5.23296,2.98736,-4.34132,-0.000478836,36.6153,39.9073,49.0397,4.81416,-10.9428,50.729,62.2187,3.52687,-6.27671,-0.803025,0.0743632,-0.807892,-5.48214,-0.257608,-4.32888,-0.000491306,35.4052,36.1245,49.7514,4.84912,-10.9069,46.6611,64.7133,3.6715,-0.428816,-0.621084,-2.68938e-05,-0.623432,-0.575588,0.00735851,-0.25181,-1.00532,0.269116,-0.77759,-1.16027,0.424438,-0.431111,-0.607842,6.85748e-06,-0.631766,-0.562333,1.21373e-05,-0.187913,-0.926787,0.351822,-0.793742,-1.06258,0.527095,0.455978,0.000106408,-1.06981,-0.783749,0,0,0,0,
-5.02525,1.01504,-0.710221,-2.61361,-5.26777,3.45331,-4.3823,-0.000391878,38.4506,35.4352,43.5323,4.42682,-12.5459,47.6027,64.948,2.9207,-6.81883,-2.24581,0.108753,-1.64628,-5.53164,0.139146,-4.38831,-0.000432752,37.2063,31.574,44.2424,4.49659,-13.4878,43.4274,67.0359,2.65176,-0.411849,-0.588332,3.40825e-05,-0.62161,-0.546395,0.00730984,-0.24311,-0.962363,0.27263,-0.770006,-1.11552,0.41281,-0.416039,-0.57696,6.74648e-06,-0.629633,-0.532187,1.19408e-05,-0.176777,-0.890742,0.346127,-0.788987,-1.02434,0.518563,0.580802,8.7084e-05,-0.983738,-0.649045,0,0,0,0,
-4.21053,-1.44155,0.917317,-2.23202,-5.94007,4.04869,-4.63048,9.56559e-05,39.7213,28.4553,37.3126,2.82433,-14.079,47.1105,70.4014,2.17187,-6.04995,-4.76021,-0.935333,-3.18216,-6.13614,0.619384,-4.61749,0.000153363,38.5288,24.5305,38.0804,2.82645,-14.3885,42.7508,71.8253,2.2409,-0.397399,-0.553056,-4.40447e-05,-0.618619,-0.516524,0.00757194,-0.23457,-0.915484,0.276722,-0.762605,-1.07507,0.397193,-0.400642,-0.54541,6.63308e-06,-0.627454,-0.50139,1.17401e-05,-0.165401,-0.853918,0.340309,-0.78413,-0.985268,0.509846,0.496005,-2.12569e-05,-0.627628,-0.482637,0,0,0,0,
-1.45959,-3.25775,0.121183,-2.20233,-7.75878,3.52553,-3.16965,0.00122109,34.1808,19.5848,29.4412,1.35596,-16.7348,44.5558,71.4185,2.57581,-3.31284,-6.85737,0.175251,-3.2762,-8.26571,0.015139,-3.01883,0.00121709,33.6329,15.7188,31.0713,1.44058,-17.8076,40.1415,73.7947,2.06206,-0.385175,-0.517995,0.000507206,-0.611842,-0.48346,0.00264056,-0.217678,-0.863487,0.282982,-0.754355,-1.0326,0.383386,-0.384934,-0.513226,6.5174e-06,-0.625231,-0.469974,1.15353e-05,-0.153797,-0.816353,0.334374,-0.779174,-0.945412,0.500954,0.489407,-0.000271354,-0.301324,-0.572403,0,0,0,0,
3.80984,-4.13741,-1.88029,-3.99347,-5.83283,4.07424,-3.27633,0.000709698,31.7163,13.8694,20.4597,0.859471,-14.9518,43.683,70.3922,2.76582,1.9568,-7.61976,0.219114,-4.35988,-6.07526,0.581182,-3.25474,-0.278199,31.0027,9.6603,21.9233,0.864524,-16.0916,39.0946,72.808,2.39282,-0.377724,-0.483576,8.94812e-05,-0.614224,-0.454538,0.00619283,-0.200861,-0.814579,0.290594,-0.749328,-0.989077,0.374702,-0.368932,-0.480438,6.39954e-06,-0.622967,-0.437967,1.13267e-05,-0.141974,-0.778084,0.328328,-0.774126,-0.904808,0.491896,0.887438,-0.000157711,-0.190994,-0.614627,0,0,0,0,
7.95945,-7.69562,0.171235,-4.34099,-8.72493,0.477568,1.0752,-1.14056,20.6462,8.75623,6.6117,0.00297438,-11.019,43.9332,69.5329,3.84017,5.99749,-11.1184,-2.14221,-4.47699,-8.59485,-2.84144,0.598997,-0.0866744,19.8715,4.50389,7.86639,0.00297218,-11.5252,39.2685,71.1617,3.90725,-0.368233,-0.445736,9.57868e-05,-0.608076,-0.417029,0.000468897,-0.173795,-0.767424,0.305712,-0.749617,-0.948323,0.368723,-0.352651,-0.447078,6.27964e-06,-0.620663,-0.405404,1.11145e-05,-0.129946,-0.739147,0.322176,-0.76899,-0.863498,0.482679,0.964665,0.253458,-0.000660972,-0.853371,0,0,0,0,
12.2755,-11.8339,2.2471,-3.95888,-7.57791,3.20866,-0.988294,-0.0977917,7.24894,0.771047,-4.02874,-0.00133382,-2.77023,43.216,66.7315,4.63064,11.2146,-16.1495,-2.26308,-6.59508,-7.96583,-0.586064,-1.21434,-0.471116,6.1517,-3.37763,-3.19128,-0.00124547,-3.27206,38.7534,66.1196,5.07276,-0.359598,-0.404821,-0.000132249,-0.605558,-0.385317,0.00154305,-0.138357,-0.716111,0.320544,-0.756018,-0.905388,0.364172,-0.336108,-0.41318,6.1578e-06,-0.618322,-0.372314,1.08989e-05,-0.117723,-0.699582,0.315925,-0.763771,-0.82152,0.473314,0.87975,0.0217315,0.000296405,-1.02903,0,0,0,0,
13.1412,-15.7538,-4.17578,-6.10113,-10.3767,4.08809,0.212284,-0.375614,7.62841,-5.71798,3.27393,-2.58092,7.7819,45.2192,61.7142,6.65804,11.091,-19.4718,0,-8.16567,-10.8258,0.564916,0.410826,0.000254692,5.90389,-10.0236,3.69192,-2.36794,6.69623,40.6223,62.813,6.67782,-0.346214,-0.363838,0.00027956,-0.600955,-0.354767,1.13813e-05,-0.120021,-0.663813,0.311081,-0.768035,-0.865532,0.361583,-0.319318,-0.378777,6.03414e-06,-0.615946,-0.338732,1.068e-05,-0.105318,-0.659428,0.309581,-0.758474,-0.778917,0.463809,1.35581,0.0834697,0.573537,-1.47957,0,0,0,0,
10.8339,-17.7688,1.27298,-8.40597,-9.50758,7.77341,-7.4839,-0.000834833,14.1781,-15.6013,21.5206,-7.02471,12.6228,45.1846,57.3792,7.86115,8.90029,-21.6392,0,-5.52275,-9.9081,4.07431,-7.36771,-0.000992193,12.6949,-19.941,22.4603,-7.91473,11.6509,40.3479,58.493,7.89409,-0.326971,-0.324112,-0.000281319,-0.597768,-0.325905,0.00939558,-0.116423,-0.608587,0.277554,-0.773766,-0.822843,0.359377,-0.302298,-0.343904,5.90879e-06,-0.613537,-0.30469,1.04581e-05,-0.092744,-0.618725,0.30315,-0.753105,-0.735731,0.454174,1.86799,0.000185518,1.56105,-1.74692,0,0,0,0,
7.43628,-14.4218,-4.52856,-4.55516,-8.63649,5.66182,-6.53776,-0.00101715,17.6717,-14.2285,29.7796,-6.5597,10.5941,45.0916,55.547,8.64181,5.36132,-18.3125,1.14509,-6.70245,-8.93051,1.88683,-6.59728,-0.000904453,16.3528,-18.9347,30.4902,-6.57303,10.2261,40.2614,56.6012,8.68104,-0.303994,-0.292443,0.00021811,-0.596505,-0.290769,0.0118979,-0.111722,-0.56372,0.251242,-0.768044,-0.780127,0.354187,-0.285065,-0.308593,5.78187e-06,-0.611098,-0.270222,1.02335e-05,-0.0800121,-0.577511,0.296638,-0.747668,-0.692005,0.444419,1.01226,0.000226033,1.45771,-1.9204,0,0,0,0,
5.64525,-9.77195,3.2435,-4.6476,-5.33387,4.22596,-4.02366,-0.00204026,16.6402,-3.91832,26.5821,-3.29526,3.92326,42.0456,57.1623,8.49673,2.90503,-13.0904,-3.7702,-2.61487,-5.67853,0.390615,-4.02938,-0.00190701,15.3411,-8.74096,27.4228,-3.34986,3.54364,37.2704,58.1905,8.54574,-0.282047,-0.265207,-0.000169482,-0.598908,-0.252665,0.00769044,-0.0992981,-0.536068,0.245475,-0.753681,-0.732059,0.343177,-0.267636,-0.272882,5.65351e-06,-0.608632,-0.235362,1.00063e-05,-0.0671354,-0.535829,0.290053,-0.74217,-0.647781,0.434553,1.0328,0.000453392,0.73228,-1.88816,0,0,0,0,
3.255,-5.95073,-2.70733,-2.11643,-3.60258,4.86071,-2.61405,0.00131852,15.3197,5.31435,20.3529,-0.0136983,-1.84159,37.7212,61.0598,7.72293,1.11985,-9.87605,0.698324,-1.30955,-3.88294,1.02467,-2.62404,0.00121398,13.7523,0.637506,21.1833,-0.0116522,-2.39904,33.3109,60.4505,6.53173,-0.261202,-0.235919,0.000129803,-0.600362,-0.218241,0.0050007,-0.0837723,-0.510883,0.248606,-0.737233,-0.681406,0.328312,-0.250028,-0.236803,5.52383e-06,-0.60614,-0.200145,9.7768e-06,-0.0541266,-0.493719,0.283399,-0.736615,-0.603103,0.424585,0.470319,-0.000293004,0.00304407,-1.71621,0,0,0,0,
2.25505,-6.58863,-2.68669,-0.984165,-4.32603,5.21125,-2.55361,0.000140545,16.2145,8.79402,17.2511,0.208354,-2.76114,32.186,64.482,6.98429,0.0172824,-10.4818,0.808344,-1.84047,-4.56963,1.25091,-2.53767,0.000263919,14.7543,4.09989,18.0313,0.231192,-2.93977,27.7045,63.7709,6.03313,-0.241728,-0.20015,0.000128896,-0.597576,-0.182914,0.00414891,-0.0708202,-0.476812,0.248807,-0.72811,-0.626884,0.312688,-0.232259,-0.200394,5.39297e-06,-0.603625,-0.164604,9.54517e-06,-0.0409986,-0.451224,0.276685,-0.731009,-0.558016,0.414526,0.218703,-3.12321e-05,-0.0463008,-1.55206,0,0,0,0,
1.0215,-10.6965,-2.73794,-2.73298,-6.36619,6.51524,-3.29974,-0.000516048,20.1882,7.05139,17.7611,0.165387,0.571185,30.1641,65.7596,5.79501,-1.57411,-14.0504,0.729575,-1.14132,-6.64712,2.5686,-3.25547,-0.000443993,18.6954,2.40265,18.4631,0.182384,-0.419611,24.9496,67.4575,6.79267,-0.221374,-0.158828,0.000129947,-0.592244,-0.149294,0.00514307,-0.0631885,-0.433462,0.242723,-0.726005,-0.576299,0.298736,-0.214345,-0.16369,5.26104e-06,-0.60109,-0.128775,9.31167e-06,-0.0277641,-0.408383,0.269917,-0.725358,-0.512563,0.404385,0.607329,0.000114677,-0.0367526,-1.28778,0,0,0,0,
-3.43804,-14.6653,2.74794,-3.25284,-7.55012,6.76778,-4.18804,-0.000964278,23.9946,4.78542,18.1866,0.0173778,4.43119,28.8966,66.4565,7.27823,-5.7798,-18.451,0.28539,-1.80377,-7.77449,2.78972,-4.1639,-0.00080677,21.713,-0.262898,17.8008,0.211132,3.46968,23.5586,68.0787,7.04173,-0.196801,-0.115066,-0.000134859,-0.587156,-0.114055,0.00661492,-0.0565583,-0.38574,0.234863,-0.726586,-0.527767,0.286794,-0.196306,-0.126727,5.12818e-06,-0.598538,-0.0926944,9.07652e-06,-0.0144364,-0.365241,0.263101,-0.719667,-0.466791,0.394173,0.722854,0.000214284,-0.00386174,-1.61738,0,0,0,0,
-7.087,-18.0126,-0.222697,-3.22395,-5.51486,-1.26945,-6.2126,0.00125311,16.1292,8.21372,11.4166,0.858094,5.08503,24.5737,66.7932,6.76128,-9.36211,-22.1324,0.253933,-4.4424,-6.11769,-5.36979,-5.98204,0.0014315,14.4757,3.52446,11.9563,0.652133,4.31811,19.5552,67.9423,6.82094,-0.171988,-0.071297,-8.78738e-05,-0.582635,-0.0655616,0.00491493,-0.0348895,-0.345922,0.236971,-0.723664,-0.476913,0.275453,-0.178158,-0.0895423,4.99452e-06,-0.595969,-0.0563965,8.83996e-06,-0.00102862,-0.32184,0.256243,-0.713942,-0.420742,0.3839,0.716434,-0.00027847,-0.190687,-1.50251,0,0,0,0,
-7.52122,-21.7374,-1.77366,-3.52117,-7.98112,-3.91903,0.295761,-1.56754,17.2031,6.54164,10.446,0.261756,9.77574,25.2507,62.8998,7.18669,-9.18424,-26.3,2.22067,-4.88194,-8.17709,-7.90932,0.13268,-1.54036,15.1729,1.59661,11.6076,0.438321,9.06744,20.1679,64.133,7.1955,-0.152777,-0.0280164,8.51656e-05,-0.58247,-0.0249343,0.00337159,-0.0189915,-0.302555,0.233154,-0.723754,-0.429384,0.269546,-0.15992,-0.0521718,4.8602e-06,-0.593388,-0.0199174,8.60221e-06,0.0124461,-0.278222,0.249352,-0.708188,-0.374465,0.373575,0.782482,0.348343,-0.0581679,-1.59704,0,0,0,0,
-6.44554,-25.758,0.182883,-5.62285,-9.81801,-6.23549,-1.15574,-0.710889,14.9276,3.50348,10.1825,-0.00206451,13.4068,23.005,56.8962,7.18116,-7.97822,-30.2397,1.5186,-6.49568,-10.2288,-10.3728,-1.06314,-0.747591,13.6959,-1.48891,11.3709,-0.00196044,12.6548,17.9734,58.1541,7.21127,-0.13543,0.0164233,-0.00010073,-0.575108,0.0177788,0.000858008,-0.00350414,-0.253512,0.226826,-0.724578,-0.380213,0.268273,-0.141609,-0.0146528,4.72534e-06,-0.590797,0.0167067,8.36353e-06,0.0259744,-0.234431,0.242433,-0.702411,-0.328003,0.36321,1.24952,0.157975,0.00045878,-1.59581,0,0,0,0,
-4.36785,-29.5934,2.13972,-4.94352,-7.83765,3.79492,-2.18336,-0.00353698,14.7814,0.603853,10.3538,-0.648333,16.1519,22.2017,50.225,7.11154,-6.91503,-33.3895,-2.2021,-5.3601,-8.25769,-0.48643,-2.12847,-0.00196694,12.7678,-4.38633,10.3305,0.00333725,15.5084,17.1076,51.477,7.15015,-0.120495,0.0598424,-0.000104137,-0.574975,0.0415116,0.00302146,0.0105378,-0.204693,0.220345,-0.724429,-0.332153,0.269075,-0.123243,0.0229779,4.59008e-06,-0.588198,0.0534397,8.12413e-06,0.0395429,-0.190509,0.235494,-0.696617,-0.281403,0.352813,1.09856,0.000785996,0.144074,-1.58034,0,0,0,0,
-6.53323,-31.6295,-1.8499,-5.76458,-6.9974,8.24466,-1.10727,0.000398587,12.8909,-1.25323,8.52777,-0.768879,16.5592,18.621,46.219,6.62501,-7.99593,-35.5015,1.87678,-5.18375,-7.37797,4.19719,-1.09387,0.000474056,11.6301,-5.45333,9.64169,0.000839354,15.9215,13.6122,47.3992,6.6683,-0.10031,0.101676,0.000106885,-0.57445,0.0669045,0.00274404,0.0273273,-0.158291,0.215528,-0.719943,-0.280649,0.266786,-0.104841,0.060683,4.45456e-06,-0.585594,0.0902454,7.88426e-06,0.0531383,-0.146501,0.22854,-0.690812,-0.234711,0.342396,1.28102,-8.8575e-05,0.170862,-1.47222,0,0,0,0,
-6.61379,-32.5149,-1.80781,-5.61769,-4.26497,2.39373,-4.42546,0.000708906,10.7811,-0.603508,4.32302,-0.242148,16.2809,12.5202,45.0193,5.54535,-9.02023,-36.3986,1.88125,-5.04816,-4.69576,-1.6836,-4.28453,0.00082883,9.28193,-5.44118,5.17008,-0.206009,15.6767,7.50342,46.1744,5.58114,-0.0805156,0.141462,0.000103391,-0.57326,0.112005,0.00409262,0.0441099,-0.113377,0.214313,-0.713917,-0.224751,0.259316,-0.0864215,0.0984254,4.3189e-06,-0.582987,0.127087,7.64415e-06,0.0667471,-0.102449,0.22158,-0.685001,-0.187972,0.331969,1.24838,-0.000157535,0.0538108,-1.2323,0,0,0,0,
-7.26943,-32.2068,1.59709,-4.85795,-8.69037,-9.61886,0.125021,-1.56226,8.98237,1.78532,-0.791734,-0.196361,16.4626,8.37124,43.0584,4.76263,-9.37481,-36.1361,-1.66154,-5.08945,-8.82429,-13.4141,-0.0758639,-1.48067,7.49248,-3.04634,0.0347684,-0.131137,15.7487,3.3192,44.2372,4.8099,-0.061324,0.179027,-7.83854e-05,-0.567827,0.165344,0.000850593,0.0608367,-0.0728065,0.215643,-0.708157,-0.170268,0.251642,-0.0680015,0.136168,4.18324e-06,-0.580381,0.16393,7.40404e-06,0.0803559,-0.0583968,0.21462,-0.67919,-0.141234,0.321541,1.07955,0.347169,0.0436357,-1.05836,0,0,0,0,
-6.06008,-32.2999,-1.6856,-4.36928,-10.4436,-14.3667,0.892488,-2.38481,7.61572,2.60584,-4.06033,-0.339069,17.5595,5.84677,38.9486,4.18703,-8.20334,-36.3168,0.122012,-4.60811,-10.7782,-18.3905,0.32393,-2.28693,6.03618,-2.13713,-3.27821,-0.281788,16.8008,0.769444,40.1773,4.22206,-0.0440634,0.216842,9.46923e-05,-0.562005,0.212736,-4.26796e-05,0.0771339,-0.0311366,0.215149,-0.703369,-0.118264,0.246983,-0.0495998,0.173873,4.04771e-06,-0.577776,0.200735,7.16417e-06,0.0939512,-0.0143883,0.207667,-0.673385,-0.0945418,0.311124,0.970951,0.529958,0.0753486,-0.930452,0,0,0,0,
-5.04044,-34.2172,0.130109,-3.92505,-9.80098,-11.786,0.137152,-1.98453,6.65176,0.926964,-4.68995,-0.701107,20.1032,6.20134,33.25,3.9301,-6.62603,-38.2032,1.69066,-4.41122,-10.1644,-15.9359,0.123528,-1.93752,5.18681,-3.80669,-3.92981,-0.67139,19.3453,1.1074,34.4918,3.95573,-0.0281016,0.257201,-9.41859e-05,-0.559053,0.249192,7.97614e-05,0.09209,0.014537,0.210403,-0.701383,-0.0710786,0.245546,-0.0312343,0.211504,3.91245e-06,-0.575177,0.237468,6.92477e-06,0.10752,0.0295333,0.200728,-0.667591,-0.0479417,0.300728,0.872234,0.441007,0.155802,-0.873356,0,0,0,0,
-5.28869,-35.5063,-1.66116,-4.04481,-7.72582,-5.65007,-0.693212,-1.31654,3.9663,-1.56203,-4.19083,-1.05739,22.4631,6.49423,28.3335,3.73338,-7.58965,-39.3741,1.71015,-3.43905,-8.05803,-9.77144,-0.756819,-1.30794,2.55311,-6.30273,-3.44406,-1.02889,21.7904,1.43201,29.5163,3.77954,-0.00951776,0.2967,9.22883e-05,-0.559224,0.276723,0.00197433,0.109369,0.0624601,0.202952,-0.699597,-0.0252407,0.24396,-0.0129234,0.249023,3.7776e-06,-0.572586,0.274092,6.68608e-06,0.121048,0.0733247,0.193809,-0.661814,-0.00147993,0.290362,0.898847,0.292564,0.234976,-0.829641,0,0,0,0,
-7.29877,-35.9388,0.0940599,-3.74115,-8.53702,-10.1828,0.542008,-1.70683,-0.163406,-2.50537,-4.41284,-1.30724,25.1078,4.26509,25.4518,2.56973,-8.9495,-40.2136,1.44891,-4.25195,-8.77557,-13.9718,0.407785,-1.63015,-1.671,-7.33795,-3.5705,-1.45115,24.6766,-0.862824,26.9597,3.44162,0.0116507,0.335993,-8.09709e-05,-0.557349,0.314084,0.00057798,0.129375,0.108994,0.195922,-0.698252,0.0239032,0.238935,0.00531507,0.286393,3.64327e-06,-0.570005,0.310571,6.44834e-06,0.134523,0.116943,0.186918,-0.656061,0.0447978,0.280037,0.831367,0.379296,0.290498,-0.571052,0,0,0,0,
-7.57817,-35.8574,1.44288,-3.04553,-7.01101,-14.9307,-0.445281,-0.0967109,-4.4022,-0.535478,-5.73116,-1.43282,28.984,0.806785,24.0367,2.91053,-9.21961,-40.0986,-1.43446,-3.53417,-7.83032,-19.4628,-1.68972,0.00236232,-6.03418,-5.30388,-4.92776,-0.876011,27.6152,-4.4574,25.552,2.70045,0.0306451,0.373232,-7.54017e-05,-0.555375,0.360325,0.000127116,0.149389,0.1502,0.19084,-0.698401,0.075365,0.231621,0.023463,0.323578,3.50962e-06,-0.567437,0.346869,6.21178e-06,0.147931,0.160344,0.18006,-0.650335,0.0908459,0.269764,0.676784,0.0214913,0.318404,-0.646784,0,0,0,0,
-7.46926,-34.78,-1.41641,-2.22279,-7.87156,-18.6664,-1.14208,-1.17766,-8.25857,2.61749,-6.41294,-0.239721,31.5858,0.184654,21.174,2.50981,-9.50315,-38.9683,0.0532615,-2.44584,-8.347,-22.6357,1.14949,-1.48303,-10.044,-2.11474,-5.77843,-0.584272,31.4382,-5.00533,21.9927,1.93166,0.0487596,0.408482,7.83392e-05,-0.552459,0.402578,6.4186e-05,0.170088,0.188136,0.185846,-0.697827,0.123453,0.225867,0.0415024,0.360541,3.37676e-06,-0.564884,0.38295,5.97663e-06,0.161258,0.203486,0.173244,-0.644644,0.136619,0.259552,0.493954,0.261701,0.0532714,-0.557736,0,0,0,0,
-7.84037,-34.9507,0.0514474,-1.56037,-7.83584,-19.7324,0.847268,-2.32792,-10.9391,3.3904,-5.36715,-0.491038,34.7372,2.20815,16.7752,2.2302,-9.7938,-38.8858,1.3086,-1.76776,-8.14304,-23.5296,0.00503861,-2.14471,-12.3505,-1.30916,-4.61389,-0.463205,34.7664,-2.67327,18.2161,1.69175,0.067005,0.445285,-7.04196e-05,-0.549916,0.44121,-4.43525e-05,0.187869,0.228976,0.178014,-0.697548,0.166408,0.222112,0.0594156,0.397245,3.24483e-06,-0.562349,0.418779,5.74313e-06,0.174493,0.246326,0.166476,-0.638993,0.182071,0.249411,0.346748,0.517317,0.10912,-0.4956,0,0,0,0,
-8.79622,-34.8505,1.21725,-1.57321,-6.8769,-20.0348,-0.728209,-2.03213,-14.0433,3.47508,-5.00145,-0.635431,38.4723,3.98828,13.2051,1.96318,-10.8725,-38.6687,-1.23064,-0.987062,-7.20815,-23.8864,0.709097,-2.31957,-14.4581,-1.41514,-3.98541,-0.12189,36.9392,-0.887799,14.1923,1.48938,0.0864108,0.481431,-6.31844e-05,-0.548505,0.477694,4.1037e-05,0.205448,0.271084,0.169921,-0.69702,0.208673,0.218648,0.0771849,0.433654,3.11396e-06,-0.559835,0.45432,5.5115e-06,0.187621,0.288822,0.159761,-0.633387,0.227159,0.239352,0.349602,0.451584,0.141207,-0.436263,0,0,0,0,
-10.7659,-34.1011,-1.07697,-0.306538,-5.41419,-20.7179,-0.687425,-1.52686,-16.0867,3.11413,-4.94865,-0.267918,39.5601,4.52155,10.672,1.25346,-12.5818,-37.9709,0.0168683,-0.50355,-5.70601,-24.5598,0.680597,-1.84288,-16.8725,-1.66603,-4.0002,-0.630331,39.9488,-0.276793,11.8694,1.70742,0.106703,0.516747,5.85919e-05,-0.548297,0.513745,3.82488e-05,0.222291,0.313827,0.163065,-0.695333,0.251697,0.21334,0.0947927,0.469732,2.98429e-06,-0.557343,0.489537,5.28198e-06,0.20063,0.330932,0.153108,-0.627833,0.271836,0.229385,0.0681195,0.339302,0.0595373,-0.278547,0,0,0,0,
-12.7564,-33.1758,0.0426329,0.0443044,-3.66886,-23.2869,-0.6675,-1.22894,-17.472,2.87147,-5.08545,-0.767455,40.2629,2.85803,9.43353,1.27037,-14.747,-37.2108,0.022457,-0.464665,-3.81152,-27.0749,0.671559,-1.03801,-18.1794,-1.90925,-4.5401,-0.369526,40.7752,-1.87836,10.5951,0.931823,0.127831,0.551456,-5.69245e-05,-0.548763,0.552537,3.64878e-05,0.238101,0.356317,0.156734,-0.691645,0.298165,0.20592,0.112222,0.505444,2.85592e-06,-0.554876,0.524397,5.05479e-06,0.213506,0.372614,0.146523,-0.622334,0.31606,0.219518,-0.00984542,0.273099,0.170545,-0.282306,0,0,0,0,
-14.025,-31.5335,-0.823791,0.514111,-2.2235,-25.0384,0.882279,-1.1981,-16.8187,2.57419,-5.9401,-0.960938,39.2604,0.935265,8.10383,0.889932,-16.0057,-35.2637,0.0162319,0.364064,-2.50461,-28.8591,-0.0133586,-1.4533,-17.5298,-2.15364,-5.41599,-0.522901,39.8262,-3.77826,9.15018,0.603883,0.147218,0.584214,4.46013e-05,-0.548821,0.59026,-4.78848e-05,0.25068,0.398102,0.151552,-0.685427,0.345296,0.198334,0.129455,0.540754,2.72901e-06,-0.552438,0.558865,4.83015e-06,0.226238,0.413827,0.140011,-0.616898,0.359787,0.209763,-0.114247,0.266245,0.213542,-0.197763,0,0,0,0,
-15.9963,-29.071,-0.639461,1.03999,-0.710606,-25.9751,-0.0236364,-1.76811,-13.4502,2.08435,-6.78009,-0.579663,36.4799,0.032466,6.40654,0.471589,-17.9306,-32.8786,0.00737558,0.995543,-1.06213,-29.5768,-0.73535,-1.68347,-15.447,-2.13446,-6.25748,-1.0693,37.0181,-4.63893,7.45888,0.24079,0.167466,0.615325,3.41799e-05,-0.548727,0.626241,4.04973e-05,0.259606,0.439197,0.146503,-0.676097,0.39036,0.191332,0.146475,0.575628,2.60366e-06,-0.550029,0.592907,4.60829e-06,0.238813,0.454531,0.13358,-0.611528,0.402973,0.200128,-0.231109,0.392913,0.128814,-0.104798,0,0,0,0,
-18.3355,-27.2915,0.563598,1.7173,1.39663,-26.7076,-0.32013,-1.71482,-10.5523,2.65665,-6.64139,-0.480324,32.9256,-0.852444,4.61505,-0.00129828,-20.2937,-31.0276,-0.458197,1.72079,1.16076,-30.3139,-0.30664,-1.71595,-12.4269,-1.90312,-6.15009,-0.896284,33.369,-5.44219,5.68783,0.142474,0.188193,0.646542,-3.53978e-05,-0.549601,0.661383,0.000291255,0.267091,0.479214,0.140526,-0.665168,0.434496,0.184767,0.163265,0.610031,2.48e-06,-0.547653,0.626489,4.38943e-06,0.251217,0.494685,0.127236,-0.606231,0.445575,0.190623,-0.381622,0.381071,0.106739,0.000288506,0,0,0,0,
-20.6878,-26.7547,0.00321304,1.97188,4.83137,-26.403,-1.49052,-1.52571,-9.03999,3.36377,-5.51858,-0.651282,30.3099,-3.02261,2.93955,-0.000584194,-22.5104,-30.4267,0,1.98768,4.55539,-29.9643,-1.4658,-1.53357,-9.92897,-0.790543,-4.68631,-0.229089,28.9305,-7.55391,4.00086,-0.0104124,0.208432,0.679282,-1.56823e-05,-0.552351,0.694237,0.001876,0.275449,0.51769,0.132435,-0.653877,0.479945,0.178133,0.179808,0.643929,2.35816e-06,-0.545312,0.659579,4.17378e-06,0.26344,0.53425,0.120985,-0.601012,0.487553,0.181258,-0.438195,0.339047,0.144729,0.000129821,0,0,0,0,
-23.8884,-26.3268,0.314691,1.25999,9.47353,-26.5899,-3.00971,-1.47995,-8.26942,3.65043,-4.82856,-0.129392,28.0372,-4.1101,0.735941,-0.0139394,-25.7118,-29.9269,-0.162082,1.835,9.06223,-30.0986,-2.98301,-1.48087,-9.99741,-0.428132,-4.31765,-0.481269,26.7132,-8.58219,1.79955,-0.000682019,0.229937,0.711718,-2.43521e-05,-0.557124,0.72738,0.00429832,0.28631,0.556185,0.124913,-0.644247,0.523414,0.172294,0.196089,0.677288,2.23825e-06,-0.543008,0.692142,3.96155e-06,0.275468,0.573186,0.114833,-0.595876,0.528864,0.172042,-0.279999,0.328879,0.0287537,0.00309765,0,0,0,0,
-28.2661,-27.0997,-0.0271527,1.47569,14.7185,-26.2065,-4.4426,-1.4417,-9.57647,3.40542,-5.39153,-0.693505,26.4957,-5.11456,-2.00787,-0.00112594,-29.7656,-30.6973,0.240298,1.07328,14.4142,-29.6966,-4.41591,-1.43253,-10.2856,-0.933811,-4.51907,-0.187631,26.7406,-9.52887,-1.03519,-0.0851535,0.252419,0.745831,-1.57739e-05,-0.563409,0.759022,0.006752,0.299021,0.594835,0.119125,-0.637306,0.566443,0.167589,0.212091,0.710077,2.1204e-06,-0.540743,0.724149,3.75296e-06,0.287291,0.611456,0.108787,-0.590828,0.569467,0.162983,-0.327931,0.320377,0.154112,0.00025021,0,0,0,0,
-35.2823,-20.0127,-0.147396,-0.664005,5.37493,-16.582,-3.37516,-1.46254,-22.8957,-2.27302,-0.588634,-0.0344908,28.8113,1.73443,-2.21015,-0.462366,-37.9616,-23.5039,-0.228257,-0.657284,5.31979,-20.1571,-3.51596,-1.343,-23.1347,-6.18421,0.0383631,0.00358796,27.202,-2.58042,-1.08492,-0.000551003,0.283313,0.770576,0.000146542,-0.548212,0.778538,0.00653122,0.330452,0.641277,0.107298,-0.62946,0.598531,0.160228,0.227799,0.742261,2.00472e-06,-0.53852,0.755565,3.54821e-06,0.298896,0.649021,0.102852,-0.585873,0.609323,0.154091,0.147557,0.32501,0.00766463,0.102748,0,0,0,0,
-29.5386,-9.46298,0.0116146,2.38573,9.63699,-5.7815,-1.00459,0.000889206,-23.7255,-0.659131,4.63493,0.00187417,40.7218,6.09595,3.09425,0.188902,-32.1176,-12.8818,0,1.14576,9.4013,-9.08647,-0.991962,-0.0676856,-25.8171,-4.86706,5.15425,0.207637,38.3538,2.3451,3.39634,-0.153424,0.291092,0.78543,-1.44786e-05,-0.551378,0.79236,0.00272973,0.345872,0.678131,0.0932976,-0.644644,0.628391,0.145985,0.243196,0.77381,1.89132e-06,-0.536342,0.786362,3.3475e-06,0.310271,0.685844,0.0970338,-0.581015,0.648392,0.145375,-0.530162,-0.000197601,-0.000416483,-0.0419782,0,0,0,0,
-27.1707,-1.03623,-0.01263,5.51154,9.54561,5.61302,-0.0195295,1.27005,-32.3388,6.42794,8.04176,1.72219,43.2132,8.69888,7.69369,1.60397,-29.5718,-4.5329,0.00263402,3.75406,9.87976,2.25311,0,1.9978,-31.8215,2.22604,8.7682,0.776898,40.7838,5.14538,9.07916,1.11061,0.300793,0.801437,-1.46968e-05,-0.551472,0.803981,-1.36225e-05,0.367227,0.704529,0.0808773,-0.647473,0.662044,0.128024,0.258268,0.804693,1.78031e-06,-0.534209,0.816508,3.15103e-06,0.321407,0.72189,0.0913387,-0.57626,0.686636,0.136842,-1.22479,-0.282232,-0.382708,-0.356438,0,0,0,0,
-24.3392,4.58318,-0.00886253,5.85777,0.544754,14.0076,-0.00254009,0.417872,-26.9464,8.37142,10.3033,1.87717,34.9418,17.0414,9.4581,2.84225,-25.3048,1.3678,0,3.73254,1.37442,10.7837,0,0.337284,-29.7783,4.8375,10.7013,2.83623,33.3793,13.5049,10.4524,3.4372,0.311291,0.821022,-2.06018e-05,-0.540572,0.816455,-3.75273e-06,0.37969,0.733255,0.0712045,-0.635974,0.688663,0.116211,0.273,0.834879,1.67182e-06,-0.532124,0.845974,2.959e-06,0.332291,0.757122,0.0857722,-0.571613,0.724016,0.128503,-1.30173,-0.0928605,-0.41715,-0.631611,0,0,0,0,
-19.547,8.60835,-0.016794,4.23508,-12.4367,8.8403,-0.565764,-0.00170187,-17.8121,5.8478,12.1587,3.28366,13.6043,12.8226,11.6067,1.01666,-19.931,5.17304,0,5.78078,-13.362,5.63283,-0.522955,-0.0015986,-19.2402,2.35774,12.6452,2.30153,12.3107,8.86573,12.5178,1.52791,0.317508,0.843435,-1.28226e-05,-0.513027,0.850865,0.000419267,0.373911,0.771558,0.0622483,-0.600627,0.726151,0.102751,0.287378,0.864338,1.56593e-06,-0.530089,0.87473,2.77158e-06,0.342913,0.791506,0.0803398,-0.567077,0.760497,0.120364,-0.941129,0.000378193,-0.729702,-0.225925,0,0,0,0,
-12.2477,8.80756,-0.199856,4.71043,-6.08598,8.93325,-0.862502,0.00403373,-12.8501,8.3522,12.3834,3.57809,-8.87148,8.07013,-1.00208,-3.97389e-05,-14.9208,5.84247,0.0152117,6.42919,-7.16687,5.85396,-0.917232,0.004007,-14.0118,4.76543,12.9684,2.539,-9.81653,4.36925,0.112124,0.000286708,0.321345,0.87022,1.00387e-05,-0.514844,0.879319,0.0017502,0.373848,0.802425,0.0560494,-0.558277,0.771072,0.109777,0.301386,0.893041,1.46276e-06,-0.528107,0.902748,2.58898e-06,0.353262,0.825007,0.0750467,-0.562658,0.796041,0.112434,-1.04676,-0.000896385,-0.79513,8.83086e-06,0,0,0,0,
-10.2462,8.79498,-0.0315122,7.06463,-4.01343,5.44677,-0.0261291,0.0023124,-11.0128,8.27613,13.2202,2.81751,-11.2073,11.1274,-7.96402,0.000413185,-12.6974,5.74103,0,5.06555,-3.51605,2.66402,-0.053397,0.00228984,-11.9837,4.81917,13.7758,3.88195,-12.5283,7.54443,-7.15578,5.8863e-05,0.329528,0.898307,-1.9012e-05,-0.519896,0.91181,1.17426e-05,0.379329,0.834419,0.0497588,-0.539516,0.803224,0.119008,0.315012,0.92096,1.36241e-06,-0.526179,0.930001,2.41137e-06,0.363329,0.857593,0.0698982,-0.558359,0.830615,0.10472,-1.56992,-0.000513866,-0.626112,-9.18189e-05,0,0,0,0,
-11.5583,5.9747,-0.0060065,5.77273,-5.06908,5.68171,-0.474388,0.00107787,-13.4492,7.40643,14.3708,3.13809,-4.40802,8.59092,0.271324,0.000234085,-13.8157,3.11416,0,7.96347,-4.72515,2.86419,-0.489136,0.00103744,-14.4869,3.92049,14.908,4.27935,-5.58779,4.94995,0.916142,-1.76811e-06,0.343811,0.928754,-1.0008e-05,-0.51745,0.940135,0.000660552,0.391227,0.867581,0.0429295,-0.544562,0.83878,0.10295,0.328241,0.948067,1.26498e-06,-0.524306,0.956462,2.23892e-06,0.373103,0.889232,0.0648994,-0.554186,0.864183,0.0972314,-1.28283,-0.000239526,-0.697354,-5.20189e-05,0,0,0,0,
-14.7405,1.05191,-0.051088,5.61352,-5.80294,7.22728,0.225977,-8.21745e-05,-17.9748,5.33008,15.4979,3.44425,-2.28565,6.11802,2.94385,4.45271e-05,-15.1885,-1.56766,0,7.8606,-5.31496,4.51282,0.211464,7.37298e-06,-19.0028,2.14095,16.001,4.74556,-2.09976,2.56204,3.76747,-0.00011474,0.360255,0.963093,-2.84598e-05,-0.514006,0.963401,8.34026e-05,0.407996,0.901367,0.0359995,-0.547319,0.876792,0.087285,0.341061,0.974336,1.17056e-06,-0.522492,0.982104,2.0718e-06,0.382575,0.919892,0.0600553,-0.550141,0.896713,0.0899739,-1.24745,1.8261e-05,-0.76539,-9.8949e-06,0,0,0,0,
3.75201,8.32727,-0.00733948,0.94523,-0.555893,3.58049,0.0454222,-0.00167444,2.05493,10.4578,10.8813,1.73335,0.120457,2.87252,-0.835966,0.000325925,2.21488,5.41864,0,1.45478,-0.888284,1.03666,0.0273548,-0.00167737,0.805058,7.2709,11.5866,2.38914,-0.16149,-0.498743,-0.00123499,0.000217542,0.350548,0.981654,-4.27336e-06,-0.521048,0.991391,0.000222181,0.39401,0.925097,0.0364623,-0.549902,0.91303,0.0844725,0.35346,0.99974,1.07925e-06,-0.520738,1.0069,1.91019e-06,0.391735,0.949544,0.0553705,-0.54623,0.928172,0.0829553,-0.210051,0.000372097,-0.385189,-7.24277e-05,0,0,0,0,
13.4867,11.333,-0.00601487,0.000137705,-4.62265,4.45331,-0.396176,-0.00267672,13.7116,11.9406,-1.85606,0.00330926,-5.71449,6.15386,-2.92986,-0.000519518,12.7555,8.76775,0.0763734,0.000237914,-4.17446,1.8391,-0.40775,-0.00270757,13.157,8.96087,-1.17223,0.00332101,-5.95729,2.74248,-2.22692,0.000560806,0.341821,0.999637,-3.69386e-06,-0.513562,1.01811,0.00046102,0.377604,0.95079,0.049381,-0.536289,0.941835,0.0825917,0.365424,1.02425,9.9113e-07,-0.519044,1.03083,1.75423e-06,0.400574,0.978157,0.0508498,-0.542455,0.95853,0.0761824,-3.0601e-05,0.000594826,-0.000735392,0.000115448,0,0,0,0,
7.51355,9.16568,-0.058673,8.58817e-05,-5.62025,8.20473,-0.0022659,-0.00368024,7.42436,8.0308,-3.74613,0.00283353,-6.22318,9.24658,0.544701,0.000148147,6.72025,6.64019,0,4.07346e-05,-6.28879,5.73557,0.0446691,-0.00364432,7.02388,5.25098,-3.40623,0.00280484,-6.24867,6.05202,1.16468,0.000165802,0.358183,1.02428,4.28144e-06,-0.50857,1.03502,-2.52617e-06,0.390602,0.982049,0.054651,-0.529751,0.96526,0.0724751,0.376942,1.04786,9.06299e-07,-0.517414,1.05387,1.60409e-06,0.409084,1.0057,0.0464976,-0.538822,0.987756,0.069662,-1.90848e-05,0.000817831,-0.000629673,-3.29215e-05,0,0,0,0,
3.15533,3.48105,-0.000278568,-5.37192e-05,-5.49206,7.23353,-0.00465803,-0.00347907,2.13925,3.1879,1.08356,0.00287354,-5.56486,8.41001,2.59194,9.82495e-05,2.48929,1.14325,-0.0520483,-5.0813e-06,-5.8967,4.81568,0.0511597,-0.00349957,1.23695,0.420769,1.47519,0.0028606,-5.34843,5.49797,3.29346,0.000102089,0.377726,1.05624,1.05631e-05,-0.506454,1.05706,-3.12714e-06,0.409746,1.01755,0.0436496,-0.527111,0.993057,0.0611864,0.388003,1.07052,8.24836e-07,-0.515849,1.07599,1.4599e-06,0.417256,1.03216,0.0423181,-0.535332,1.01582,0.0634004,1.19376e-05,0.000773127,-0.000638564,-2.18332e-05,0,0,0,0,
4.30876,4.07109,-0.0139202,3.83209e-05,-4.1684,5.31984,0.052757,-0.00371639,3.98404,4.93533,1.09307,0.00323126,-3.88886,6.62747,0.362951,0.000434163,2.76869,1.71504,-0.00343037,4.83084e-05,-4.44062,3.08003,-0.00872556,-0.00372142,2.71293,2.07222,1.57053,0.0032326,-4.47908,3.83226,1.04076,0.000416387,0.389379,1.07996,8.03387e-05,-0.50724,1.08161,-1.3962e-06,0.417972,1.04367,0.0371673,-0.525802,1.02324,0.057339,0.398596,1.09222,7.46822e-07,-0.51435,1.09718,1.32182e-06,0.425082,1.05749,0.0383156,-0.53199,1.0427,0.0574038,-8.51575e-06,0.000825863,-0.000718058,-9.64806e-05,0,0,0,0,
6.55089,7.07619,-0.00222077,-0.000141724,-3.79889,5.05678,-0.00383722,-0.00354617,7.2673,8.21829,0.276938,0.00341531,-3.8186,5.47102,-0.910542,3.6064e-05,5.66413,4.80964,0,-0.000215647,-3.61397,2.82169,0,-0.00356841,6.64001,5.5802,0.660352,0.00342035,-3.82669,2.64735,-0.285968,4.60235e-05,0.395892,1.09665,-2.97542e-06,-0.507286,1.10336,-2.82761e-06,0.419524,1.06243,0.0350105,-0.523536,1.05182,0.0545198,0.408711,1.11295,6.72332e-07,-0.512919,1.11741,1.18998e-06,0.432555,1.08168,0.0344939,-0.5288,1.06836,0.0516782,3.14943e-05,0.000788037,-0.000758958,-8.01423e-06,0,0,0,0,
7.096,7.46673,0.0897275,-0.000137527,-4.74041,5.81874,0.00297499,-0.00289968,6.53935,7.90898,1.43747,0.00370579,-4.14635,6.04163,0.300622,0.000405197,6.34585,5.39555,0.00359431,-6.84294e-05,-4.43287,3.67069,-0.0247012,-0.0029089,5.98897,5.47088,1.77616,0.00370853,-4.03249,3.33151,0.860468,0.000372652,0.403569,1.11452,-7.65397e-06,-0.504821,1.12199,9.15436e-07,0.425762,1.08459,0.030081,-0.520243,1.07628,0.0479223,0.418336,1.13267,6.01441e-07,-0.511557,1.13666,1.06451e-06,0.439666,1.1047,0.0308568,-0.525763,1.09279,0.0462293,3.05616e-05,0.000644374,-0.00082351,-9.00438e-05,0,0,0,0,
5.63251,5.58515,-0.00572764,0.000188261,-4.71072,6.03261,-0.0126896,-0.00170117,4.96998,5.71229,1.49631,0.00407972,-4.35419,6.63902,1.29549,0.000176164,4.72523,3.66141,0,0.000199761,-4.96215,4.1179,0,-0.00176733,4.31804,3.45526,1.88592,0.00408252,-4.7854,4.20389,1.85464,0.000197895,0.414956,1.13602,-3.44752e-06,-0.502531,1.1398,-1.64993e-06,0.435637,1.11001,0.0256835,-0.516348,1.0987,0.0406313,0.427464,1.15137,5.34219e-07,-0.510265,1.15492,9.4553e-07,0.44641,1.12653,0.027408,-0.522883,1.11595,0.0410623,-4.18358e-05,0.000378038,-0.000906605,-3.91476e-05,0,0,0,0,
4.32715,4.76738,0.0102089,-0.000378668,-4.67984,5.74124,-0.0170909,-0.00177777,4.17827,4.82904,0.460831,-0.00400748,-4.86124,6.35562,1.26163,-0.000240017,3.47205,2.86901,0.0190649,-0.000368336,-4.90261,3.83824,0,-0.0018201,3.57234,2.66663,0.840974,-0.00401638,-5.25947,4.08242,1.79142,-0.000253746,0.425937,1.15594,-1.90887e-06,-0.501585,1.15759,7.37143e-07,0.443716,1.13316,0.0238561,-0.512991,1.12095,0.0353742,0.436084,1.16904,4.70732e-07,-0.509045,1.17216,8.33162e-07,0.452778,1.14714,0.0241508,-0.520164,1.13782,0.0361824,8.41485e-05,0.000395059,0.000890551,5.33371e-05,0,0,0,0,
5.13602,5.22319,-0.00722328,2.2322e-05,-4.33602,5.28715,-0.00581238,-0.00071309,4.81423,5.52128,0.586135,-0.00356484,-4.32763,6.10071,0.911646,0.000258265,4.66888,3.44867,0.0704776,6.18896e-05,-3.95318,3.49901,0.00216048,-0.000778855,4.29193,3.48203,0.861496,-0.00355339,-4.11345,3.86891,1.41563,0.000255803,0.43355,1.17262,-4.10628e-06,-0.501171,1.17488,-2.30325e-06,0.449042,1.15222,0.0212199,-0.511153,1.14224,0.0311833,0.444189,1.18564,4.11042e-07,-0.507898,1.18837,7.27516e-07,0.458766,1.16652,0.0210885,-0.517607,1.15839,0.0315944,-4.96043e-06,0.000158464,0.000792187,-5.73923e-05,0,0,0,0,
5.99353,5.93507,-0.00962595,0.000457687,-3.85,5.01788,0.0649026,0.000970681,5.72629,6.05763,1.57269,-0.00301275,-3.60114,5.27379,0.849195,-2.95095e-05,4.65222,4.29214,0.0785805,0.0004879,-4.44211,3.45106,0.00411306,0.000965482,4.58584,4.06391,1.8874,-0.00302199,-4.33077,3.25036,1.31223,-5.27645e-05,0.440392,1.18712,-5.41942e-06,-0.500238,1.19094,-5.74199e-06,0.453937,1.16975,0.0168308,-0.50931,1.16329,0.0271068,0.45177,1.20118,3.55209e-07,-0.506825,1.20353,6.28696e-07,0.464367,1.18466,0.018224,-0.515215,1.17762,0.0273029,-0.000101708,-0.000215707,0.0006695,6.55767e-06,0,0,0,0,
5.78231,5.61403,-0.00712058,3.25906e-05,-4.14335,5.28603,0.0674971,0.00265222,5.62679,5.98044,1.82783,-0.00242381,-3.81789,5.47787,1.22834,-0.000645988,4.54068,4.03727,-0.00551098,1.55276e-05,-4.72813,3.83287,0.00506868,0.00263144,4.55194,4.12902,2.12739,-0.00245199,-4.50307,3.5838,1.64525,-0.000465091,0.447495,1.20204,3.28196e-06,-0.498813,1.20483,-5.79222e-06,0.459123,1.1867,0.013255,-0.506886,1.18137,0.0225458,0.458819,1.21562,3.03288e-07,-0.505828,1.21763,5.36799e-07,0.469575,1.20152,0.0155602,-0.512991,1.19551,0.023312,-7.24236e-06,-0.000589383,0.000538625,0.000143553,0,0,0,0,
4.34814,6.34588,-0.0134034,-0.000350841,-3.37198,7.44115,-0.0522091,0.00396685,4.91928,5.11932,1.3876,-0.00184303,-4.0885,5.42971,1.48541,0.000382219,3.74555,1.06536,-0.0527938,-0.00035487,-3.58915,1.09512,0.0141525,0.00389488,4.47933,3.53553,1.6642,-0.00183681,-4.4122,3.73417,1.88771,0.000408104,0.455712,1.21586,4.18913e-06,-0.498481,1.21655,2.83203e-06,0.464849,1.20391,0.0112355,-0.504417,1.19835,0.018277,0.465331,1.22896,2.5533e-07,-0.504906,1.23066,4.51916e-07,0.474386,1.21709,0.0130997,-0.510937,1.21203,0.0196257,7.79647e-05,-0.000881521,0.000409563,-8.49376e-05,0,0,0,0,
3.13997,15.0007,-0.0512577,0.000250163,-2.69178,16.5562,-0.0407975,-0.00389869,3.58241,7.29,0.784853,-0.00132236,-4.15611,6.06106,1.38951,0.000348145,2.17265,2.24566,0.00853016,0.000258611,-2.97604,2.95766,0,-0.00389818,3.24536,0.525124,1.03659,-0.0013312,-4.44069,1.83719,1.76957,0.000423688,0.464502,1.21724,2.67016e-06,-0.499688,1.21613,2.06583e-06,0.470563,1.21714,0.00978769,-0.502546,1.21354,0.0147532,0.471298,1.24119,2.11382e-07,-0.504062,1.24259,3.74131e-07,0.478795,1.23136,0.0108449,-0.509055,1.22717,0.0162477,-5.55917e-05,0.000866375,0.000293857,-7.73655e-05,0,0,0,0,
5.2369,24.2953,-0.00372274,-0.00036052,-5.18701,25.0688,-0.005916,-0.002529,2.76329,17.3193,0.335327,-0.00075081,-2.49157,14.315,0.378747,0.000236031,5.05038,4.92806,0.0132883,-0.000377422,-4.69176,4.91581,0,-0.00259685,2.41987,2.68829,0.508357,-0.000754746,-2.73598,1.64577,0.719793,0.000225446,0.467484,1.21275,-1.6773e-06,-0.496268,1.21245,-1.33356e-06,0.476855,1.21679,0.00881095,-0.503318,1.21778,0.0129611,0.476715,1.25229,1.71488e-07,-0.503295,1.25343,3.03521e-07,0.482797,1.24431,0.00879814,-0.507346,1.24092,0.0131813,8.01156e-05,0.000562,0.000166847,-5.24513e-05,0,0,0,0,
6.60148,30.7256,-0.0070678,0.000511645,-5.2747,31.0086,-0.00612821,-0.000774284,5.1642,26.6499,1.72314,-0.000100526,-3.71913,24.316,0.899396,0.000261495,5.58194,5.42412,0,0.000527525,-5.85603,5.15224,0,-0.000857774,4.89232,4.98155,1.89182,-0.000115731,-4.29634,4.37671,1.16453,0.000461954,0.469827,1.21102,-9.9098e-07,-0.493454,1.21135,-1.28957e-06,0.477565,1.21242,0.00532086,-0.500589,1.21377,0.0101638,0.481576,1.26225,1.35686e-07,-0.502607,1.26315,2.40155e-07,0.486389,1.25594,0.00696136,-0.505812,1.25325,0.0104294,-0.000113699,0.000172063,2.2339e-05,-5.81099e-05,0,0,0,0,
4.6971,34.9631,-0.00387326,-0.000126277,-4.06193,35.201,0.0142446,0.000953743,6.38929,33.1811,2.73109,0.00068145,-5.87552,31.8504,2.48458,-0.000300843,4.36692,4.27834,-0.00236695,-0.000144125,-4.66036,4.19079,0,0.000854707,5.49315,5.36329,2.9095,0.000647417,-6.06894,5.40856,2.71283,-0.000320875,0.475803,1.21228,3.08262e-06,-0.494313,1.21256,-2.66184e-06,0.478572,1.211,0.00147398,-0.495808,1.21136,0.00511713,0.485877,1.27106,1.04013e-07,-0.501999,1.27175,1.84096e-07,0.489566,1.26622,0.00533638,-0.504455,1.26416,0.00799488,2.80616e-05,-0.000211943,-0.000151433,6.68541e-05,0,0,0,0,
3.8777,38.7304,0.00310619,-0.000290558,-3.7595,39.1339,-0.0266179,0.00213357,4.63389,37.5862,1.98813,0.00138193,-4.88307,37.1114,2.41599,0.00028134,3.5716,3.43541,-0.00469298,-0.000286672,-4.12616,3.64651,0,0.00214215,4.47514,4.42998,2.15427,0.00137574,-5.31068,5.00078,2.63581,0.000384117,0.481531,1.21397,2.64755e-06,-0.494993,1.21383,1.1737e-06,0.482875,1.21206,0.000535081,-0.494795,1.21145,0.00223979,0.489613,1.27872,7.64996e-08,-0.50147,1.27922,1.35399e-07,0.492326,1.27516,0.0039248,-0.503277,1.27364,0.00588008,6.45683e-05,-0.000474128,-0.000307095,-6.25199e-05,0,0,0,0,
4.26366,42.976,0.0785092,-0.000296009,-4.508,43.3968,-0.00663789,0.00346676,3.98705,41.1547,1.05694,0.00211865,-4.23996,40.9034,1.34575,1.69243e-06,4.02921,3.8918,-0.0397511,-0.000268023,-4.06946,3.98804,0.00547331,0.00339715,4.14285,3.55726,1.21198,0.00212135,-3.89601,3.86964,1.55681,-1.69898e-05,0.484772,1.21382,-6.3606e-06,-0.494137,1.21353,-2.45698e-06,0.486994,1.21381,0.000941422,-0.49538,1.21309,0.00185045,0.49278,1.28521,5.31728e-08,-0.501022,1.28556,9.41122e-08,0.494666,1.28273,0.00272802,-0.502278,1.28168,0.00408708,6.57799e-05,-0.000770391,-0.00047081,-3.76096e-07,0,0,0,0,
4.77674,46.825,-0.00729609,-0.000529422,-4.91994,46.9359,-0.00658672,-0.00342006,4.046,45.0438,1.18401,0.00281141,-4.12191,44.5735,1.0431,0.000385365,4.62129,4.45372,0,0.000567602,-4.97991,4.51836,0,-0.00341712,3.9682,3.70377,1.29321,0.00279679,-4.22573,3.64495,1.19431,0.000380488,0.486577,1.21275,-1.72719e-06,-0.492922,1.21268,-1.95635e-06,0.489141,1.214,0.00019068,-0.495052,1.21396,0.00124705,0.495376,1.29053,3.40558e-08,-0.500654,1.29075,6.02764e-08,0.496584,1.28894,0.00174723,-0.501459,1.28827,0.00261767,0.000117649,0.000760014,-0.000624757,-8.56368e-05,0,0,0,0,
5.12152,49.1934,-0.0452138,0.000395708,-4.37042,49.223,0.0669044,-0.00171278,5.1377,48.789,0.583453,0.00374597,-4.23895,48.3496,0.946354,-0.000279719,4.42869,4.42796,0.0115169,0.000383447,-4.87719,4.39503,-0.0290037,-0.00173122,4.45775,4.4486,0.663843,0.00373323,-4.7405,4.30906,0.946646,-0.000298061,0.48869,1.21255,2.39456e-06,-0.492552,1.2126,-5.85262e-06,0.48985,1.21278,-3.33775e-06,-0.493723,1.21317,-4.04124e-06,0.497397,1.29467,1.91674e-08,-0.500368,1.29479,3.3925e-08,0.498077,1.29378,0.000983382,-0.500821,1.2934,0.00147329,-8.7935e-05,0.000380618,-0.000832439,6.21598e-05,0,0,0,0,
4.57007,50.6239,-0.00639174,-3.10662e-05,-4.22143,50.7016,-0.0103705,-0.000196024,4.98547,50.8433,0.255908,-0.00339424,-4.68685,50.803,0.33295,-0.000343701,4.47016,4.09148,0,-2.58416e-05,-4.34059,4.10849,0.078411,-0.000198163,4.92657,4.44115,0.318702,-0.00338747,-4.84602,4.62576,0.465428,-0.000343227,0.490911,1.21309,-2.85917e-06,-0.492743,1.21303,-5.46307e-06,0.490714,1.21248,-1.78121e-06,-0.492418,1.21237,3.68858e-06,0.498843,1.29763,8.52236e-09,-0.500164,1.29769,1.5084e-08,0.499145,1.29723,0.000437238,-0.500365,1.29706,0.000655064,6.9036e-06,4.35609e-05,0.000754275,7.6378e-05,0,0,0,0,
4.48221,51.611,-0.00715288,-0.000192625,-4.2817,51.7179,0.0755031,0.00136675,4.61225,51.6754,0.0609718,-0.00195786,-4.40872,51.8194,0.100062,-0.000170442,4.03749,4.00633,0,-0.000222944,-4.54581,4.07249,0.00444197,0.00136879,4.17556,4.14633,0.0862901,-0.00194702,-4.55102,4.32777,0.0807617,-9.05418e-05,0.492296,1.21338,-3.34338e-06,-0.492743,1.21321,-6.5622e-06,0.492046,1.213,-3.88127e-06,-0.492291,1.21267,3.45658e-06,0.499711,1.29941,2.13112e-09,-0.500041,1.29942,3.77193e-09,0.499786,1.29931,0.000109337,-0.500091,1.29927,0.000163806,4.28055e-05,-0.000303722,0.00043508,3.78761e-05,0,0,0,0,
0.142419,0.0428712,-0.0102874,-0.000357575,0.16067,0.0100115,-0.0126588,0.00301016,0.0887195,-0.0210948,-0.00862069,-0.00052166,0.15761,-0.0896513,0.0741943,-0.000284652,4.5817,4.16702,0,-0.000348232,-4.43482,4.19707,0.0717871,0.00301178,4.42847,3.99683,0.0561704,-0.000506179,-4.51237,4.04271,0.0098068,-0.000191698,0.492638,1.21319,-3.96142e-06,-0.492497,1.21305,-4.94735e-06,0.492825,1.21336,-2.30239e-06,-0.492636,1.21318,-5.62539e-06,0.492638,1.21319,-3.96142e-06,-0.492497,1.21305,-4.94735e-06,0.492825,1.21336,-2.30239e-06,-0.492636,1.21318,-5.62539e-06,7.94611e-05,-0.000668924,0.000115924,6.32561e-05,0,0,0,0,
3.18919,2.92006,0.0805989,0.000477262,-3.04688,2.66696,0.14008,-1.70399e-05,3.40739,2.78969,0.0873167,0.00419082,-3.08042,2.85731,0.145855,0.000314464,3.21731,2.94864,0.11663,0.000494882,-3.42392,2.71056,0.0245133,-3.93784e-05,3.72774,2.74002,0.0118069,0.004186,-3.44154,2.80199,0.0582039,0.000497897,0.48899,1.20983,-2.47863e-06,-0.488933,1.21003,-4.48102e-06,0.488924,1.21016,2.54497e-06,-0.488999,1.20995,-4.03015e-06,0.492516,1.21274,0.000144071,-0.492376,1.2126,0.000143086,0.492703,1.21291,0.00014573,-0.492515,1.21273,0.000142408,-0.000106058,3.78664e-06,-0.000931293,-6.98809e-05,0,0,0,0,
6.83033,6.12083,0.347623,0.000353832,-6.47143,6.09357,0.422408,0.00121707,6.77116,6.05376,0.354771,-0.003338,-6.45076,6.08722,0.361511,-0.000436812,6.40716,6.33624,0.280654,0.000336851,-6.86828,6.25776,0.2651,0.00121562,6.30758,6.1089,0.282377,-0.00332298,-6.80367,6.2005,0.273715,-0.00022925,0.482276,1.20274,-1.3778e-06,-0.482148,1.20273,-6.56521e-06,0.482603,1.20316,-2.47234e-06,-0.482336,1.20292,-4.07958e-06,0.492152,1.2114,0.000588024,-0.492011,1.21126,0.000587039,0.492339,1.21157,0.000589681,-0.49215,1.21139,0.000586362,-7.86293e-05,-0.000270461,0.000741777,9.70694e-05,0,0,0,0,
5.93145,5.1323,0.788675,-0.000194798,-5.34314,5.17481,0.85288,0.00276001,5.43165,5.16593,0.840154,-0.00173683,-5.83818,5.15337,0.865297,-0.000121284,5.52346,5.47352,0.762817,-0.000173395,-5.95128,5.5497,0.696259,0.0027526,5.6861,5.42914,0.693764,-0.00174503,-5.97598,5.49853,0.69832,7.41267e-05,0.481606,1.20048,-3.85243e-06,-0.481385,1.20022,-4.84103e-06,0.481816,1.20069,-2.04765e-06,-0.481509,1.20043,-4.67991e-06,0.491545,1.20917,0.00132746,-0.491404,1.20902,0.00132647,0.491731,1.20934,0.00132911,-0.491543,1.20916,0.0013258,4.32884e-05,-0.000613336,0.000385961,2.69521e-05,0,0,0,0,
3.37549,2.82543,1.37465,0.000194382,-3.72938,2.86441,1.41956,0.00366758,3.88387,2.8544,1.40325,-0.00049449,-3.28179,2.85275,1.47165,5.79091e-05,3.59721,3.25211,1.25246,0.000196446,-3.89358,3.30986,1.26107,0.00365878,3.51213,3.29969,1.27225,-0.00052459,-3.83726,3.26487,1.28444,5.78043e-05,0.484161,1.20129,2.32064e-05,-0.483941,1.20109,3.59445e-06,0.484301,1.20141,8.04339e-06,-0.484154,1.20125,-3.58848e-06,0.490696,1.20604,0.00236164,-0.490555,1.2059,0.00236066,0.490882,1.20621,0.0023633,-0.490694,1.20603,0.00235999,-4.31959e-05,-0.000815017,0.000109887,-1.28687e-05,0,0,0,0,
3.53473,2.64763,1.6769,-2.24468e-05,-3.58827,2.5872,1.67002,0.00363822,3.53719,2.72131,1.71797,3.62651e-05,-3.15667,2.58389,1.67202,-0.000238089,3.69172,3.14642,1.52668,-2.67351e-05,-3.29796,3.06864,1.55137,0.0036433,3.70503,3.17121,1.53463,4.27104e-05,-3.37141,3.08942,1.50706,-0.000193857,0.484388,1.19894,0.000534815,-0.484271,1.19885,0.000535224,0.484546,1.199,0.000512904,-0.484445,1.19898,0.000555256,0.489605,1.20203,0.00368956,-0.489465,1.20189,0.00368858,0.489791,1.2022,0.00369121,-0.489604,1.20202,0.00368791,4.98817e-06,-0.000808493,-8.05892e-06,5.29086e-05,0,0,0,0,
4.34597,3.79411,1.68518,-0.000359236,-4.70885,3.79512,1.66563,0.0035197,4.89885,3.74371,1.69267,0.000606895,-4.69443,3.77199,1.67999,-0.000304269,4.57464,4.37233,1.53469,-0.000355526,-4.87977,4.39113,1.48021,0.00351419,4.47937,4.34471,1.51995,0.000600414,-4.88038,4.37811,1.47604,-9.7234e-05,0.481593,1.19269,0.00206059,-0.481461,1.1926,0.00208745,0.481716,1.19291,0.0020448,-0.4816,1.19274,0.00209593,0.488275,1.19713,0.0053099,-0.488135,1.19699,0.00530892,0.48846,1.1973,0.00531154,-0.488273,1.19712,0.00530825,7.98303e-05,-0.000782156,-0.000134866,6.76153e-05,0,0,0,0,
5.2566,4.2011,2.05548,0.000325393,-4.6219,4.09904,2.07284,0.00337025,5.24215,4.15085,2.01596,0.00119864,-4.63044,4.21966,2.05254,-0.000205946,4.89628,4.79419,1.7659,0.000362438,-5.30736,4.80366,1.81113,0.0033482,4.85972,4.73589,1.80096,0.0012085,-5.28301,4.85234,1.81614,3.35497e-06,0.478967,1.18616,0.00344803,-0.478852,1.18606,0.0034174,0.479192,1.18641,0.00343856,-0.479004,1.18609,0.00341373,0.486706,1.19136,0.00722106,-0.486567,1.19122,0.00722008,0.48689,1.19153,0.0072227,-0.486704,1.19135,0.00721941,-7.23095e-05,-0.000748945,-0.000266364,4.57657e-05,0,0,0,0,
4.24238,3.61191,2.10151,-8.4956e-05,-4.64174,3.70131,2.06886,0.00307165,4.32905,3.63334,2.02528,0.00174369,-4.63062,3.67896,2.03311,0.000216019,4.54788,4.39297,1.80507,-4.75867e-05,-4.89802,4.5209,1.81674,0.00309141,4.81499,4.3908,1.79732,0.00172607,-4.90402,4.37242,1.78973,0.000202264,0.47775,1.18034,0.00528047,-0.477557,1.18007,0.00526507,0.477945,1.18052,0.0053473,-0.477699,1.18031,0.00532274,0.484899,1.18471,0.00942115,-0.484761,1.18457,0.00942018,0.485083,1.18488,0.00942279,-0.484898,1.1847,0.00941952,1.88791e-05,-0.00068259,-0.000387487,-4.80041e-05,0,0,0,0,
4.4186,3.26791,1.62291,-0.000445106,-4.32032,3.13573,1.6813,0.00291696,4.43605,3.26018,1.65794,0.00230809,-4.31758,3.20087,1.66926,0.000285194,4.15649,4.06428,1.36361,-0.000468676,-4.07969,4.03283,1.36964,0.00289693,4.15715,4.05119,1.39087,0.00227699,-4.09151,4.0698,1.38204,0.000262212,0.476449,1.17381,0.00826531,-0.476271,1.17382,0.00823979,0.476611,1.17398,0.00823955,-0.476409,1.17381,0.00823937,0.482857,1.17719,0.011908,-0.48272,1.17705,0.011907,0.483041,1.17736,0.0119096,-0.482856,1.17718,0.0119064,9.89124e-05,-0.000648213,-0.000512909,-6.33764e-05,0,0,0,0,
4.53475,3.30672,1.52901,0.000223729,-4.32676,3.16794,1.56015,0.00283756,3.98359,3.116,1.59853,0.00283187,-4.32422,3.21891,1.58623,0.000169525,4.28421,4.19067,1.22743,0.000229239,-4.60843,4.14999,1.25469,0.00282709,4.36267,4.10205,1.30305,0.00280062,-4.61184,4.17889,1.27772,0.000346765,0.474226,1.16582,0.0113018,-0.474159,1.16586,0.0112514,0.474497,1.16616,0.0112201,-0.474292,1.16584,0.0112339,0.480582,1.16882,0.0146792,-0.480445,1.16868,0.0146782,0.480765,1.16898,0.0146808,-0.480581,1.16881,0.0146776,-4.97175e-05,-0.00063057,-0.000629304,-3.76723e-05,0,0,0,0,
4.74112,3.34264,1.77061,-0.0001302,-4.5638,3.40854,1.82825,0.00281131,4.72985,3.4776,1.79702,0.00331093,-4.09569,3.40561,1.82507,8.70768e-05,4.48774,4.40353,1.44315,-0.000158163,-4.88093,4.48459,1.44103,0.00279467,4.45862,4.43716,1.46024,0.00330476,-4.83181,4.44782,1.46383,0.0002766,0.471492,1.15672,0.0139751,-0.471402,1.15645,0.0139713,0.471697,1.15677,0.0139463,-0.471556,1.15664,0.0139363,0.478076,1.15959,0.0177319,-0.477939,1.15945,0.017731,0.478257,1.15976,0.0177335,-0.478074,1.15958,0.0177303,2.89334e-05,-0.000624735,-0.000735762,-1.93504e-05,0,0,0,0,
4.38253,3.3909,1.97048,0.000418078,-4.70815,3.55669,1.95755,0.00250937,4.38382,3.51381,1.93407,0.003755,-4.69906,3.53626,1.96166,-0.000373731,4.95473,4.56305,1.54883,0.000461932,-4.60343,4.62146,1.61835,0.00252976,4.94219,4.63517,1.53346,0.00375972,-4.57836,4.59329,1.60053,-0.000337993,0.468626,1.14678,0.0169017,-0.468491,1.14644,0.0168455,0.468831,1.14676,0.016927,-0.468656,1.14662,0.0168377,0.47534,1.14953,0.0210632,-0.475205,1.14939,0.0210623,0.475521,1.14969,0.0210648,-0.475339,1.14952,0.0210616,-9.29062e-05,-0.000557637,-0.000834444,8.30514e-05,0,0,0,0,
4.21453,3.35587,1.79363,-0.000115221,-4.60757,3.39523,1.79284,0.00219448,4.21123,3.32883,1.80854,0.00421415,-4.59529,3.33468,1.8165,0.000260688,4.64502,4.6082,1.43356,-0.000108109,-4.97849,4.66733,1.3939,0.00218681,4.6634,4.60519,1.42354,0.00417928,-4.98126,4.61449,1.41547,0.000260327,0.465816,1.13606,0.0205527,-0.465633,1.1359,0.0205523,0.465978,1.13626,0.0205472,-0.465765,1.13611,0.0205298,0.472379,1.13863,0.0246698,-0.472244,1.13849,0.0246689,0.472559,1.13879,0.0246714,-0.472378,1.13862,0.0246682,2.56047e-05,-0.000487662,-0.000936478,-5.79306e-05,0,0,0,0,
4.6852,3.30075,1.63666,0.000474112,-4.57569,3.42051,1.63367,0.00196727,4.31685,3.33478,1.68003,-0.0039929,-4.55778,3.14492,1.67467,-0.000521245,4.50598,4.54057,1.2281,0.000441425,-4.44193,4.65766,1.2339,0.00195675,5.06803,4.68768,1.2101,-0.00402802,-4.4384,4.46634,1.24665,-0.000347182,0.462783,1.1248,0.0246034,-0.462597,1.12444,0.0246581,0.462923,1.12482,0.0246238,-0.462752,1.12491,0.0246109,0.469195,1.12691,0.0285481,-0.469061,1.12677,0.0285472,0.469373,1.12707,0.0285497,-0.469194,1.1269,0.0285465,-0.000105358,-0.000437172,0.00088731,0.000115832,0,0,0,0,
4.69371,3.28508,1.64606,-0.000103996,-4.07325,3.39161,1.7254,0.00177573,4.32595,3.21031,1.6806,-0.0036211,-4.04904,3.14668,1.64926,-0.000138796,4.56874,4.61748,1.2046,-5.09157e-05,-4.90986,4.71591,1.22053,0.00176571,5.08558,4.53614,1.23238,-0.00365399,-4.86588,4.55713,1.19041,1.56147e-05,0.459443,1.11258,0.0287211,-0.459341,1.11226,0.0286725,0.459609,1.11286,0.028674,-0.459537,1.11272,0.0287474,0.465791,1.11438,0.0326943,-0.465658,1.11424,0.0326934,0.465967,1.11454,0.0326959,-0.465789,1.11437,0.0326927,2.31102e-05,-0.000394607,0.00080469,3.08435e-05,0,0,0,0,
4.79598,3.35317,1.71269,0.000330508,-4.13206,3.23968,1.67948,0.00140895,4.42426,3.27907,1.70122,-0.0033575,-4.15029,3.22864,1.67616,-0.000445791,4.65563,4.76268,1.14641,0.000390448,-5.01358,4.76582,1.22584,0.00140348,5.22196,4.68365,1.17005,-0.0033342,-5.00945,4.7227,1.19148,-0.000282754,0.455766,1.09939,0.0330635,-0.455692,1.09932,0.033033,0.455919,1.09968,0.033047,-0.455831,1.0995,0.0330577,0.46217,1.10105,0.0371043,-0.462038,1.10092,0.0371034,0.462345,1.10121,0.0371058,-0.462168,1.10104,0.0371027,-7.34462e-05,-0.0003131,0.000746112,9.90646e-05,0,0,0,0,
4.44204,3.37973,1.7829,-0.000315249,-4.69421,3.42208,1.72183,0.000998063,4.44948,3.34386,1.70046,-0.00310828,-4.71137,3.34172,1.71797,0.000496275,5.25953,4.97899,1.19053,-0.000251933,-4.62969,5.0355,1.24411,0.00104072,5.26591,4.96198,1.19598,-0.00308147,-5.16768,4.9567,1.20099,-0.000652945,0.45189,1.08528,0.0375151,-0.451769,1.08514,0.0375307,0.452083,1.08548,0.0376149,-0.451802,1.08535,0.037581,0.458336,1.08694,0.0417737,-0.458205,1.08681,0.0417728,0.45851,1.0871,0.0417753,-0.458335,1.08693,0.0417722,7.00553e-05,-0.000221792,0.000690728,-0.000110283,0,0,0,0,
4.291,3.2921,1.71798,2.83627e-05,-4.43713,3.26674,1.70653,0.00057786,4.27445,3.30485,1.67339,-0.00290386,-4.59485,3.09542,1.7256,0.000471577,4.86448,4.88268,1.21502,3.30208e-05,-5.11829,4.92936,1.16614,0.000568523,4.86061,4.8886,1.13173,-0.0029041,-5.07116,4.78565,1.18506,0.000487088,0.447958,1.07084,0.0423804,-0.447716,1.07068,0.0423937,0.448133,1.07099,0.0424633,-0.447952,1.07112,0.0423571,0.454293,1.07206,0.046698,-0.454163,1.07193,0.0466971,0.454465,1.07222,0.0466995,-0.454292,1.07205,0.0466964,-6.30281e-06,-0.000128413,0.000645301,-0.000104795,0,0,0,0,
4.79656,3.2617,1.54635,0.000452009,-4.19366,3.17662,1.6209,0.000200017,4.80802,3.21692,1.59096,-0.00266375,-4.22414,3.16104,1.61003,0.00015288,4.7688,4.9261,1.00502,0.000411928,-5.11685,4.95741,1.0026,0.00020248,4.7631,4.87615,1.03987,-0.00269881,-5.12485,4.90833,1.02084,0.000276323,0.443724,1.05553,0.0477119,-0.443635,1.0554,0.0476922,0.443892,1.05572,0.0476749,-0.443747,1.05556,0.0476875,0.450045,1.05642,0.0518722,-0.449916,1.05629,0.0518713,0.450215,1.05658,0.0518737,-0.450043,1.05641,0.0518707,-0.000100446,-4.44483e-05,0.000591944,-3.39732e-05,0,0,0,0,
4.87027,3.291,1.50593,-0.00030852,-4.26165,3.20091,1.56975,-0.000253898,4.85518,3.27399,1.5153,-0.00255775,-4.26136,3.21906,1.54837,0.00015287,4.85819,5.03425,0.936863,-0.000351698,-5.20381,5.06223,0.921474,-0.00024813,4.82865,5.01375,0.93737,-0.00252479,-5.18549,5.04956,0.929817,0.000268369,0.43926,1.03934,0.053157,-0.439168,1.03922,0.0531499,0.439456,1.03953,0.0531505,-0.439303,1.03936,0.0531489,0.445595,1.04005,0.0572913,-0.445468,1.03992,0.0572904,0.445764,1.0402,0.0572928,-0.445594,1.04004,0.0572898,6.856e-05,5.64218e-05,0.00056839,-3.39711e-05,0,0,0,0,
5.01042,3.4697,1.47265,-0.000110676,-4.37795,3.34325,1.56335,-0.000839926,5.0077,3.37734,1.51634,-0.00245556,-4.39676,3.31899,1.55475,0.000394967,5.0166,5.29777,0.874312,-0.000156465,-5.33955,5.28943,0.884004,-0.000859065,5.00322,5.20338,0.90927,-0.0024932,-5.34708,5.23734,0.905461,0.00050286,0.434437,1.0221,0.0588369,-0.434354,1.02205,0.0588012,0.434616,1.02236,0.0588108,-0.434477,1.0222,0.0587968,0.440949,1.02295,0.06295,-0.440823,1.02282,0.0629491,0.441116,1.0231,0.0629514,-0.440948,1.02294,0.0629485,2.45946e-05,0.00018665,0.00054568,-8.77705e-05,0,0,0,0,
4.9755,3.31609,1.51041,8.46994e-05,-4.36979,3.2354,1.58047,-0.00142861,4.93536,2.92649,1.56758,-0.00242407,-4.3464,3.14452,1.60133,-0.00024179,5.01431,5.21415,0.896902,3.43805e-05,-5.35187,5.2534,0.879502,-0.00141476,4.95862,4.94271,0.944547,-0.00246246,-5.31011,5.12863,0.932366,-0.000211264,0.429633,1.00472,0.0645734,-0.429569,1.0046,0.06456,0.429854,1.0054,0.0644991,-0.429716,1.0049,0.0644927,0.436111,1.00514,0.0688425,-0.435986,1.00501,0.0688417,0.436276,1.00529,0.068844,-0.43611,1.00513,0.068841,-1.88221e-05,0.000317469,0.000538683,5.3731e-05,0,0,0,0,
4.45399,3.1509,1.35964,0.000121728,-4.81168,3.35127,1.44032,-0.0021374,4.99875,3.14944,1.44363,-0.00246916,-4.37622,3.14075,1.39807,0.000422263,5.1354,5.22605,0.719294,0.000146929,-5.39587,5.45089,0.762646,-0.00212041,5.03559,5.24216,0.779682,-0.00250896,-5.36034,5.22816,0.700677,0.000427802,0.424764,0.986589,0.0708466,-0.424584,0.986097,0.0707392,0.424864,0.986769,0.0707469,-0.424742,0.986685,0.0708359,0.431085,0.986643,0.0749632,-0.430962,0.986517,0.0749624,0.431249,0.986791,0.0749647,-0.431084,0.986634,0.0749618,-2.70506e-05,0.000474978,0.000548702,-9.38363e-05,0,0,0,0,
4.59139,3.26268,1.36854,0.000144491,-4.90265,3.27308,1.33749,-0.00292012,4.63303,3.25444,1.36546,-0.00262725,-4.92923,3.29111,1.32041,0.000168197,5.40877,5.38619,0.619072,0.000242577,-5.06546,5.30743,0.656118,-0.00289629,5.43701,5.35703,0.638909,-0.00259983,-5.07394,5.32011,0.635989,0.000179014,0.419547,0.967558,0.0772106,-0.419406,0.967496,0.0771722,0.419657,0.967743,0.0772023,-0.419529,0.9676,0.0772156,0.425878,0.967475,0.081306,-0.425756,0.967351,0.0813051,0.426039,0.967622,0.0813074,-0.425876,0.967466,0.0813046,-3.21092e-05,0.000648915,0.000583834,-3.73771e-05,0,0,0,0,
4.84915,3.54923,1.2674,6.59161e-05,-5.02301,3.25088,1.3605,-0.00381311,4.83986,3.46789,1.32464,-0.00285676,-4.55579,3.50959,1.38568,0.000158903,5.76967,5.7972,0.592721,0.000151644,-5.168,5.48063,0.58466,-0.00377164,5.77234,5.70103,0.552859,-0.00281129,-5.56113,5.65538,0.642803,9.40512e-05,0.413895,0.947401,0.0838031,-0.413818,0.94777,0.0837532,0.414043,0.947687,0.0838245,-0.414008,0.947512,0.0837121,0.420493,0.947655,0.0878646,-0.420373,0.947533,0.0878637,0.420652,0.9478,0.087866,-0.420491,0.947646,0.0878632,-1.4648e-05,0.000847357,0.000634835,-3.53117e-05,0,0,0,0,
4.92492,3.42253,1.31165,-0.000119985,-5.20425,3.33217,1.23342,0.00381774,5.20034,3.49384,1.3331,-0.00307146,-4.54295,3.49547,1.34038,0.000375497,5.92394,5.60823,0.604087,4.57512e-06,-5.2898,5.64683,0.547467,0.00385024,5.29919,5.78807,0.534794,-0.0031201,-5.59431,5.6841,0.619709,0.000433576,0.40815,0.927313,0.0904878,-0.408068,0.927207,0.0906464,0.408458,0.927271,0.0905394,-0.408376,0.927177,0.0904794,0.414936,0.927203,0.0946325,-0.414817,0.927082,0.0946317,0.415093,0.927346,0.0946339,-0.414935,0.927194,0.0946311,2.66634e-05,-0.000848388,0.000682546,-8.34437e-05,0,0,0,0,
5.10422,3.34389,1.2109,-0.000139986,-4.54415,3.226,1.3171,0.00283885,5.0682,3.291,1.20798,-0.00339482,-4.50635,3.1645,1.28166,-0.000282663,5.25426,5.58372,0.499333,-0.000211572,-5.60668,5.59488,0.495269,0.00288036,5.19568,5.52431,0.483094,-0.00343986,-5.54383,5.4974,0.49595,-0.000352448,0.402733,0.906628,0.0974491,-0.40262,0.906576,0.097417,0.402971,0.906899,0.0974584,-0.402856,0.906838,0.0974011,0.409213,0.906138,0.101603,-0.409096,0.906019,0.101602,0.409368,0.906279,0.101605,-0.409211,0.906129,0.101602,3.1108e-05,-0.000630855,0.000754405,6.2814e-05,0,0,0,0,
-1.53844,-10.3605,3.75835,0.541132,1.45132,-10.1181,3.75365,0.00297289,-0.608414,-11.1903,4.5262,0.697854,1.20978,-10.2944,4.02821,0.0838978,-0.567887,-7.42478,2.93048,0.903505,0.947601,-7.85895,3.10174,0.406332,0.302953,-8.61893,3.71313,0.72874,0.869134,-7.91514,3.04473,0.621642,0.405399,0.902151,0.101842,-0.405068,0.902545,0.101378,0.404391,0.903429,0.100773,-0.405119,0.902525,0.101435,0.403329,0.884481,0.10877,-0.403213,0.884364,0.108769,0.403482,0.88462,0.108771,-0.403327,0.884473,0.108768,-0.120252,-0.000660643,-0.155079,-0.018644,0,0,0,0,
-6.48327,-21.4791,4.99144,2.21804,6.9845,-21.1994,4.85529,1.51016,-4.44577,-23.3896,6.42959,2.06037,6.60894,-20.9952,4.83781,0.676766,-5.76545,-18.2108,4.41094,0.913251,6.02595,-18.893,4.28059,2.28072,-3.76373,-20.7868,5.62704,2.03518,5.67322,-18.8641,4.23741,1.57278,0.407656,0.898819,0.105907,-0.407783,0.898686,0.106218,0.404827,0.902209,0.103974,-0.40735,0.899066,0.105989,0.39729,0.862254,0.116125,-0.397176,0.862139,0.116124,0.39744,0.862391,0.116126,-0.397288,0.862246,0.116123,-0.492898,-0.33559,-0.457859,-0.150392,0,0,0,0,
-10.3965,-30.5285,4.97656,2.48199,10.6145,-30.5824,4.14069,2.03418,-6.29962,-29.3002,5.04323,2.14346,7.03759,-28.3609,3.02937,1.6335,-9.69229,-27.8533,4.09327,2.68718,10.3059,-26.8992,2.78161,2.87292,-5.54572,-26.567,4.19517,2.14861,6.32241,-25.9619,2.50397,2.52263,0.409101,0.892331,0.11322,-0.409151,0.892103,0.114437,0.40324,0.892998,0.112116,-0.405002,0.890585,0.115023,0.391102,0.839479,0.123661,-0.39099,0.839365,0.123661,0.39125,0.839614,0.123663,-0.3911,0.839471,0.12366,-0.551553,-0.452039,-0.476325,-0.363,0,0,0,0,
-11.4114,-37.4798,3.93371,2.48794,12.2903,-35.6643,1.86002,0.7118,-2.50814,-25.8938,0.599035,0.658905,2.42352,-25.7241,-1.49782,0.259125,-10.5854,-34.7869,3.13369,2.47887,11.5741,-33.8032,1.24968,1.87602,-1.95659,-23.4547,-0.173232,0.712035,2.20441,-22.9139,-2.38644,-0.000142894,0.405279,0.88225,0.121924,-0.40636,0.880462,0.125025,0.393209,0.868401,0.125954,-0.39322,0.867556,0.129132,0.384771,0.816178,0.131372,-0.384661,0.816066,0.131371,0.384917,0.81631,0.131373,-0.38477,0.81617,0.131371,-0.552876,-0.158178,-0.146423,-0.0575833,0,0,0,0,
-11.4034,-42.9576,2.11008,2.26639,12.7993,-40.5358,-0.354136,0.32598,0.912077,-15.4443,-5.34345,0.00242912,-2.73613,-16.7396,-8.1207,-0.637591,-10.7352,-40.2281,1.30132,2.26442,11.6914,-38.6657,-1.05958,1.3701,1.76089,-12.6594,-6.04199,-0.00170767,-3.681,-14.6401,-8.85265,-0.816924,0.399142,0.868063,0.13271,-0.400697,0.865205,0.136792,0.379519,0.830011,0.142921,-0.37737,0.8314,0.147799,0.378303,0.792374,0.139249,-0.378195,0.792264,0.139248,0.378447,0.792504,0.13925,-0.378302,0.792366,0.139248,-0.503643,-0.0724401,-0.000539805,0.141687,0,0,0,0,
-11.6488,-48.6053,-0.0431192,1.8766,13.9237,-48.1301,-1.11272,2.16538,1.44074,-8.38802,-7.85473,-0.276548,-3.16089,-11.703,-8.75069,-1.39316,-10.8908,-45.838,-0.889471,1.90616,13.4637,-45.5437,-2.50964,0.325306,2.28096,-5.87203,-8.81071,-0.464094,-3.87554,-9.10303,-9.65183,-1.30909,0.392548,0.85323,0.143953,-0.396243,0.851349,0.146852,0.371286,0.791489,0.157777,-0.367845,0.796629,0.159686,0.371705,0.76809,0.147285,-0.371599,0.767982,0.147284,0.371847,0.768218,0.147286,-0.371704,0.768082,0.147283,-0.417022,-0.481196,0.0614551,0.309592,0,0,0,0,
-13.9385,-54.7026,-3.16518,1.37074,14.1614,-54.3549,-2.30941,2.33217,1.31284,-12.4879,-7.33216,-1.54734,-1.54352,-13.295,-7.90971,-1.55599,-13.2521,-51.8982,-4.04009,1.35344,13.8182,-52.6342,-3.76971,0.323478,1.67233,-9.17285,-8.32226,-1.06282,-2.24552,-10.5643,-8.81191,-1.55487,0.389164,0.838789,0.156995,-0.390385,0.838921,0.156729,0.36539,0.768072,0.165789,-0.363834,0.771096,0.166515,0.364984,0.743351,0.155471,-0.36488,0.743245,0.15547,0.365122,0.743477,0.155472,-0.364983,0.743343,0.15547,-0.304608,-0.518261,0.343854,0.345776,0,0,0,0,
-15.4605,-60.074,-5.99464,0.69969,14.6986,-61.1282,-4.45779,1.32806,1.6117,-18.1788,-7.06807,-0.859335,-0.685606,-17.1444,-7.97983,-1.27411,-14.6861,-57.2272,-6.8236,0.74143,13.4372,-58.4916,-5.19532,2.08879,2.53806,-15.6911,-7.88603,-1.08132,-1.42064,-14.3092,-8.89547,-1.27573,0.38534,0.823033,0.170149,-0.383979,0.824156,0.167971,0.357702,0.75382,0.173121,-0.35883,0.752262,0.174648,0.358145,0.718181,0.1638,-0.358043,0.718077,0.163799,0.358281,0.718305,0.163801,-0.358144,0.718174,0.163799,-0.155487,-0.295124,0.190963,0.283135,0,0,0,0,
-14.592,-63.9909,-7.81874,0.0324668,14.3004,-64.409,-6.702,0.812208,2.11559,-18.0898,-8.65098,-1.31687,-2.05842,-18.1292,-9.00206,-1.651,-13.8939,-61.1118,-8.73551,0.0846351,13.971,-61.7358,-8.19532,1.49471,2.65745,-15.6086,-9.6268,-1.69704,-2.80516,-15.3095,-9.89661,-1.6277,0.378088,0.804836,0.182015,-0.377157,0.805129,0.18032,0.350048,0.731361,0.183499,-0.350506,0.729981,0.184294,0.351196,0.692605,0.172263,-0.351096,0.692503,0.172263,0.35133,0.692726,0.172265,-0.351195,0.692598,0.172262,-0.00721484,-0.180491,0.292637,0.36689,0,0,0,0,
-12.0245,-65.8313,-9.94518,0.0161058,12.3255,-66.9907,-7.90316,0.0360835,1.80073,-12.8194,-10.2087,-1.88803,-3.20325,-15.5562,-10.2975,-2.25162,-11.3136,-62.9614,-10.8393,0.0171085,11.6174,-64.0991,-8.8408,0.0293376,2.64471,-10.2224,-11.1755,-2.53363,-3.97962,-12.7748,-11.2229,-2.24578,0.367568,0.782873,0.194004,-0.367951,0.783983,0.191558,0.343047,0.698061,0.194841,-0.341157,0.701136,0.195011,0.344144,0.666648,0.180853,-0.344046,0.666548,0.180852,0.344275,0.666767,0.180854,-0.344143,0.666641,0.180852,-0.00357906,-0.00801856,0.419562,0.500359,0,0,0,0,
-8.66538,-66.8622,-12.0969,-0.00844566,9.09102,-68.1822,-8.63899,0.0269363,1.8672,-11.1718,-9.51207,-2.85071,-2.13082,-12.648,-10.54,-2.45806,-7.95275,-63.9711,-13.0134,-0.00141119,8.37876,-65.3059,-9.57029,0.030829,2.63482,-8.13887,-10.3992,-1.52723,-2.95204,-9.82669,-11.5033,-2.46031,0.354986,0.758791,0.20627,-0.355773,0.761046,0.201029,0.336033,0.666739,0.203449,-0.334976,0.670092,0.204677,0.336995,0.640336,0.18956,-0.336899,0.640238,0.189559,0.337123,0.640452,0.189561,-0.336994,0.640328,0.189559,0.00187681,-0.00598584,0.633491,0.546235,0,0,0,0,
-5.41593,-67.0028,-13.1716,-0.621035,5.15568,-67.0392,-10.4132,0.0169354,2.72293,-14.065,-7.31248,-1.74768,-2.11424,-12.055,-9.53973,-2.28318,-4.68021,-64.0861,-14.1363,-0.594806,4.45131,-64.1569,-11.3444,0.012838,3.5965,-11.2675,-8.27271,-2.18136,-2.89213,-9.12952,-10.5344,-2.33761,0.342353,0.732791,0.217569,-0.34215,0.73357,0.212425,0.327849,0.643365,0.209081,-0.328576,0.641126,0.21229,0.329757,0.613694,0.198376,-0.329662,0.613598,0.198375,0.329882,0.613807,0.198377,-0.329756,0.613687,0.198375,0.138008,-0.00376343,0.388373,0.507374,0,0,0,0,
-1.57198,-66.0396,-12.4438,-1.05023,2.00708,-64.6948,-11.2497,-0.656112,3.26968,-14.522,-5.80387,-1.31017,-3.19552,-13.0438,-7.89792,-1.89085,-0.835842,-63.1159,-13.4514,-1.03882,1.27628,-61.785,-12.2334,-0.628589,4.1886,-11.7856,-6.76364,-1.57043,-3.9664,-10.0721,-8.9202,-1.89404,0.328985,0.704873,0.225979,-0.329107,0.70307,0.223392,0.319413,0.618683,0.215058,-0.319725,0.61569,0.218832,0.322436,0.586749,0.207292,-0.322344,0.586655,0.207292,0.322558,0.58686,0.207293,-0.322435,0.586742,0.207291,0.233384,0.145803,0.291148,0.42019,0,0,0,0,
0.169826,-62.6068,-10.8411,-1.02132,-0.0440884,-62.6121,-9.99297,-1.03314,4.04475,-12.4967,-4.44461,-0.916468,-4.38922,-13.1022,-5.76079,-1.33873,1.10044,-60.1533,-11.6477,-1.53339,-0.80136,-59.6908,-11.0212,-1.01198,4.87822,-9.61909,-5.43046,-0.93396,-5.15699,-10.1274,-6.80015,-1.34854,0.317647,0.673484,0.232732,-0.317753,0.672495,0.231109,0.311014,0.589341,0.221684,-0.310257,0.589165,0.224344,0.31504,0.559528,0.2163,-0.31495,0.559436,0.2163,0.315159,0.559636,0.216301,-0.315039,0.559521,0.216299,0.226959,0.229587,0.20366,0.297495,0,0,0,0,
0.457386,-57.9422,-8.1272,-1.02304,-1.30929,-59.634,-7.73543,-1.01395,4.85358,-9.83782,-2.58332,-0.231242,-4.82976,-12.1266,-3.48257,-0.715037,2.06461,-55.4195,-8.96019,-1.50412,-2.04426,-56.6842,-8.75767,-1.00333,5.5762,-6.72233,-3.67855,-0.463915,-5.63186,-9.14865,-4.52947,-0.718015,0.308335,0.637924,0.237922,-0.307978,0.64026,0.236876,0.302035,0.557182,0.228136,-0.301757,0.560369,0.229743,0.307576,0.532057,0.225391,-0.307488,0.531967,0.22539,0.307693,0.532163,0.225392,-0.307575,0.53205,0.22539,0.227342,0.225322,0.0513871,0.158897,0,0,0,0,
1.54628,-54.6532,-4.54498,-0.61067,-1.99752,-57.0379,-4.94713,-0.746119,5.43882,-9.7335,0.59662,-0.00152844,-4.74795,-11.2892,-1.02423,-0.0100741,2.42219,-52.0241,-5.41004,-1.01677,-2.79082,-54.0786,-6.00482,-0.772493,6.25717,-6.68695,-0.477998,0.00495917,-5.55885,-8.27233,-2.08124,-0.0173682,0.300061,0.604195,0.241449,-0.299088,0.608444,0.24151,0.293657,0.528085,0.232667,-0.294176,0.531229,0.234847,0.300052,0.504363,0.234555,-0.299966,0.504276,0.234554,0.300166,0.504467,0.234556,-0.300051,0.504357,0.234554,0.135705,0.165804,0.000339653,0.00223869,0,0,0,0,
2.63136,-53.4636,-0.527222,-0.110999,-2.59889,-53.8506,-2.33226,-0.474756,5.73403,-10.1456,4.56948,0.00480578,-4.84901,-10.3468,1.67352,0.00679884,3.42928,-50.4295,-1.61266,-0.115693,-3.40937,-50.8643,-3.3899,-0.464357,6.56679,-7.09759,3.4906,0.00196878,-5.66617,-7.31727,0.615473,0.00748183,0.291113,0.573574,0.244058,-0.290485,0.575386,0.24629,0.285201,0.50119,0.235375,-0.286635,0.501954,0.239644,0.292475,0.476475,0.243783,-0.292391,0.476389,0.243783,0.292585,0.476575,0.243784,-0.292474,0.476468,0.243782,0.0246666,0.105501,-0.00106795,-0.00151085,0,0,0,0,
3.85358,-52.0507,3.12614,0.00869609,-3.12749,-51.4126,0.0920391,-0.215949,5.43056,-9.29761,7.4456,0.318756,-5.17382,-9.50924,4.07476,0.0070112,4.65996,-49.0272,2.05842,0.00895653,-3.94665,-48.4061,-0.965616,-0.211516,6.26254,-6.2605,6.39188,0.313838,-5.99889,-6.47211,3.01583,0.0066677,0.281221,0.543793,0.246815,-0.281988,0.543268,0.251399,0.278012,0.472493,0.239204,-0.27855,0.472791,0.244774,0.284852,0.448418,0.253067,-0.28477,0.448335,0.253067,0.28496,0.448517,0.253068,-0.284851,0.448412,0.253066,-0.00193246,0.0479887,-0.0708346,-0.00155804,0,0,0,0,
4.85909,-49.7891,5.11547,0.0080189,-3.84071,-48.5031,2.11704,-0.0673556,5.32946,-7.74952,8.83347,0.736479,-5.26666,-8.06894,6.31061,0.0342737,5.6839,-46.7776,4.07681,0.00832024,-4.65921,-45.4767,1.06502,-0.0549218,6.17161,-4.69752,7.79943,0.730407,-6.10453,-5.00797,5.25469,0.0310229,0.271618,0.512552,0.252015,-0.273209,0.510139,0.257128,0.27048,0.44193,0.245537,-0.270556,0.442131,0.250225,0.277191,0.420222,0.262398,-0.277112,0.420141,0.262397,0.277296,0.420318,0.262399,-0.27719,0.420216,0.262397,-0.00178198,0.0149679,-0.163662,-0.00761639,0,0,0,0,
4.90834,-46.3126,5.68323,0.00670225,-4.64534,-46.6037,3.63299,-0.0150678,4.83684,-6.87319,9.43741,0.880501,-4.77969,-7.93098,8.01751,0.416079,5.74746,-43.2974,4.66476,0.006547,-5.46791,-43.5612,2.58679,-0.00975536,5.68584,-3.79196,8.40715,0.880662,-5.63223,-4.84871,6.96823,0.410526,0.263507,0.478779,0.259755,-0.264238,0.478559,0.263731,0.263475,0.411788,0.253632,-0.26343,0.41331,0.256496,0.2695,0.391914,0.271765,-0.269423,0.391835,0.271765,0.269602,0.392007,0.271766,-0.269499,0.391908,0.271764,-0.00148939,0.00334839,-0.195667,-0.092462,0,0,0,0,
4.61419,-42.6585,5.35162,0.00220031,-5.25269,-44.3665,4.8391,-0.0185633,4.18138,-6.51311,9.76183,0.899135,-3.75163,-7.62466,9.16208,0.656355,5.46461,-39.6215,4.33235,0.00309059,-6.08622,-41.3079,3.79411,-0.0113235,5.03584,-3.41269,8.72988,0.894222,-4.61232,-4.52996,8.11885,0.653089,0.256065,0.444123,0.269478,-0.255338,0.446277,0.270986,0.256782,0.382484,0.262413,-0.257216,0.384262,0.263746,0.261785,0.363521,0.281161,-0.261711,0.363445,0.28116,0.261885,0.363611,0.281162,-0.261785,0.363516,0.28116,-0.000488959,0.00412517,-0.199808,-0.145857,0,0,0,0,
3.94624,-40.1201,5.49852,-0.0342516,-5.14083,-42.6213,5.93954,-0.0354987,3.33623,-6.62554,10.0214,0.872882,-2.63464,-7.29248,9.80867,0.7642,4.80267,-37.0528,4.45932,-0.0291592,-5.99011,-39.5472,4.89152,-0.0286841,4.19728,-3.52444,8.98843,0.868552,-3.49822,-4.19465,8.77198,0.762471,0.249303,0.410879,0.278967,-0.247475,0.414689,0.278578,0.250332,0.354223,0.271366,-0.251299,0.355301,0.271861,0.254056,0.335072,0.290575,-0.253983,0.334998,0.290574,0.254152,0.33516,0.290576,-0.254055,0.335067,0.290574,0.00761146,0.00788859,-0.193974,-0.169822,0,0,0,0,
3.09156,-38.9994,6.77065,-0.0307512,-4.31239,-41.4419,7.14247,-0.0188461,2.22291,-6.23041,10.2057,0.850411,-1.4897,-6.7536,10.0146,0.775915,3.9511,-35.9047,5.71456,-0.0307409,-5.17677,-38.3556,6.09256,-0.0111005,3.08975,-3.1298,9.17373,0.846897,-2.35467,-3.65585,8.98408,0.775339,0.242914,0.379896,0.286724,-0.240757,0.384001,0.286032,0.244324,0.32518,0.280442,-0.245459,0.326025,0.280742,0.246319,0.306596,0.299998,-0.246249,0.306524,0.299998,0.246412,0.30668,0.299999,-0.246318,0.30659,0.299997,0.00683361,0.00418803,-0.18898,-0.172426,0,0,0,0,
2.05402,-39.2183,8.51889,0.00177088,-2.79317,-40.9974,8.36421,-0.0139415,0.796906,-5.99053,10.3217,0.82408,-0.236432,-6.43366,9.96069,0.707195,2.91659,-36.1118,7.45696,0.00147303,-3.66469,-37.9075,7.31866,-0.0136842,1.66861,-2.89259,9.29353,0.819607,-1.10151,-3.33851,8.9371,0.706057,0.236829,0.35137,0.29348,-0.235313,0.354623,0.29337,0.238829,0.296353,0.28959,-0.2398,0.297056,0.290092,0.238582,0.278119,0.309421,-0.238514,0.278049,0.309421,0.238672,0.278201,0.309422,-0.238581,0.278114,0.309421,-0.00039353,0.00309812,-0.183129,-0.157155,0,0,0,0,
0.846257,-39.807,10.3882,0.00287759,-1.00152,-40.7095,9.20115,-0.0809821,-0.799482,-5.99214,10.3014,0.738455,1.17639,-6.27602,9.69223,0.572483,1.70971,-36.7049,9.33669,0.00255795,-1.87556,-37.6238,8.16449,-0.0825751,0.0736334,-2.89494,9.27917,0.739363,0.307726,-3.18253,8.67439,0.573513,0.231053,0.323799,0.299653,-0.230447,0.325641,0.301232,0.23368,0.267786,0.298959,-0.234317,0.268255,0.29986,0.230852,0.24967,0.318835,-0.230786,0.249603,0.318835,0.23094,0.24975,0.318836,-0.230852,0.249665,0.318835,-0.000639464,0.017996,-0.164101,-0.127218,0,0,0,0,
-0.53626,-40.109,11.4602,0.00159458,0.817489,-40.3083,9.82892,-0.226814,-2.59558,-6.07632,9.98053,0.572944,2.73211,-6.15112,9.19902,0.384649,0.329317,-37.0238,10.4283,0.0012127,-0.0530179,-37.2337,8.80219,-0.227924,-1.72356,-2.98658,8.96734,0.57394,1.86145,-3.06567,8.18757,0.384366,0.225544,0.29607,0.306888,-0.225775,0.296638,0.309405,0.22891,0.239497,0.308744,-0.229104,0.239638,0.309978,0.223138,0.221277,0.328231,-0.223075,0.221212,0.32823,0.223223,0.221354,0.328231,-0.223138,0.221273,0.32823,-0.000354351,0.0504031,-0.127321,-0.0854776,0,0,0,0,
-2.10395,-39.8009,11.6328,-0.0918619,2.56308,-39.6795,9.94226,-0.432172,-4.34613,-6.06203,9.23122,0.341601,4.52107,-6.01096,8.58276,0.177919,-1.23695,-36.7385,10.6192,-0.0887442,1.69747,-36.6198,8.92375,-0.428243,-3.4741,-2.98484,8.22454,0.340455,3.65101,-2.93557,7.57541,0.17913,0.220375,0.267526,0.315574,-0.221019,0.267367,0.318455,0.22409,0.211185,0.319243,-0.224305,0.211058,0.320349,0.215447,0.192969,0.337598,-0.215385,0.192906,0.337598,0.215529,0.193043,0.337599,-0.215446,0.192964,0.337598,0.0204138,0.0960383,-0.0759113,-0.0395376,0,0,0,0,
-3.87102,-38.2754,11.198,-0.390673,4.16682,-38.2557,10.0384,-0.648066,-6.34029,-5.85518,8.61472,0.110614,6.44759,-5.84133,8.06932,0.00082994,-3.00334,-35.2327,10.1933,-0.386533,3.30491,-35.2087,9.0235,-0.644891,-5.46949,-2.78842,7.61104,0.109979,5.57854,-2.77379,7.06037,-0.000641195,0.215514,0.236979,0.325462,-0.216069,0.236812,0.327613,0.219642,0.182543,0.329647,-0.219794,0.182421,0.33066,0.207786,0.164773,0.346929,-0.207727,0.164712,0.346928,0.207865,0.164844,0.346929,-0.207786,0.164768,0.346928,0.0868163,0.144015,-0.0245808,-0.000184431,0,0,0,0,
-5.85762,-37.4351,10.9054,-0.658076,5.90582,-37.7524,10.3498,-0.807264,-8.33274,-5.89542,8.02222,0.0592635,8.57403,-6.11338,7.91035,-0.00180147,-5.00778,-34.4175,9.90288,-0.653276,5.02984,-34.7192,9.33196,-0.811244,-7.55677,-2.99356,7.17996,0.0429939,7.52535,-2.78034,6.58464,-0.000191289,0.211137,0.207616,0.335307,-0.211268,0.20791,0.336516,0.215359,0.154562,0.339935,-0.215528,0.154551,0.340511,0.200163,0.136716,0.356213,-0.200106,0.136658,0.356212,0.200239,0.136785,0.356213,-0.200163,0.136712,0.356212,0.146239,0.179392,-0.0131697,0.000400327,0,0,0,0,
-7.9706,-36.2021,10.9471,-0.807376,7.73142,-36.5547,10.9443,-0.884042,-10.2044,-5.48348,7.4979,0.00192284,10.3606,-6.00176,7.37047,0.0242663,-7.08598,-33.2037,9.93699,-0.810947,6.89436,-33.5497,9.93152,-0.885246,-9.51286,-2.34134,6.32865,0.0532885,9.67656,-2.85326,6.49593,-0.000144026,0.206973,0.177632,0.344712,-0.206667,0.177993,0.34495,0.211032,0.125924,0.35027,-0.211188,0.12667,0.350393,0.192586,0.108828,0.365441,-0.192531,0.108772,0.365441,0.192659,0.108894,0.365442,-0.192586,0.108824,0.365441,0.179417,0.196454,-0.000427298,-0.0053925,0,0,0,0,
-10.1805,-34.7257,11.5557,-0.852176,9.86572,-35.6408,11.8842,-0.87525,-12.178,-5.62936,7.30386,0.00510193,12.5944,-5.8544,7.54285,0.0349986,-9.34695,-31.7473,10.5516,-0.855291,9.03703,-32.6514,10.871,-0.882696,-11.5345,-2.48774,6.41823,0.00425756,11.5474,-2.90872,6.66394,-0.000203188,0.203109,0.147362,0.35308,-0.202604,0.148744,0.352662,0.206742,0.0983648,0.359828,-0.207059,0.0987536,0.359454,0.185062,0.0811344,0.374605,-0.185009,0.0810805,0.374605,0.185132,0.0811982,0.374606,-0.185061,0.0811304,0.374605,0.189373,0.1945,-0.00113376,-0.00777747,0,0,0,0,
-12.5105,-33.7071,12.3952,-0.827276,12.082,-34.6237,12.8686,-0.850947,-14.5377,-5.40404,7.81105,0.0240451,14.716,-5.63821,7.86527,0.0129106,-11.6289,-30.7436,11.3975,-0.834703,11.2595,-31.673,11.871,-0.85189,-13.4524,-2.39215,6.72105,0.00297378,13.6161,-2.70715,6.98403,-0.000994067,0.199446,0.118089,0.360926,-0.198736,0.119591,0.360142,0.202804,0.0704314,0.368411,-0.203026,0.070852,0.368124,0.177598,0.0536634,0.383696,-0.177547,0.0536118,0.383696,0.177666,0.0537247,0.383697,-0.177598,0.0536596,0.383695,0.183839,0.189099,-0.00534335,-0.00286901,0,0,0,0,
-14.7749,-32.5501,13.5421,-0.764072,14.4533,-33.2934,13.772,-0.789422,-16.673,-5.02758,8.3295,0.000412243,16.6073,-5.20154,8.28347,-0.00034854,-13.8958,-29.6311,12.554,-0.76976,13.6411,-30.3669,12.7777,-0.796529,-15.555,-2.02846,7.21781,0.0260003,16.0412,-2.28306,7.40059,0.0162697,0.195804,0.0889627,0.368085,-0.195212,0.0902429,0.367615,0.198911,0.0426102,0.376648,-0.199182,0.0429276,0.376496,0.170202,0.0264421,0.392704,-0.170154,0.0263926,0.392703,0.170267,0.0265008,0.392704,-0.170202,0.0264385,0.392703,0.169794,0.175427,-9.16096e-05,7.74534e-05,0,0,0,0,
-17.0313,-30.7696,14.3597,-0.67881,16.9874,-31.2176,14.3823,-0.733516,-18.5509,-4.71944,8.84778,-0.00290566,19.051,-4.82111,8.8079,0.0546509,-16.2341,-27.8873,13.3884,-0.687825,16.1091,-28.3273,13.4168,-0.742431,-18.0209,-1.81622,7.9657,0.0398431,17.9123,-1.87945,7.72873,-0.000591074,0.192288,0.0591109,0.375553,-0.191998,0.0599382,0.37538,0.195149,0.0151334,0.384617,-0.195434,0.0152921,0.384719,0.162881,-0.000502779,0.40162,-0.162835,-0.000550155,0.40162,0.162943,-0.000446614,0.401621,-0.162881,-0.000506248,0.40162,0.150847,0.163004,0.000645701,-0.0121446,0,0,0,0,
-19.4164,-29.0749,15.0487,-0.58621,19.5334,-29.5683,14.698,-0.669177,-20.8177,-4.82616,9.66302,0.00304942,20.8977,-4.57165,9.50975,0.0586541,-18.6313,-26.2165,14.0934,-0.595983,18.6602,-26.716,13.7338,-0.683046,-20.3225,-1.95736,8.79627,0.0715446,20.4095,-1.69401,8.40471,-0.000840766,0.188962,0.0296539,0.383128,-0.188984,0.0305682,0.38359,0.191642,-0.0114289,0.392139,-0.191771,-0.0118998,0.392487,0.155643,-0.0271446,0.410436,-0.155598,-0.0271898,0.410436,0.155702,-0.0270909,0.410437,-0.155642,-0.0271479,0.410436,0.130269,0.148706,-0.00067765,-0.0130343,0,0,0,0,
-21.7848,-27.1945,15.391,-0.507297,22.0598,-27.1538,14.8754,-0.618712,-23.0098,-4.28149,10.3651,0.00270127,23.4397,-4.30036,10.119,0.116962,-20.9975,-24.393,14.4585,-0.518342,21.2877,-24.686,14.4139,-0.933798,-22.5405,-1.43093,9.50355,0.114116,22.2762,-1.46068,9.08334,-0.000253913,0.185701,0.000198485,0.391228,-0.18601,0.00014838,0.392035,0.188142,-0.0387126,0.399718,-0.188266,-0.0387042,0.400215,0.148494,-0.053457,0.419143,-0.148451,-0.0535002,0.419143,0.14855,-0.0534058,0.419144,-0.148493,-0.0534602,0.419143,0.112733,0.137492,-0.000600283,-0.0259916,0,0,0,0,
-24.3545,-25.3206,15.3595,-0.729807,24.4495,-25.381,14.9994,-0.153063,-25.2258,-3.66116,11.0783,-0.000769118,25.6152,-3.70145,10.8689,0.172986,-23.3752,-21.8248,14.8785,-0.00941067,23.7813,-22.1365,14.6643,-0.767507,-24.7641,-0.842392,10.2185,0.187854,24.4676,-0.914978,10.0129,-0.000710456,0.182707,-0.029579,0.399186,-0.183081,-0.0292881,0.400104,0.184751,-0.065788,0.407152,-0.184803,-0.065755,0.407521,0.141441,-0.0794141,0.427733,-0.141401,-0.0794552,0.427732,0.141495,-0.0793653,0.427733,-0.141441,-0.0794171,0.427732,0.162179,0.0340139,0.000170915,-0.0384413,0,0,0,0,
-26.6821,-22.9678,16.0106,-0.583008,27.0947,-23.2111,16.2935,-0.0261449,-27.8184,-3.30844,11.9751,0.0483582,27.9135,-3.72318,11.8839,0.0261488,-26.0476,-20.6714,15.6978,-0.000231934,26.1248,-20.9114,14.7712,-0.630274,-26.6605,-0.568595,11.137,0.240766,26.7519,-0.963142,10.8444,0.217545,0.17988,-0.0583219,0.406912,-0.180271,-0.0579893,0.407473,0.181518,-0.0920388,0.414161,-0.181625,-0.0914315,0.41452,0.134492,-0.10499,0.436196,-0.134454,-0.105029,0.436196,0.134544,-0.104944,0.436197,-0.134492,-0.104993,0.436196,0.129557,0.00580999,-0.0107463,-0.00581084,0,0,0,0,
-29.2152,-21.7215,17.1886,-0.524749,29.304,-22.0854,17.1377,-0.00310131,-30.1214,-3.10638,12.8595,0.332444,30.1146,-3.2367,12.7304,0.101105,-28.6323,-18.6218,15.6828,-0.000145717,28.733,-18.9819,15.6267,-0.552665,-28.9588,-0.358043,11.8492,0.109728,28.951,-0.536156,11.7178,0.305541,0.177259,-0.0864054,0.414286,-0.177426,-0.085891,0.414467,0.178475,-0.117714,0.421162,-0.178416,-0.117527,0.421441,0.127654,-0.13016,0.444525,-0.127617,-0.130197,0.444525,0.127702,-0.130116,0.444526,-0.127653,-0.130163,0.444525,0.116611,0.000689179,-0.0738764,-0.0224679,0,0,0,0,
-31.644,-20.3705,17.8066,-0.493709,31.6821,-20.166,17.2991,-0.00224694,-31.9199,-2.97191,13.3354,0.179315,32.3692,-3.09166,13.4813,0.379551,-31.1148,-17.344,16.3254,0.000667778,31.1566,-17.9071,16.9946,-0.508917,-31.5533,-0.269414,12.5326,0.388549,31.2036,-0.449507,12.4879,0.15022,0.174605,-0.113503,0.421442,-0.174685,-0.113319,0.421442,0.175374,-0.142746,0.428355,-0.175416,-0.142533,0.428303,0.120932,-0.154899,0.452711,-0.120898,-0.154934,0.452711,0.120978,-0.154857,0.452712,-0.120932,-0.154902,0.452711,0.109713,0.000499319,-0.0398478,-0.0843446,0,0,0,0,
-34.0616,-18.4057,17.5656,7.77307e-05,33.9465,-18.3655,17.7323,-0.458239,-34.0319,-2.64814,13.7571,0.216105,34.1658,-2.80068,13.9378,0.439788,-33.5806,-16.1616,17.2645,-0.466964,33.4694,-16.1208,17.4279,-0.00162249,-33.6968,-0.0607161,12.9684,0.428143,33.8299,-0.150703,13.1639,0.202881,0.172063,-0.14063,0.428889,-0.171881,-0.140773,0.428681,0.172283,-0.167721,0.43572,-0.17244,-0.167547,0.435421,0.114335,-0.179183,0.460747,-0.114302,-0.179216,0.460747,0.114378,-0.179143,0.460748,-0.114334,-0.179185,0.460747,-1.72735e-05,0.101831,-0.0480234,-0.0977306,0,0,0,0,
-36.3331,-17.2347,18.284,-0.42159,36.5059,-17.1915,18.5254,-0.405899,-36.2041,-2.5717,14.3305,0.433343,36.2964,-2.39215,14.5608,0.418537,-35.9018,-14.3745,16.8884,-1.59884e-05,35.4606,-14.9762,17.1282,0.00195953,-35.9004,0.0336286,13.581,0.207078,35.9922,0.214613,13.5841,0.207262,0.169413,-0.167107,0.436445,-0.169191,-0.1667,0.436065,0.169415,-0.191917,0.442664,-0.169517,-0.192259,0.442456,0.107867,-0.202987,0.468624,-0.107836,-0.203018,0.468624,0.107908,-0.20295,0.468625,-0.107867,-0.202989,0.468624,0.0936866,0.0901998,-0.0962985,-0.0930082,0,0,0,0,
-38.5675,-15.5917,17.8907,0.000870896,38.7439,-16.1317,18.7136,0.0024885,-38.7681,-2.29892,14.9523,0.3959,38.4548,-2.62779,14.9829,0.211761,-38.1782,-13.3882,17.5789,-0.375004,37.6843,-13.3459,17.3496,-0.392649,-37.5962,0.255833,13.9862,0.206203,38.1829,-0.0899992,14.0176,0.389289,0.166825,-0.192891,0.444012,-0.166542,-0.192468,0.443458,0.166608,-0.215867,0.449567,-0.166784,-0.215328,0.449509,0.101536,-0.226288,0.476335,-0.101507,-0.226318,0.476335,0.101575,-0.226253,0.476335,-0.101536,-0.22629,0.476334,-0.000193533,-0.000553001,-0.0879778,-0.0470579,0,0,0,0,
-40.6906,-14.1877,18.5242,0.000711653,41.0015,-14.1215,18.7988,-0.35672,-40.3498,-1.98643,15.1546,0.366002,40.4773,-2.02902,15.2948,0.370832,-40.3437,-11.495,17.214,-0.369806,39.9341,-11.9442,17.4783,0.00276981,-40.1091,0.513434,14.4536,0.193087,40.2367,0.399681,14.6098,0.187294,0.16418,-0.218703,0.451431,-0.164073,-0.218397,0.450925,0.163766,-0.239286,0.456602,-0.163971,-0.239187,0.456331,0.0953483,-0.249063,0.483871,-0.0953211,-0.249091,0.483871,0.0953845,-0.24903,0.483872,-0.095348,-0.249065,0.483871,-0.000158145,0.0792711,-0.0813338,-0.0824072,0,0,0,0,
-43.156,-13.5034,18.993,-0.342757,42.814,-13.3743,18.5579,-0.324974,-42.4054,-2.16317,15.6506,0.192253,42.9714,-2.20407,15.6081,0.18782,-42.0882,-10.8807,17.6992,0.000271805,42.5084,-11.2429,18.256,0.00390149,-42.1966,0.266136,14.9905,0.332344,41.8069,0.165788,14.9452,0.333475,0.161655,-0.242283,0.458083,-0.161621,-0.2421,0.457955,0.161161,-0.261387,0.463163,-0.161289,-0.261297,0.463221,0.0893093,-0.27129,0.491226,-0.0892838,-0.271316,0.491226,0.0893432,-0.271259,0.491227,-0.0893091,-0.271292,0.491226,0.0761681,0.0722164,-0.0427229,-0.0417379,0,0,0,0,
-45.1763,-12.4359,19.2995,-0.322124,45.3255,-12.2338,18.7512,0.00272573,-44.344,-1.8672,15.9933,0.16369,44.9195,-1.88486,16.1171,0.14466,-44.1071,-10.3493,18.0384,-3.99774e-05,44.2506,-10.1408,18.4537,-0.332348,-44.1665,0.503363,15.3592,0.283516,43.7601,0.42085,15.1875,0.259124,0.159107,-0.265537,0.464774,-0.159275,-0.265892,0.464867,0.158504,-0.283692,0.469783,-0.158623,-0.283632,0.469793,0.0834253,-0.292947,0.498393,-0.0834015,-0.292971,0.498393,0.083457,-0.292918,0.498393,-0.083425,-0.292949,0.498393,0.0715831,-0.000605719,-0.0363755,-0.0321467,0,0,0,0,
