FengTian-Bit/rl_sar_bitter/src/rl_sar/models/w1/csv_data/csv_rl.csv
joint_tau_cal_0,joint_tau_cal_1,joint_tau_cal_2,joint_tau_cal_3,joint_tau_cal_4,joint_tau_cal_5,joint_tau_cal_6,joint_tau_cal_7,joint_tau_cal_8,joint_tau_cal_9,joint_tau_cal_10,joint_tau_cal_11,joint_tau_cal_12,joint_tau_cal_13,joint_tau_cal_14,joint_tau_cal_15,joint_tau_est_0,joint_tau_est_1,joint_tau_est_2,joint_tau_est_3,joint_tau_est_4,joint_tau_est_5,joint_tau_est_6,joint_tau_est_7,joint_tau_est_8,joint_tau_est_9,joint_tau_est_10,joint_tau_est_11,joint_tau_est_12,joint_tau_est_13,joint_tau_est_14,joint_tau_est_15,joint_pos_0,joint_pos_1,joint_pos_2,joint_pos_4,joint_pos_5,joint_pos_6,joint_pos_8,joint_pos_9,joint_pos_10,joint_pos_12,joint_pos_13,joint_pos_14,joint_pos_target_0,joint_pos_target_1,joint_pos_target_2,joint_pos_target_4,joint_pos_target_5,joint_pos_target_6,joint_pos_target_8,joint_pos_target_9,joint_pos_target_10,joint_pos_target_12,joint_pos_target_13,joint_pos_target_14,joint_vel_3,joint_vel_7,joint_vel_11,joint_vel_15,joint_vel_target_3,joint_vel_target_7,joint_vel_target_11,joint_vel_target_15,
-5.72259,3.50381,30.0035,-0.399677,3.11668,2.64584,22.4536,-1.03299,-6.78943,0.28235,27.9169,-1.76945,11.816,4.28049,33.3043,-1.06105,-12.1628,1.76367,22.5309,-0.39783,12.3186,1.97472,23.1656,-0.396696,-11.3622,0.870542,23.9426,-0.00109151,11.3208,0.892767,24.7211,-0.454703,0.0202758,-0.603323,0.561557,-0.0205221,-0.603344,0.561443,0.0189317,-0.601494,0.560135,-0.0188635,-0.601861,0.55966,-0.122775,-0.515679,1.31025,0.0574017,-0.537706,1.12419,-0.150797,-0.595028,1.25958,0.276537,-0.494826,1.39232,-3.79627e-05,1.02062e-05,-0.0153636,9.03677e-05,-0.799392,-2.06596,-3.55426,-2.122,
-5.73817,3.48206,29.9802,-0.365175,3.11478,2.63521,22.4528,-0.969709,-6.8157,0.282217,27.9988,-1.67595,11.8079,4.24968,33.326,-0.955843,-5.74695,3.52537,29.8806,-0.400098,3.1075,2.60602,22.5277,-1.01712,-6.80563,0.238815,27.9008,-1.7628,11.8059,4.2963,33.2163,-1.03591,0.0203839,-0.60329,0.561641,-0.020515,-0.6033,0.561528,0.0190497,-0.601494,0.560214,-0.0188338,-0.601812,0.559825,-0.122775,-0.515679,1.31025,0.0574017,-0.537706,1.12419,-0.150797,-0.595028,1.25958,0.276537,-0.494826,1.39232,-0.0690419,-0.126546,-0.20235,-0.210316,-0.799392,-2.06596,-3.55426,-2.122,
-5.50828,4.24392,30.3358,-0.0692825,3.00436,2.38968,21.7289,-0.988506,-5.40736,0.331396,26.3492,-1.36361,9.76802,4.72217,33.574,-0.444876,-5.80703,3.52179,29.8159,-0.33176,3.05646,2.61213,22.3562,-0.863181,-6.88421,0.269491,27.8427,-1.60686,11.7289,4.26937,33.0484,-0.703959,0.0214215,-0.60369,0.562519,-0.0197855,-0.6033,0.562827,0.0201571,-0.601829,0.562335,-0.0178691,-0.601402,0.562026,-0.114978,-0.498669,1.32079,0.0563729,-0.543998,1.10682,-0.113601,-0.594575,1.22492,0.227491,-0.482366,1.40283,-0.0393282,-0.264919,-0.503918,-0.600738,-0.177893,-2.24193,-3.23113,-1.49049,
-5.7034,4.92535,30.2537,0.323673,2.9341,1.93861,20.6705,-0.827421,-4.83745,0.337334,25.388,-1.10491,8.89601,4.8242,31.3139,0.318705,-5.62259,4.29205,30.1819,-0.0582018,2.90062,2.40674,21.4577,-0.840659,-5.54947,0.405209,26.0431,-1.26464,9.63422,4.69718,33.1111,-0.243818,0.0239401,-0.605227,0.56536,-0.0176185,-0.603574,0.566625,0.0230476,-0.603155,0.568294,-0.0152895,-0.600733,0.568805,-0.116661,-0.483884,1.32521,0.0574875,-0.555028,1.08559,-0.0959148,-0.595353,1.20645,0.208963,-0.480289,1.35536,-0.144754,-0.490052,-0.574739,-1.11462,0.502591,-2.1449,-2.78457,-0.477214,
-5.78714,5.36202,29.5926,0.394631,2.94021,1.25492,20.0869,-0.80942,-4.74134,0.211108,24.0826,-0.958371,8.33868,4.3629,28.8138,0.574487,-5.79569,5.03218,30.1071,0.252212,2.85003,1.99232,20.333,-0.760589,-4.96487,0.481767,24.9072,-1.03482,8.77798,4.78015,30.9278,0.262332,0.0268693,-0.608148,0.570335,-0.0149919,-0.604139,0.57261,0.0263776,-0.605444,0.577112,-0.0121754,-0.600379,0.577879,-0.116166,-0.476679,1.31498,0.0599684,-0.572834,1.07802,-0.0904763,-0.601268,1.18391,0.197881,-0.491706,1.30527,-0.0659221,-0.558334,-0.601552,-1.06829,0.723341,-2.17717,-2.5183,0.0806854,
-5.70332,5.45703,28.4217,0.358656,3.16459,0.666588,19.7546,-0.839255,-4.91344,0.0654315,22.4413,-0.856067,7.89692,3.58672,27.4152,0.468307,-5.8273,5.52859,29.2748,0.370259,2.90772,1.28701,19.7874,-0.836869,-4.79982,0.323064,23.6764,-1.00314,8.28563,4.37793,28.4647,0.434936,0.0287091,-0.611975,0.577281,-0.01339,-0.604885,0.57974,0.0286568,-0.608171,0.587077,-0.0100607,-0.600517,0.587185,-0.11327,-0.477561,1.29155,0.0662119,-0.589001,1.07896,-0.0931084,-0.608634,1.15534,0.18831,-0.510602,1.27697,0.000591641,-0.570584,-0.613192,-0.73544,0.717903,-2.24909,-2.32533,0.201174,
-5.8907,5.83668,26.4236,0.343163,3.34477,0.0736939,19.6196,-0.972798,-5.12942,-0.158422,21.2969,-0.965717,7.83908,2.89022,26.2454,0.250985,-5.7101,5.61959,27.9529,0.3587,3.15779,0.679609,19.4403,-0.930407,-4.92642,0.13711,22.061,-0.94033,7.88716,3.6563,27.0144,0.319155,0.0293979,-0.61613,0.586183,-0.0128927,-0.605786,0.587492,0.0297553,-0.610952,0.597091,-0.00910286,-0.601133,0.59587,-0.117597,-0.473168,1.25137,0.0707029,-0.604822,1.08207,-0.0980147,-0.616872,1.13458,0.187238,-0.528911,1.25574,-0.0134969,-0.459366,-0.34777,-0.382401,0.672829,-2.40496,-2.2792,0.11957,
-6.2508,5.68159,24.8893,0.278348,3.52505,-0.686319,19.0519,-1.12709,-5.28105,-0.607702,20.0588,-1.07389,7.97422,2.2618,24.8061,0.0501406,-5.89022,5.93868,26.0566,0.336277,3.34302,0.111792,19.2457,-1.03058,-5.14743,-0.0716865,20.8795,-1.00815,7.82547,2.94195,25.9913,0.0915551,0.029614,-0.620015,0.595533,-0.0128251,-0.606732,0.595579,0.0302948,-0.613382,0.606585,-0.00868749,-0.602189,0.603146,-0.126448,-0.480458,1.22437,0.0754315,-0.62412,1.07582,-0.101489,-0.629564,1.11248,0.190841,-0.546786,1.22836,-0.0150912,-0.260694,-0.169124,-0.110442,0.541605,-2.51487,-2.3169,-0.0101609,
-6.58168,5.3014,24.1313,0.193426,3.70253,-0.914348,18.5237,-1.1662,-5.56595,-0.70954,18.961,-1.12458,7.97368,1.65517,24.426,-0.0677962,-6.2656,5.7736,24.576,0.274782,3.51457,-0.648723,18.7918,-1.21125,-5.30841,-0.530283,19.7817,-1.1587,7.95145,2.28436,24.6085,0.00529166,0.0299021,-0.622962,0.604236,-0.0126659,-0.607702,0.602871,0.0308878,-0.615534,0.614549,-0.0082123,-0.603148,0.609025,-0.134463,-0.491565,1.21162,0.079971,-0.631461,1.07085,-0.10778,-0.634843,1.09378,0.191527,-0.56161,1.22192,0.00024755,-0.176314,-0.0737228,0.00350688,0.387099,-2.5087,-2.32288,-0.132086,
-6.90592,5.11485,23.4422,0.165042,3.5436,-1.21362,18.32,-1.20706,-5.67627,-0.876471,18.2705,-1.136,8.26696,1.20241,23.6576,-0.0263431,-6.59635,5.37884,23.8026,0.198428,3.6936,-0.92527,18.3221,-1.2546,-5.58395,-0.707708,18.8026,-1.12668,7.96064,1.63444,24.2763,-0.0546107,0.0302844,-0.62489,0.611792,-0.0124182,-0.608481,0.609019,0.0315316,-0.616984,0.621147,-0.00769539,-0.603173,0.613677,-0.142083,-0.497461,1.20099,0.0763866,-0.63938,1.06935,-0.109968,-0.639792,1.08216,0.199308,-0.573282,1.2085,0.000235427,-0.0738783,0.000576031,0.00658102,0.330319,-2.48799,-2.27142,-0.0461051,
-7.04648,4.53835,23.3333,0.143138,3.48673,-1.69361,18.1362,-1.16057,-5.75966,-0.96231,17.4697,-1.0295,8.3884,0.63888,23.2949,0.0364486,-6.91242,5.14032,23.1993,0.169769,3.54419,-1.28265,18.2055,-1.24427,-5.6867,-0.910666,18.1704,-1.136,8.26208,1.14349,23.5627,-0.0139054,0.0305681,-0.62557,0.61746,-0.0123064,-0.608191,0.613137,0.0320198,-0.617398,0.626195,-0.00733975,-0.602206,0.616991,-0.14553,-0.511796,1.20271,0.0747819,-0.650346,1.06921,-0.11169,-0.641767,1.06622,0.202569,-0.584985,1.19992,0.000209381,-0.0722917,-0.0660007,0.0116976,0.286486,-2.39344,-2.125,0.0845948,
-7.11838,4.32711,23.1494,0.171944,3.19592,-2.08036,18.4893,-1.15103,-5.80337,-1.07094,17.2736,-0.9629,8.66376,0.3368,23.1295,0.159691,-7.04726,4.48785,23.244,0.143108,3.49536,-1.77706,18.0977,-1.16225,-5.76487,-1.00442,17.376,-1.03276,8.38877,0.552908,23.2606,0.0330911,0.030673,-0.625018,0.620994,-0.01241,-0.606703,0.615243,0.0322825,-0.616867,0.629544,-0.00721758,-0.600476,0.618751,-0.147207,-0.516493,1.20211,0.0674618,-0.657107,1.07743,-0.112731,-0.642732,1.06229,0.209347,-0.591173,1.19856,-0.00990394,0.00062185,0.000547974,-0.0131641,0.333983,-2.30144,-1.92525,0.306218,
-7.08105,3.67437,23.6063,0.197938,3.14538,-2.47015,18.6949,-1.03968,-5.81074,-1.08329,16.9063,-0.820325,8.62903,-0.0328347,23.3445,0.235022,-7.12027,4.23398,23.137,0.171104,3.20527,-2.20237,18.5196,-1.15107,-5.80969,-1.14142,17.2333,-0.962912,8.66393,0.231455,23.1416,0.153104,0.0307153,-0.623278,0.622458,-0.0126325,-0.604191,0.615568,0.0324497,-0.615523,0.631447,-0.00720772,-0.598072,0.619116,-0.146327,-0.529677,1.21209,0.0657703,-0.664511,1.0834,-0.112677,-0.641881,1.05551,0.208562,-0.596862,1.20169,0.000296191,-0.0670937,-0.0530682,0.0365863,0.396173,-2.14646,-1.69372,0.50663,
-7.01535,3.3343,23.814,0.268995,2.85236,-3.03356,19.127,-1.02305,-5.74576,-1.18379,16.871,-0.695316,8.75761,-0.230893,23.0232,0.379677,-7.0871,3.54632,23.6571,0.201799,3.15304,-2.65341,18.8456,-1.04151,-5.81479,-1.20642,16.9691,-0.84714,8.62982,-0.150028,23.3912,0.253312,0.0308228,-0.620568,0.622192,-0.0128425,-0.60075,0.614251,0.0326238,-0.613416,0.631993,-0.00722056,-0.595283,0.618517,-0.144412,-0.535681,1.21778,0.0584511,-0.674744,1.09206,-0.110878,-0.641889,1.0544,0.211665,-0.59968,1.19442,0.000398022,0.00485308,-0.045636,0.0504424,0.538388,-2.04124,-1.43627,0.809796,
-6.85743,2.58783,24.5721,0.322279,2.75675,-3.45041,19.3264,-0.896583,-5.68121,-1.23868,16.8746,-0.571661,8.74296,-0.427358,23.0221,0.53367,-7.02459,3.18355,23.9145,0.271336,2.86777,-3.22662,19.3105,-1.02714,-5.75429,-1.32231,16.9189,-0.718426,8.75719,-0.396373,23.0976,0.373381,0.0310101,-0.617067,0.620324,-0.0130303,-0.596929,0.611869,0.0328181,-0.610841,0.631363,-0.00722299,-0.592109,0.617022,-0.140353,-0.549656,1.23227,0.0558953,-0.681091,1.09414,-0.109116,-0.640366,1.0519,0.211396,-0.601246,1.19051,0.0054236,-0.0617088,-0.0381025,1.41889e-05,0.649982,-1.85488,-1.18142,1.06735,
-6.79659,2.07394,24.7332,0.390545,2.636,-3.94924,19.8488,-0.906366,-5.59281,-1.47961,16.7865,-0.485191,8.63939,-0.75529,23.0063,0.639759,-6.86665,2.41537,24.6949,0.317063,2.77429,-3.62219,19.4711,-0.917443,-5.68928,-1.37842,16.9011,-0.575351,8.74686,-0.601978,23.1248,0.496773,0.031254,-0.612907,0.617663,-0.0132257,-0.592535,0.60847,0.0329958,-0.607535,0.629791,-0.00727023,-0.58867,0.614814,-0.138448,-0.558945,1.23513,0.0526646,-0.688295,1.10168,-0.106775,-0.642164,1.04762,0.208619,-0.605872,1.18947,-0.00304722,0.0574663,0.00197767,1.6927e-05,0.778042,-1.75526,-0.968403,1.27953,
-6.64869,1.88426,25.3321,0.502532,2.38929,-4.32202,20.439,-0.802666,-5.59475,-1.4877,17.3087,-0.365004,8.77028,-0.852721,23.2875,0.754287,-6.8079,1.90782,24.8675,0.377291,2.64313,-4.10092,19.9177,-0.925793,-5.59701,-1.61173,16.8276,-0.484199,8.64484,-0.918051,23.1892,0.639759,0.0315067,-0.608684,0.614398,-0.0134311,-0.588544,0.604939,0.0331208,-0.60417,0.62765,-0.00738083,-0.585346,0.612317,-0.134619,-0.558558,1.24462,0.0460644,-0.694646,1.11271,-0.106641,-0.639618,1.05823,0.211844,-0.605058,1.19389,3.42565e-06,-1.92485e-06,0.0337636,0.086853,1.00507,-1.60533,-0.696244,1.59543,
-6.50869,1.286,26.003,0.550517,2.45771,-4.57382,20.6675,-0.755439,-5.49554,-1.70257,17.3751,-0.271885,8.57344,-0.988056,23.6403,0.819745,-6.66163,1.76579,25.3782,0.502533,2.38539,-4.49131,20.4995,-0.858423,-5.59687,-1.63517,17.4073,-0.369303,8.77828,-0.967844,23.3823,0.797702,0.0318187,-0.604625,0.611076,-0.0136089,-0.584921,0.601242,0.0332454,-0.600955,0.625213,-0.007498,-0.582151,0.60971,-0.130616,-0.569565,1.25806,0.047599,-0.697593,1.11483,-0.104021,-0.641894,1.05879,0.206813,-0.604582,1.19822,0.0277364,2.7355e-06,-5.33561e-06,0.0960341,1.12877,-1.51088,-0.543774,1.73552,
-6.29067,1.23182,26.4468,0.650518,2.23279,-4.85147,20.9019,-0.736163,-5.4233,-1.65458,17.7911,-0.128979,8.62738,-0.953088,23.5345,0.977436,-6.52302,1.14657,26.0318,0.564387,2.46424,-4.68731,20.7802,-0.755438,-5.49826,-1.83669,17.4563,-0.297288,8.5851,-1.04215,23.6301,0.867752,0.0321608,-0.600735,0.607848,-0.0137729,-0.581576,0.598083,0.0333497,-0.597922,0.622881,-0.00765313,-0.579426,0.607493,-0.124989,-0.568309,1.26616,0.0420832,-0.700656,1.11985,-0.102236,-0.637962,1.06566,0.207966,-0.60138,1.19369,0.0478233,0.11993,-1.94626e-06,0.100524,1.34886,-1.3524,-0.25796,2.0554,
-6.21612,0.823426,26.5575,0.754755,2.3033,-4.78265,21.1328,-0.578562,-5.42177,-1.7501,17.8268,-0.0302417,8.50326,-0.955518,23.7941,1.05508,-6.31246,1.12694,26.4363,0.647361,2.23919,-4.92853,21.0612,-0.740941,-5.42351,-1.77331,17.8591,-0.157266,8.64094,-0.98006,23.5016,1.01415,0.0325198,-0.59762,0.605308,-0.0139436,-0.57917,0.595568,0.0333949,-0.595347,0.620926,-0.00786942,-0.577392,0.605867,-0.122776,-0.574865,1.26688,0.043394,-0.697975,1.12369,-0.102098,-0.638027,1.06631,0.204612,-0.599817,1.1989,-2.02841e-06,-8.51046e-06,-4.78875e-06,0.129542,1.50951,-1.15713,-0.0604882,2.23969,
-6.26465,0.771353,26.0665,0.847465,2.35388,-4.92021,21.1274,-0.625026,-5.33027,-1.92623,17.8603,-0.0111559,8.46458,-0.763118,23.3602,1.13604,-6.22919,0.750786,26.5976,0.721127,2.30946,-4.82606,21.167,-0.578568,-5.4195,-1.81688,17.8664,-0.0302418,8.51496,-0.978631,23.8155,1.02545,0.0328641,-0.595299,0.603781,-0.0141017,-0.577529,0.594043,0.0333708,-0.593294,0.619522,-0.00814145,-0.576243,0.604952,-0.123445,-0.575305,1.2559,0.0447896,-0.699301,1.12059,-0.0999661,-0.640025,1.06464,0.203243,-0.595351,1.18962,-1.41585e-05,0.132592,0.0630724,0.0898041,1.69492,-1.11746,0.0407606,2.36188,
-6.17895,0.518794,26.2455,0.845051,2.58026,-4.81846,21.1899,-0.519437,-5.51592,-1.97268,17.8034,0.0766683,8.31992,-0.787646,23.6521,1.02581,-6.276,0.72423,26.0791,0.847458,2.3605,-4.93545,21.1291,-0.62609,-5.3281,-1.97325,17.8821,-0.0142569,8.47537,-0.755077,23.3626,1.10635,0.0331758,-0.593677,0.602999,-0.0142692,-0.576721,0.593529,0.0333203,-0.591802,0.618717,-0.00842614,-0.575957,0.60457,-0.121217,-0.579445,1.25779,0.0499925,-0.69738,1.12421,-0.104562,-0.640692,1.06417,0.199445,-0.595281,1.19482,0.0724004,-2.75551e-06,-6.8952e-06,0.245846,1.7625,-1.03888,0.15333,2.29748,
-6.27398,0.606264,25.7153,0.95737,2.67944,-4.76713,20.9404,-0.580179,-5.44736,-2.13623,17.8318,0.070715,8.37521,-0.577484,23.1214,1.09913,-6.18988,0.500303,26.2259,0.84196,2.5866,-4.80406,21.1572,-0.519436,-5.51141,-1.99859,17.8033,0.0766697,8.33273,-0.752916,23.6268,1.02034,0.0334714,-0.592793,0.603073,-0.0144314,-0.57661,0.593792,0.0332353,-0.590802,0.618361,-0.00873594,-0.576457,0.604866,-0.123104,-0.577776,1.24734,0.0525906,-0.695469,1.11672,-0.103061,-0.643419,1.06338,0.200396,-0.591834,1.18427,-1.06353e-05,0.134159,0.0731548,0.158951,1.91473,-1.0262,0.214585,2.35721,
-6.36296,0.667949,25.4853,0.981395,3.05294,-4.66655,20.5858,-0.590036,-5.51517,-2.24356,17.7108,0.13608,8.16732,-0.422416,23.2483,0.991057,-6.28232,0.569407,25.6786,0.957364,2.68703,-4.73157,20.8848,-0.5131,-5.4432,-2.14362,17.8176,0.0682107,8.38687,-0.524851,23.0822,1.09305,0.033719,-0.592516,0.603709,-0.0146124,-0.577202,0.594881,0.0331322,-0.590345,0.618535,-0.00904748,-0.577511,0.605626,-0.125316,-0.576279,1.2403,0.0614596,-0.694854,1.11134,-0.104762,-0.646625,1.06224,0.194992,-0.588433,1.18645,0.0795593,0.130201,-6.89437e-06,0.264619,2.04235,-1.04987,0.272152,2.24673,
-6.40071,0.589434,25.4391,1.00517,3.15831,-4.31009,20.601,-0.564725,-5.65074,-2.08347,17.742,0.157001,8.29546,-0.519023,23.1487,0.999383,-6.37782,0.685015,25.3512,1.02117,3.05056,-4.65244,20.601,-0.524932,-5.50644,-2.25835,17.744,0.0945983,8.1838,-0.323896,23.1095,1.0643,0.033924,-0.592699,0.604751,-0.0148142,-0.578291,0.596395,0.0330174,-0.590374,0.619041,-0.00936914,-0.578983,0.60687,-0.126076,-0.577743,1.24033,0.0638907,-0.687294,1.11339,-0.108274,-0.642976,1.06374,0.197874,-0.592476,1.18548,0.0799922,0.127138,-5.15227e-06,0.210782,2.09034,-1.00231,0.313996,2.20955,
-6.4416,0.742983,25.1243,1.06487,3.1895,-4.23572,20.3756,-0.519104,-5.72534,-2.19524,17.5674,0.1518,8.44696,-0.279427,22.5545,1.08962,-6.40849,0.619884,25.3884,1.00428,3.16508,-4.24633,20.5273,-0.501152,-5.64657,-2.05849,17.7076,0.157,8.30666,-0.446841,23.0796,1.01329,0.0341188,-0.593294,0.605991,-0.0150012,-0.579714,0.598105,0.0329047,-0.590808,0.619778,-0.00967028,-0.580692,0.608496,-0.126708,-0.575626,1.23595,0.0647481,-0.686128,1.10766,-0.11034,-0.645712,1.05874,0.201281,-0.58921,1.17438,-1.11088e-05,0.117653,0.0788701,0.0882424,2.12973,-0.920554,0.382471,2.26748,
-6.37831,0.798275,25.4454,1.01791,3.29263,-3.93968,20.1836,-0.503227,-5.86339,-2.08304,17.8547,0.188935,8.51334,-0.135887,22.9147,0.978998,-6.44493,0.777508,25.0736,1.06486,3.20029,-4.16597,20.299,-0.518576,-5.71918,-2.16833,17.5401,0.149326,8.45936,-0.212962,22.496,1.09385,0.0342606,-0.594085,0.607245,-0.0152288,-0.581427,0.600049,0.032775,-0.591473,0.620593,-0.00997276,-0.582451,0.610099,-0.125227,-0.574207,1.24312,0.0668062,-0.681441,1.10677,-0.113857,-0.644289,1.06812,0.202701,-0.586488,1.18297,0.0789216,-6.56332e-06,-6.76039e-06,0.168261,2.11474,-1.00646,0.377863,2.12626,
-6.39214,0.669579,25.256,0.988552,3.51793,-3.66721,19.6361,-0.503656,-5.77923,-2.07239,17.6355,0.170585,8.39746,-0.138926,22.68,0.976029,-6.38396,0.877781,25.3014,1.05737,3.29929,-3.90283,20.1811,-0.556419,-5.84851,-2.08106,17.8883,0.148052,8.5348,-0.0497165,22.778,1.06312,0.0342942,-0.595066,0.608642,-0.0155661,-0.583256,0.602056,0.0325589,-0.592187,0.621293,-0.0103688,-0.584019,0.61165,-0.125624,-0.578508,1.23983,0.0720264,-0.676504,1.0951,-0.112042,-0.644798,1.06334,0.199336,-0.587897,1.1786,0.0761353,-2.49193e-06,-8.68273e-06,0.0891419,2.05324,-1.00731,0.341162,2.0412,
-6.48907,0.968609,24.7777,1.03995,3.43255,-3.54038,19.662,-0.582202,-5.76578,-2.09882,17.8011,0.1156,8.61841,-0.044374,22.3814,1.02138,-6.38768,0.713539,25.2073,0.987186,3.53533,-3.59855,19.5726,-0.503654,-5.76414,-2.0427,17.618,0.170584,8.41949,-0.0564442,22.6324,0.98028,0.0342225,-0.596174,0.610024,-0.0159841,-0.58505,0.603859,0.0322306,-0.592932,0.621843,-0.0108732,-0.585301,0.613048,-0.127974,-0.573089,1.2313,0.0696618,-0.674226,1.09555,-0.112185,-0.645522,1.06642,0.204213,-0.586794,1.17427,4.91253e-06,0.0983131,0.0807344,1.86323e-05,2.0799,-1.06609,0.311934,2.04277,
-6.48016,0.872254,25.0057,0.968813,3.6511,-3.37149,19.4516,-0.548798,-5.83698,-2.10661,17.7316,0.133498,8.56509,-0.0243664,22.623,0.913297,-6.48381,1.00547,24.7485,1.03995,3.45104,-3.47742,19.6135,-0.579379,-5.75306,-2.07016,17.7964,0.115364,8.63772,0.0351679,22.3515,1.02138,0.0340984,-0.597191,0.611019,-0.0164529,-0.586772,0.605378,0.0318788,-0.593696,0.62219,-0.011401,-0.586568,0.61403,-0.128064,-0.57554,1.23563,0.0744364,-0.672475,1.09333,-0.114195,-0.647153,1.06632,0.202456,-0.587492,1.17918,0.0719437,-4.22914e-06,-6.29669e-06,0.0781664,2.00957,-1.0976,0.266989,1.90476,
-6.5191,1.11301,24.8177,0.973814,3.59117,-3.19115,19.5208,-0.586579,-5.87807,-1.99596,17.9856,0.116639,8.73282,0.0814684,22.5024,0.939127,-6.47904,0.944459,24.9068,1.00479,3.65779,-3.34589,19.4221,-0.593149,-5.82752,-2.07684,17.7374,0.0927099,8.5851,0.0547171,22.5275,0.914885,0.0340269,-0.598156,0.611633,-0.016886,-0.588373,0.606384,0.0315924,-0.594429,0.622174,-0.0118792,-0.587758,0.614717,-0.128884,-0.570434,1.23126,0.0725561,-0.669489,1.09403,-0.115556,-0.644445,1.071,0.206214,-0.586027,1.17667,0.0730669,4.16919e-06,-5.60473e-06,1.70554e-05,2.02069,-1.17315,0.233272,1.87827,
-6.51262,1.08588,24.9735,0.981143,3.75381,-3.00061,19.4911,-0.644009,-5.96161,-1.89675,18.1096,0.0520221,8.68487,0.207976,22.6833,0.870234,-6.51282,1.14014,24.8238,0.976989,3.60431,-3.14194,19.4387,-0.586575,-5.8764,-1.97023,17.9454,0.116638,8.74549,0.12038,22.4999,0.903129,0.0340158,-0.598972,0.611803,-0.0172464,-0.58975,0.606964,0.0313913,-0.595155,0.621863,-0.0122609,-0.588859,0.615063,-0.128702,-0.572699,1.2371,0.0764921,-0.665144,1.09357,-0.117782,-0.64333,1.07355,0.204625,-0.584673,1.18313,-1.68506e-05,0.0822329,0.0781306,1.57673e-05,1.96227,-1.20579,0.182175,1.74048,
-6.54372,1.31444,25.0034,0.944853,3.81325,-2.91676,19.2549,-0.639838,-5.9033,-1.86585,18.2895,0.0507642,8.7277,0.302621,22.6276,0.811799,-6.51469,1.11538,25.0003,0.981138,3.76993,-2.94875,19.502,-0.640757,-5.95498,-1.89652,18.1519,0.053219,8.70147,0.249095,22.7004,0.870234,0.0340502,-0.599769,0.611325,-0.0176647,-0.591218,0.60704,0.0312189,-0.595941,0.621042,-0.012678,-0.589984,0.614857,-0.129606,-0.566828,1.23502,0.0773693,-0.665196,1.08913,-0.116401,-0.643287,1.07851,0.205345,-0.582531,1.17939,0.0686858,-6.70575e-08,-4.06293e-06,0.0671785,1.95839,-1.27968,0.101524,1.69078,
-6.52183,1.48689,25.1684,0.930019,3.84292,-2.74317,19.634,-0.727371,-6.01482,-1.79554,18.5675,-0.0276289,8.72374,0.396025,22.9725,0.764505,-6.54538,1.32632,25.0326,0.948335,3.82238,-2.89238,19.2776,-0.639835,-5.90081,-1.87906,18.3234,0.0507652,8.73654,0.322463,22.6503,0.813891,0.0340876,-0.600175,0.610805,-0.0179045,-0.591942,0.606671,0.0311291,-0.596369,0.620266,-0.0129219,-0.590586,0.614489,-0.128841,-0.563717,1.24049,0.0780689,-0.660667,1.09628,-0.119351,-0.64193,1.08301,0.204951,-0.581518,1.1893,-4.08607e-06,0.0734024,0.0744993,1.49228e-05,1.86003,-1.38134,0.0192415,1.52903,
-6.41414,1.37958,25.5551,0.889319,3.73477,-2.52941,19.7379,-0.722462,-6.06783,-1.75032,18.7871,-0.0180802,8.94031,0.469296,23.0202,0.684921,-6.52529,1.4644,25.2147,0.901959,3.85455,-2.71585,19.6742,-0.723525,-6.01188,-1.80677,18.558,-0.0260367,8.73544,0.419271,23.0885,0.764505,0.034153,-0.600573,0.60972,-0.0182184,-0.592755,0.605886,0.0310416,-0.59685,0.619021,-0.0132247,-0.591219,0.613627,-0.126236,-0.566745,1.24685,0.074873,-0.656845,1.09959,-0.120655,-0.641258,1.08712,0.210138,-0.579455,1.18948,-8.72067e-06,-4.91297e-06,-3.8489e-06,0.0584067,1.77863,-1.44493,-0.0361642,1.42825,
-6.44119,1.66584,25.6461,0.828372,3.8049,-2.37834,19.7409,-0.74168,-6.03914,-1.55877,19.0419,-0.0738979,8.83959,0.543488,23.5677,0.646946,-6.42609,1.39587,25.5172,0.889319,3.73825,-2.54122,19.8519,-0.743046,-6.06324,-1.76314,18.8451,-0.0532977,8.95248,0.517867,23.0711,0.714117,0.0342565,-0.600937,0.60851,-0.0185184,-0.59341,0.60482,0.0309901,-0.597308,0.617665,-0.013498,-0.591736,0.612463,-0.126794,-0.559088,1.24788,0.0763347,-0.65361,1.09854,-0.119953,-0.636895,1.09361,0.207378,-0.577998,1.19995,0.0588383,-0.0223904,-4.80048e-06,0.0537537,1.71558,-1.50575,-0.147801,1.34765,
-6.50674,1.83131,25.5014,0.836842,3.73244,-2.47495,19.9218,-0.820853,-5.99241,-1.63338,19.4339,-0.178092,8.9549,0.714086,23.5475,0.611202,-6.44932,1.68045,25.6929,0.833677,3.81202,-2.36425,19.7875,-0.728734,-6.04162,-1.54283,19.0994,-0.0738976,8.84627,0.558986,23.6213,0.648104,0.0344157,-0.601332,0.607356,-0.0187511,-0.593839,0.603654,0.0310064,-0.597697,0.616163,-0.0137114,-0.592157,0.611195,-0.128043,-0.556234,1.24521,0.0745374,-0.655562,1.10012,-0.118821,-0.638428,1.10032,0.210015,-0.574974,1.20002,1.89422e-06,0.0137858,0.0629955,1.56388e-05,1.67369,-1.62792,-0.293189,1.22242,
-6.50036,1.85347,25.9388,0.784223,3.8611,-2.19412,19.845,-0.787318,-5.9957,-1.42659,19.6822,-0.193988,8.90848,0.84645,24.0574,0.568051,-6.51586,1.84941,25.5509,0.836851,3.73861,-2.4579,19.9723,-0.820416,-5.99834,-1.60887,19.4221,-0.177493,8.95779,0.732003,23.6004,0.588968,0.034629,-0.601737,0.606082,-0.0189328,-0.594283,0.602459,0.0311101,-0.598232,0.614715,-0.0138406,-0.592574,0.609812,-0.127825,-0.555248,1.25275,0.0773967,-0.649819,1.09867,-0.118642,-0.634649,1.10514,0.208852,-0.571289,1.20948,0.0439437,-0.0520985,-3.92248e-06,1.41084e-05,1.61239,-1.62674,-0.38798,1.13612,
-6.53647,2.08068,25.7831,0.753471,3.7803,-2.20087,20.1333,-0.851581,-6.01014,-1.47107,19.542,-0.292372,8.93584,0.96742,23.9971,0.493861,-6.51912,1.91413,25.8971,0.806194,3.8573,-2.2075,19.8944,-0.818571,-5.99947,-1.42628,19.7272,-0.193987,8.91291,0.866738,24.1078,0.56805,0.0348981,-0.602284,0.604871,-0.019067,-0.594762,0.601156,0.031289,-0.598934,0.613488,-0.0139048,-0.593082,0.608539,-0.128431,-0.550193,1.24772,0.0752777,-0.650499,1.10287,-0.118794,-0.63655,1.10214,0.209502,-0.569636,1.20865,0.0420103,-0.0521703,0.0550832,0.039262,1.54895,-1.75533,-0.52966,1.02698,
-6.6021,2.2935,26.1835,0.744692,3.88951,-2.02204,20.0608,-0.887795,-5.96641,-1.31051,20.2183,-0.352172,8.92665,0.97399,24.6057,0.438077,-6.54926,2.10703,25.8204,0.75753,3.78296,-2.17901,20.1811,-0.84942,-6.02152,-1.43834,19.5847,-0.264827,8.93356,0.952716,24.1278,0.513483,0.0352012,-0.60293,0.603867,-0.0191547,-0.59527,0.599926,0.0315245,-0.599719,0.612325,-0.0139031,-0.593599,0.607216,-0.129571,-0.546438,1.25889,0.0781378,-0.645738,1.10161,-0.117517,-0.632619,1.1163,0.209254,-0.569961,1.22253,1.79567e-06,0.00906521,0.0537732,0.034893,1.48939,-1.76653,-0.65057,0.911047,
-6.61606,2.53703,26.2247,0.700145,3.88958,-1.93678,20.0609,-0.895606,-5.92091,-1.15821,20.2006,-0.425655,8.85609,1.24411,24.8537,0.420311,-6.61335,2.31916,26.2037,0.744694,3.88969,-2.00115,20.1602,-0.886581,-5.97608,-1.27881,20.1719,-0.325283,8.92442,0.996275,24.6335,0.438867,0.0354603,-0.603473,0.60316,-0.0191889,-0.595744,0.599117,0.0317584,-0.600434,0.611595,-0.0138551,-0.594021,0.606281,-0.129804,-0.540112,1.25725,0.0779454,-0.64499,1.10086,-0.116014,-0.630411,1.11532,0.207635,-0.562913,1.22599,0.0290053,-0.0568476,0.0463466,2.31811e-05,1.42929,-1.84806,-0.804964,0.840646,
-6.74291,2.57735,25.9425,0.668148,3.97464,-1.69504,20.1532,-0.952928,-5.91643,-1.17216,19.9594,-0.450836,8.7609,1.25548,25.045,0.339193,-6.63986,2.61341,26.1563,0.714643,3.87992,-1.93869,20.1639,-0.894384,-5.93102,-1.14827,20.2185,-0.409388,8.85456,1.30873,24.8069,0.420309,0.0358626,-0.604409,0.602531,-0.0191733,-0.596496,0.598155,0.0321102,-0.601502,0.611008,-0.0137528,-0.594754,0.605303,-0.132539,-0.540142,1.24977,0.0801263,-0.639768,1.10234,-0.115521,-0.63181,1.11051,0.205387,-0.563392,1.2299,0.0254282,0.00478344,-0.0297611,0.0251699,1.36172,-1.90107,-0.931433,0.703556,
-6.85285,2.97199,25.9448,0.647213,3.84304,-1.68369,20.3592,-0.962922,-5.93815,-1.07733,20.3089,-0.541273,8.99355,1.39409,24.9992,0.317683,-6.76242,2.62039,25.953,0.668916,3.96905,-1.66166,20.1804,-0.951406,-5.93371,-1.15762,19.9716,-0.449311,8.75293,1.28833,25.0729,0.339579,0.0363191,-0.605467,0.602194,-0.0190791,-0.597296,0.597352,0.0325095,-0.602605,0.610567,-0.0135963,-0.595563,0.604547,-0.134627,-0.532262,1.25166,0.0771646,-0.639489,1.10504,-0.115737,-0.630603,1.11727,0.211312,-0.561654,1.23008,-1.35454e-05,-0.0610993,0.0117254,-0.0013281,1.29441,-1.98694,-1.07082,0.634038,
-6.8982,2.98166,26.2569,0.565256,3.89906,-1.44651,20.2096,-1.01981,-5.94571,-0.991603,20.2035,-0.598462,8.94583,1.43994,25.4588,0.252237,-6.87153,2.98365,25.9477,0.647216,3.84545,-1.61328,20.3784,-0.961435,-5.95748,-1.03017,20.3142,-0.54009,8.97933,1.3907,25.0239,0.305739,0.0368024,-0.606618,0.601956,-0.0189473,-0.598193,0.59678,0.032977,-0.603749,0.610372,-0.0133625,-0.596404,0.603825,-0.135438,-0.533223,1.25731,0.078696,-0.634483,1.10258,-0.115312,-0.628878,1.11621,0.210391,-0.561326,1.2389,0.0199585,0.000746208,-0.0376236,-0.00337834,1.15047,-2.03888,-1.23455,0.501095,
-7.00333,3.13228,26.0995,0.522813,3.82066,-1.42238,20.193,-1.01412,-5.90616,-0.979379,20.3038,-0.662426,9.01142,1.42747,25.5002,0.19455,-6.91614,3.03272,26.1626,0.575236,3.89538,-1.4088,20.2909,-1.01979,-5.95862,-0.910902,20.2005,-0.619969,8.9382,1.47093,25.397,0.254663,0.037289,-0.607832,0.602035,-0.0188377,-0.599135,0.596371,0.0334545,-0.604984,0.610301,-0.0131334,-0.597176,0.603229,-0.137452,-0.529875,1.25364,0.0766458,-0.635689,1.10188,-0.113875,-0.629824,1.1171,0.212323,-0.561519,1.23939,0.0195667,-0.065521,-0.0422407,0.0211012,1.06519,-2.09375,-1.36709,0.410201,
-7.07762,3.40585,25.8013,0.484646,3.81206,-1.11394,20.2083,-1.07835,-5.95647,-0.900344,20.017,-0.733945,9.1077,1.66892,25.5413,0.177802,-7.01071,3.22285,26.0811,0.524256,3.8124,-1.38392,20.1982,-1.01335,-5.92184,-0.927811,20.2915,-0.685246,9.00488,1.45787,25.5164,0.195256,0.0376768,-0.609195,0.602416,-0.0187767,-0.600089,0.59612,0.0338741,-0.60627,0.610518,-0.0129485,-0.597976,0.602794,-0.138968,-0.524451,1.24873,0.0764512,-0.628123,1.10038,-0.114849,-0.629975,1.11195,0.214802,-0.557178,1.24209,-1.2789e-05,0.000702876,-0.0461022,-0.0108589,0.969278,-2.156,-1.51399,0.344745,
-7.19287,3.70201,26.1699,0.440101,3.88937,-1.0267,20.0183,-1.11381,-5.87538,-0.82594,20.4123,-0.839433,9.04084,1.69216,26.2175,0.124337,-7.0859,3.45537,25.7831,0.484648,3.81059,-1.07993,20.2112,-1.0435,-5.9792,-0.855553,20.0085,-0.732203,9.09482,1.69011,25.5619,0.163787,0.0380433,-0.610532,0.602836,-0.0187399,-0.601033,0.596036,0.0343107,-0.607497,0.610746,-0.0127463,-0.59863,0.602284,-0.141492,-0.519186,1.25638,0.0786035,-0.627634,1.09729,-0.112354,-0.628465,1.12037,0.213364,-0.556216,1.25637,0.0125777,0.000657742,0.000726055,-0.0129889,0.892779,-2.22696,-1.67814,0.235685,
-7.25708,3.64332,25.8188,0.405359,3.85982,-1.08508,20.1157,-1.09437,-5.88123,-0.729048,19.9034,-0.845239,8.99381,1.77349,25.9619,0.0858893,-7.20754,3.71464,26.0659,0.446881,3.88703,-0.994079,20.0208,-1.11379,-5.89811,-0.777166,20.3949,-0.839435,9.03207,1.75441,26.2318,0.126816,0.0384073,-0.611763,0.603361,-0.0186949,-0.601872,0.595926,0.034765,-0.608718,0.611116,-0.0125189,-0.599225,0.601886,-0.142861,-0.521883,1.24816,0.0777473,-0.629118,1.09794,-0.112038,-0.628105,1.10981,0.212518,-0.554798,1.25178,0.0100333,-0.0707638,-0.0555703,0.0161958,0.82075,-2.25951,-1.74605,0.187974,
-7.33892,4.00516,26.0717,0.374587,3.92311,-0.854907,19.9617,-1.13132,-5.85297,-0.70166,20.38,-0.953075,8.98292,1.80914,26.5856,0.0474068,-7.27183,3.68879,25.7159,0.411351,3.85012,-1.02405,20.1171,-1.13007,-5.90131,-0.688876,19.8917,-0.844945,8.98769,1.82731,25.9805,0.103389,0.0387844,-0.613,0.603918,-0.018632,-0.602679,0.595913,0.0352681,-0.609863,0.611477,-0.0122677,-0.599758,0.601438,-0.144397,-0.513131,1.25505,0.0793939,-0.624091,1.09578,-0.110707,-0.627664,1.12037,0.212509,-0.55431,1.26475,0.00900367,-0.0717526,0.000699122,0.0148136,0.758178,-2.3344,-1.90545,0.109627,
-7.45573,4.11686,25.7135,0.350355,3.81323,-0.971266,20.0999,-1.20703,-5.78888,-0.699941,20.1627,-1.00885,9.02836,1.88539,26.2882,0.045892,-7.34877,4.04449,26.0516,0.376836,3.92015,-0.797526,19.9656,-1.13025,-5.87162,-0.626296,20.2923,-0.921604,8.97395,1.8268,26.5969,0.0475826,0.0391694,-0.614085,0.604488,-0.0185605,-0.60337,0.595817,0.0357486,-0.610955,0.611898,-0.012031,-0.600207,0.601117,-0.146932,-0.512226,1.24864,0.0768968,-0.627649,1.09742,-0.108744,-0.628728,1.11543,0.213762,-0.553839,1.25923,-0.00466924,0.000590504,0.000704364,-0.022821,0.696041,-2.41347,-2.01699,0.068963,
-7.50597,4.04903,25.9213,0.303839,3.92702,-0.809467,20.0647,-1.16575,-5.84976,-0.54978,19.9475,-1.0195,8.91218,1.81638,26.7311,-0.0134402,-7.46853,4.15027,25.6985,0.350815,3.81215,-0.952471,20.1057,-1.20704,-5.80746,-0.660228,20.143,-1.00884,9.01887,1.89852,26.3001,0.0461456,0.0395224,-0.615023,0.604914,-0.0185153,-0.603957,0.595741,0.0362246,-0.612032,0.612432,-0.0117927,-0.600602,0.600793,-0.147983,-0.513909,1.25222,0.0795889,-0.624894,1.09812,-0.109676,-0.626782,1.11225,0.211208,-0.554928,1.26782,0.00229596,-0.0763558,-0.0647586,0.0132906,0.609974,-2.40786,-2.10376,-0.0135897,
-7.6102,4.30006,25.6802,0.288564,3.80243,-0.871302,20.1542,-1.23512,-5.79667,-0.582722,20.0167,-1.09907,9.04931,1.89603,26.5038,0.0076237,-7.51863,4.07703,25.9062,0.304145,3.9262,-0.794839,20.0706,-1.16576,-5.8658,-0.516699,19.9299,-1.01838,8.90533,1.82629,26.7415,-0.0134718,0.0398555,-0.615848,0.605358,-0.0184872,-0.604381,0.595562,0.0366681,-0.612957,0.612876,-0.0115901,-0.60093,0.600565,-0.150142,-0.509229,1.24859,0.0766709,-0.626007,1.09849,-0.108047,-0.627673,1.11276,0.214693,-0.554184,1.26409,-0.0084819,0.000584817,0.000644181,-0.0267256,0.568646,-2.46966,-2.1975,-0.0114782,
-7.66403,4.17116,25.8925,0.245879,3.9012,-0.764107,20.0953,-1.19131,-5.82561,-0.496596,19.8362,-1.1025,8.94553,1.83193,26.9527,-0.0468423,-7.62064,4.31925,25.6701,0.288964,3.80306,-0.863154,20.1608,-1.23512,-5.81197,-0.557887,20.0032,-1.09907,9.04264,1.89889,26.5159,0.00738586,0.0401442,-0.616444,0.605652,-0.0184894,-0.604698,0.595447,0.0370667,-0.613715,0.61331,-0.0114184,-0.601091,0.600256,-0.151336,-0.512081,1.25217,0.0789432,-0.624344,1.09857,-0.108267,-0.626935,1.11027,0.212381,-0.554873,1.2728,0.000411649,-0.078238,-0.0697048,0.0128409,0.492169,-2.46085,-2.27471,-0.0808437,
-7.72284,4.21286,25.794,0.234666,3.8966,-0.752289,20.19,-1.23614,-5.77801,-0.548472,19.8195,-1.16288,8.90454,1.89745,27.0032,-0.0549731,-7.67322,4.18417,25.884,0.245864,3.90203,-0.759642,20.101,-1.19141,-5.83725,-0.478953,19.8253,-1.10148,8.94184,1.83269,26.9615,-0.0257698,0.0403907,-0.616878,0.605936,-0.018502,-0.604849,0.595266,0.0373958,-0.614235,0.613584,-0.0112978,-0.601174,0.600061,-0.152453,-0.512245,1.25194,0.0789833,-0.623355,1.09907,-0.106885,-0.627912,1.10847,0.211329,-0.554262,1.27609,-0.0118622,0.000576126,0.000625979,0.0129102,0.45747,-2.47171,-2.32512,-0.097036,
-7.83484,4.15491,25.5944,0.208535,3.76495,-0.901698,20.1939,-1.26611,-5.73509,-0.629547,19.57,-1.20773,9.03963,1.80699,26.6779,-0.0444424,-7.72999,4.18901,25.8645,0.228522,3.90522,-0.717736,20.1967,-1.19662,-5.79597,-0.499789,19.739,-1.12607,8.89682,1.85715,27.0998,-0.0334185,0.0406973,-0.617261,0.606216,-0.0185369,-0.604966,0.595121,0.0377752,-0.614783,0.613958,-0.0111951,-0.601205,0.599835,-0.154953,-0.513973,1.2472,0.0756523,-0.627149,1.10072,-0.105463,-0.630397,1.10259,0.214776,-0.556532,1.2678,-0.012775,0.000567614,0.000607386,0.0127589,0.404295,-2.53166,-2.41485,-0.076126,
-7.88469,4.23025,25.6788,0.20127,3.74585,-0.834334,20.2601,-1.19773,-5.83243,-0.427731,19.6519,-1.18041,9.08443,1.88147,27.1756,-0.0343928,-7.84353,4.1569,25.5908,0.208952,3.76871,-0.905274,20.269,-1.26612,-5.74734,-0.621426,19.5627,-1.20772,9.03697,1.79928,26.6879,-0.0238043,0.0409503,-0.617414,0.60635,-0.0186073,-0.604976,0.594965,0.0380988,-0.615123,0.614253,-0.0111235,-0.601102,0.599593,-0.156088,-0.511276,1.24741,0.0748945,-0.626191,1.10224,-0.107478,-0.626314,1.10646,0.21608,-0.553473,1.27776,0.000435522,-0.0803066,-0.0747162,0.0135031,0.402975,-2.47576,-2.43555,-0.0552826,
-7.84219,4.17818,25.947,0.185602,3.77974,-0.73462,20.4153,-1.19588,-5.84938,-0.497211,19.709,-1.18251,9.0446,1.80149,27.373,-0.0463165,-7.89486,4.25973,25.5986,0.208391,3.74504,-0.874237,20.2631,-1.23818,-5.83802,-0.457058,19.7131,-1.21805,9.08922,1.91011,27.0925,-0.0130366,0.0411369,-0.617391,0.606417,-0.0187358,-0.604851,0.594817,0.0383778,-0.615246,0.614403,-0.0110939,-0.600868,0.599391,-0.154878,-0.512452,1.25414,0.0755726,-0.623518,1.10429,-0.107653,-0.628076,1.10801,0.215084,-0.555166,1.2825,0.000399171,-0.078916,-0.0759617,0.0135092,0.371603,-2.47068,-2.44098,-0.0791239,
-7.87574,4.11239,25.9468,0.199296,3.8987,-0.826749,20.1972,-1.23913,-5.73863,-0.543358,19.6492,-1.19146,8.91374,1.81768,27.2643,-0.0411563,-7.85082,4.16997,25.8639,0.185587,3.78074,-0.741908,20.3426,-1.19579,-5.85227,-0.5278,19.6996,-1.22077,9.05242,1.83344,27.2793,-0.0243331,0.0412711,-0.617253,0.606469,-0.0189207,-0.604652,0.594804,0.0385992,-0.615268,0.614544,-0.0111258,-0.600609,0.599326,-0.155614,-0.514762,1.2542,0.078332,-0.624813,1.09891,-0.104706,-0.62923,1.1051,0.211739,-0.554527,1.27984,-0.0154936,0.000579854,-0.0763002,0.0142442,0.383098,-2.47768,-2.45921,-0.0680684,
-7.89595,4.28189,25.9003,0.229356,3.93086,-0.849202,20.1092,-1.2003,-5.67371,-0.514208,19.8485,-1.21464,8.8946,1.96713,27.1475,-0.0182657,-7.88354,4.06563,25.9439,0.199059,3.90771,-0.802546,20.1925,-1.23913,-5.74332,-0.5763,19.5721,-1.19139,8.92412,1.81046,27.2545,-0.0191226,0.0413651,-0.617016,0.606589,-0.0191419,-0.604458,0.594919,0.0387516,-0.615243,0.614798,-0.0112278,-0.600417,0.599513,-0.156037,-0.510226,1.25513,0.0790833,-0.625165,1.09856,-0.103068,-0.628437,1.11037,0.211124,-0.551629,1.27945,0.000449281,-0.0785313,0.000573064,0.013862,0.459161,-2.47913,-2.4287,-0.0226693,
-7.95125,4.13786,25.7262,0.241822,3.84611,-1.10431,20.2398,-1.26668,-5.63795,-0.695671,19.6153,-1.22713,9.01061,1.8444,26.5798,0.0253177,-7.89943,4.23028,25.9785,0.229361,3.94664,-0.827624,20.1021,-1.2003,-5.67777,-0.519938,19.7691,-1.17626,8.90052,1.91863,27.2235,-0.0179032,0.0414567,-0.616662,0.606658,-0.0193653,-0.604216,0.595029,0.0388695,-0.615125,0.615104,-0.01137,-0.600226,0.599811,-0.157217,-0.5134,1.25084,0.076741,-0.631265,1.10028,-0.10196,-0.632052,1.10486,0.213747,-0.554498,1.26564,-0.0130701,0.000566844,0.000597205,-0.028519,0.470574,-2.53279,-2.45366,0.0221163,
-7.92855,3.86881,26.0144,0.225672,3.98761,-1.06446,20.1244,-1.25837,-5.7325,-0.660269,19.4096,-1.17741,8.93685,1.69501,26.7935,0.0111994,-7.9528,4.11629,25.7259,0.241294,3.85642,-1.11896,20.2301,-1.22637,-5.64308,-0.707807,19.606,-1.22713,9.01017,1.78923,26.5692,0.00414024,0.0415186,-0.616176,0.60666,-0.0196109,-0.603922,0.595276,0.0389871,-0.614923,0.615418,-0.0114985,-0.599946,0.600103,-0.15672,-0.5187,1.25605,0.0798326,-0.630717,1.09939,-0.104303,-0.631621,1.10161,0.211797,-0.557829,1.26905,0.000425341,0.000608105,-0.0759589,-0.0254117,0.451769,-2.51614,-2.43078,-0.0030129,
-7.95948,3.99507,25.6616,0.271147,3.90674,-1.21306,20.301,-1.22533,-5.8,-0.798269,19.3393,-1.18283,8.9859,1.77456,26.7197,0.0637346,-7.92912,3.84272,26.0116,0.225114,3.9994,-1.08128,20.11,-1.2184,-5.73474,-0.679502,19.4677,-1.17794,8.94423,1.63754,26.7793,-0.00907655,0.0415551,-0.615585,0.606753,-0.0198947,-0.603501,0.595555,0.0390808,-0.614508,0.615633,-0.0116454,-0.599531,0.600492,-0.157363,-0.515769,1.24934,0.0776864,-0.63318,1.10244,-0.105827,-0.63382,1.10004,0.212954,-0.55539,1.2698,-0.0130766,0.00060466,0.000582897,-0.026434,0.529218,-2.45005,-2.36509,0.101035,
-7.93009,3.63938,26.0246,0.274513,4.09388,-1.16704,20.0389,-1.16054,-5.80349,-0.776701,19.3772,-1.12069,8.91545,1.56794,26.7171,0.0498822,-7.95841,3.96556,25.662,0.269614,3.91952,-1.2307,20.2845,-1.22534,-5.79789,-0.819603,19.333,-1.18285,8.99806,1.75559,26.703,0.0623066,0.0415502,-0.614889,0.606761,-0.0202061,-0.603096,0.595977,0.0391397,-0.614029,0.615783,-0.0118308,-0.599052,0.600837,-0.156767,-0.523029,1.2564,0.0818548,-0.63241,1.09807,-0.105864,-0.633492,1.09952,0.211001,-0.559077,1.26793,0.0010929,-0.0776333,-0.0726491,0.015746,0.55012,-2.39872,-2.31404,0.11551,
-7.94287,3.6844,25.8176,0.311061,3.98442,-1.34275,20.0858,-1.20004,-5.77043,-0.896061,19.31,-1.12575,9.08426,1.58638,26.1794,0.117155,-7.92771,3.6096,26.0229,0.272322,4.10783,-1.18495,20.0213,-1.16163,-5.80177,-0.798897,19.3677,-1.12146,8.92639,1.55169,26.6951,0.0490932,0.0415174,-0.614167,0.60684,-0.0205432,-0.602632,0.596383,0.0391462,-0.613462,0.616021,-0.0120626,-0.598622,0.601368,-0.157028,-0.522032,1.25332,0.0789344,-0.635525,1.09796,-0.105185,-0.63515,1.09971,0.214821,-0.559191,1.25728,-0.0101507,0.000629392,0.000617971,-0.0228127,0.611972,-2.39944,-2.25088,0.211498,
-7.88613,3.39405,26.1252,0.295829,4.00954,-1.32816,20.2408,-1.16916,-5.89129,-0.881164,19.2411,-1.10049,9.10286,1.44041,26.3328,0.118022,-7.93324,3.61534,25.8167,0.30995,4.00108,-1.36294,19.997,-1.16205,-5.76778,-0.891301,19.3672,-1.09089,9.09142,1.52685,26.2463,0.0968195,0.0414279,-0.613353,0.606847,-0.0209399,-0.60217,0.596868,0.0390973,-0.612849,0.616234,-0.0123503,-0.598148,0.601918,-0.155734,-0.528425,1.259,0.0789575,-0.635468,1.10233,-0.108169,-0.634117,1.09818,0.214993,-0.562299,1.26162,0.00592128,0.000641496,0.000656632,-0.0186889,0.59758,-2.33768,-2.20033,0.217355,
-7.83596,3.44598,26.0845,0.349684,4.0104,-1.31996,20.2017,-1.14949,-5.87663,-0.98006,19.4634,-1.00377,9.11362,1.36805,26.3224,0.166481,-7.8764,3.32636,26.1184,0.294283,4.02744,-1.34684,20.1443,-1.13185,-5.88696,-0.877703,19.2304,-1.10048,9.11583,1.42188,26.3934,0.0989098,0.0413086,-0.612516,0.606994,-0.0213865,-0.60164,0.597451,0.0390084,-0.612179,0.616446,-0.012659,-0.597633,0.602522,-0.1546,-0.526317,1.26023,0.0787007,-0.63395,1.10204,-0.108014,-0.635903,1.1024,0.21504,-0.562662,1.26206,-0.00894122,0.000657285,-0.0674515,-0.0189186,0.690428,-2.29833,-2.07499,0.314044,
-7.87776,3.20769,25.8148,0.386434,4.0931,-1.5504,19.8594,-1.14217,-5.82064,-1.06114,19.1649,-1.00755,9.12543,1.43187,25.6444,0.210575,-7.82675,3.38132,26.1567,0.34033,4.03339,-1.33461,20.1705,-1.11279,-5.87708,-0.970282,19.3802,-1.00537,9.13077,1.3559,26.3753,0.146512,0.041197,-0.611754,0.607212,-0.0218001,-0.601235,0.598208,0.0389156,-0.611582,0.616802,-0.0129883,-0.597247,0.603277,-0.15575,-0.531538,1.25376,0.0803615,-0.640168,1.09602,-0.106708,-0.637394,1.0954,0.215007,-0.561724,1.246,-0.00643112,0.000656043,0.000675632,-0.0161892,0.766437,-2.28369,-2.01442,0.404962,
-7.85386,2.89868,26.0185,0.403825,4.27905,-1.55238,19.8306,-1.067,-5.9177,-1.08168,18.9269,-0.927803,9.00633,1.27008,25.7809,0.202495,-7.86743,3.17592,25.8062,0.37679,4.11738,-1.60089,19.8992,-1.14218,-5.81747,-1.08609,19.1493,-1.00755,9.14057,1.41336,25.6153,0.208222,0.0410753,-0.61096,0.607422,-0.0222319,-0.600831,0.598968,0.0388292,-0.611003,0.617261,-0.0132834,-0.596847,0.604081,-0.155288,-0.537565,1.25702,0.0845666,-0.639771,1.09605,-0.109113,-0.638024,1.09145,0.211742,-0.564366,1.24805,-0.00323176,-0.0712242,-0.061371,0.02061,0.804418,-2.20522,-1.91698,0.4256,
-7.77827,2.91588,26.0722,0.425374,4.19153,-1.75723,19.9166,-1.10094,-5.94901,-1.22698,19.0735,-0.871573,9.13165,1.13304,25.4515,0.259454,-7.849,2.86464,25.9254,0.403432,4.30305,-1.57235,19.869,-1.06824,-5.9085,-1.11176,18.914,-0.958831,9.02041,1.28767,25.6658,0.201737,0.0409444,-0.610121,0.607672,-0.0226732,-0.600323,0.599751,0.0387211,-0.61027,0.617601,-0.0136226,-0.596365,0.604876,-0.153653,-0.537156,1.25861,0.081937,-0.643557,1.09897,-0.110031,-0.640138,1.09387,0.214411,-0.567288,1.24059,0.0164499,0.000669288,-0.0580208,-0.0110332,0.867197,-2.20121,-1.80117,0.507876,
-7.85956,2.70729,25.6523,0.497039,4.40854,-1.84263,19.7761,-1.05777,-5.95584,-1.26882,19.0045,-0.843154,9.01765,1.24601,25.3539,0.284872,-7.7728,2.84965,26.0595,0.424842,4.21555,-1.74177,19.8848,-1.06621,-5.94351,-1.22475,18.997,-0.873185,9.14102,1.11401,25.4216,0.241986,0.0408147,-0.609325,0.608004,-0.0231036,-0.59986,0.600498,0.0385862,-0.60956,0.617932,-0.0139588,-0.595894,0.605674,-0.155692,-0.541589,1.25053,0.0869244,-0.64523,1.09454,-0.110442,-0.640464,1.09248,0.211224,-0.564887,1.24101,-0.000797719,0.000693176,0.000710643,-0.00767251,0.99328,-2.11485,-1.6856,0.562072,
-7.7544,2.62462,26.0047,0.508431,4.32976,-1.88882,19.9355,-1.0487,-6.03157,-1.27156,18.954,-0.779412,9.19325,0.974881,24.9682,0.331745,-7.85486,2.67321,25.6462,0.496641,4.42541,-1.86271,19.6817,-1.02469,-5.951,-1.29503,18.9889,-0.843152,9.027,1.22965,25.4055,0.269277,0.0406783,-0.608457,0.608224,-0.0235549,-0.599373,0.601244,0.0384516,-0.608852,0.61834,-0.0143088,-0.5954,0.606467,-0.153311,-0.541908,1.25744,0.0843585,-0.646698,1.09919,-0.112359,-0.640619,1.09319,0.215276,-0.570338,1.23218,0.0198219,0.000690181,-0.0512227,-0.00618401,1.03668,-2.09671,-1.61005,0.657305,
-7.79911,2.49816,25.6749,0.548965,4.36348,-1.99047,19.8443,-1.01925,-6.08092,-1.36338,18.834,-0.756779,9.24194,1.05538,24.6735,0.369388,-7.75228,2.59295,25.9977,0.507754,4.34425,-1.90728,19.8403,-1.01564,-6.02879,-1.29694,18.9401,-0.780537,9.20027,0.959956,25.0204,0.315366,0.0406001,-0.607659,0.608446,-0.0239437,-0.598868,0.601915,0.0383547,-0.608191,0.618676,-0.0146142,-0.595024,0.607264,-0.154347,-0.545149,1.25146,0.0850015,-0.647923,1.09758,-0.113761,-0.641508,1.08897,0.216223,-0.56883,1.22557,-1.84743e-05,0.000715173,0.000709683,-0.00217991,1.09791,-2.03779,-1.51285,0.736596,
-7.76649,2.1639,25.8976,0.551753,4.55924,-1.94318,19.7313,-0.942982,-6.17531,-1.37225,18.613,-0.686466,9.11742,0.878449,24.8995,0.362117,-7.79529,2.46496,25.6702,0.548951,4.37924,-2.01239,19.8216,-1.01948,-6.07808,-1.39245,18.8256,-0.757182,9.25225,1.03282,24.6533,0.36829,0.0405203,-0.606819,0.608571,-0.0243323,-0.598367,0.602574,0.0382814,-0.60751,0.618994,-0.0148839,-0.59453,0.607884,-0.153762,-0.551775,1.25508,0.0893225,-0.647019,1.09706,-0.116098,-0.641732,1.08522,0.212928,-0.571803,1.22973,0.0224187,-0.063382,-0.0455386,0.0275517,1.12592,-1.94935,-1.41847,0.751786,
-7.79382,2.20921,25.5769,0.610835,4.49441,-2.08763,19.8501,-0.960462,-6.18713,-1.51134,18.6816,-0.657266,9.2394,0.897528,24.5323,0.428668,-7.76455,2.13181,25.8932,0.549952,4.5731,-1.96519,19.712,-0.944353,-6.17157,-1.40269,18.6079,-0.688021,9.12883,0.857675,24.8809,0.360006,0.0404524,-0.606007,0.608745,-0.0247093,-0.597791,0.603086,0.0381965,-0.606737,0.619142,-0.0151687,-0.594005,0.608449,-0.154356,-0.55071,1.24928,0.087511,-0.649233,1.09881,-0.11658,-0.643693,1.08552,0.215596,-0.57168,1.22307,-9.54188e-07,0.00243712,0.0029009,2.86605e-05,1.22167,-1.91849,-1.31163,0.857364,
-7.80592,2.0785,25.5692,0.643429,4.5258,-2.16438,19.875,-0.936662,-6.25234,-1.54379,18.6885,-0.617903,9.31146,0.822027,24.3831,0.462812,-7.78715,2.13997,25.6608,0.597941,4.51481,-2.11031,19.7661,-0.929307,-6.18893,-1.51159,18.617,-0.636161,9.24562,0.841304,24.5979,0.411925,0.0404096,-0.605151,0.608813,-0.0250714,-0.597241,0.603547,0.0381252,-0.605965,0.619259,-0.0154409,-0.593466,0.60891,-0.154691,-0.553103,1.24906,0.0879462,-0.651407,1.09981,-0.118258,-0.643749,1.08576,0.217157,-0.573019,1.21972,4.72234e-06,0.00408281,0.00582696,3.93684e-05,1.28686,-1.86924,-1.22998,0.925663,
-7.7461,1.77296,25.8841,0.641181,4.7046,-2.18062,19.7715,-0.865505,-6.3293,-1.52495,18.5183,-0.553216,9.18456,0.687714,24.6038,0.450324,-7.80501,2.0462,25.5736,0.643426,4.53918,-2.18855,19.8647,-0.937618,-6.25176,-1.57046,18.6874,-0.618671,9.31946,0.802066,24.3716,0.46326,0.0403788,-0.604298,0.608719,-0.0254195,-0.596612,0.603912,0.0380926,-0.605263,0.619344,-0.0156672,-0.59293,0.609223,-0.153355,-0.559036,1.25474,0.0919035,-0.650357,1.09922,-0.120106,-0.643321,1.08308,0.213856,-0.574998,1.22353,0.0275734,-0.0584917,-0.0369621,0.0358058,1.30994,-1.7895,-1.14339,0.936454,
-7.76312,1.83492,25.6107,0.696708,4.63705,-2.0979,19.904,-0.877235,-6.33282,-1.63157,18.5821,-0.52604,9.31599,0.740219,24.2512,0.518977,-7.74712,1.74529,25.8885,0.636975,4.7159,-2.20089,19.7636,-0.866718,-6.32776,-1.54884,18.5167,-0.554597,9.19354,0.673036,24.591,0.448503,0.040383,-0.60355,0.608661,-0.0257352,-0.596068,0.604121,0.0380642,-0.604596,0.619353,-0.0158908,-0.592499,0.609587,-0.153611,-0.557677,1.24992,0.0900905,-0.648601,1.10101,-0.12032,-0.64466,1.08319,0.216828,-0.57419,1.21707,-1.83003e-05,0.00689482,0.00835473,-1.84278e-05,1.3934,-1.74757,-1.04373,1.03793,
-7.80594,1.48392,25.647,0.706527,4.64375,-2.38326,19.9225,-0.830674,-6.39553,-1.67903,18.2697,-0.481829,9.35614,0.687889,24.055,0.520616,-7.75993,1.80766,25.6174,0.678667,4.65408,-2.11839,19.8991,-0.877249,-6.33348,-1.65335,18.5822,-0.528005,9.32246,0.690508,24.322,0.518968,0.0404246,-0.602825,0.6085,-0.0260224,-0.595526,0.604332,0.0380543,-0.604022,0.619411,-0.016091,-0.592113,0.609889,-0.154618,-0.564864,1.24855,0.0899937,-0.654378,1.10332,-0.121783,-0.645996,1.0769,0.217741,-0.575109,1.21239,-1.54509e-06,-0.0551167,-0.0295416,0.0403881,1.41305,-1.71646,-0.993199,1.08162,
-7.79413,1.72837,25.5931,0.748132,4.66682,-2.35857,20.1012,-0.841674,-6.48253,-1.63787,18.6836,-0.48301,9.34098,0.662353,24.4312,0.565367,-7.80295,1.45973,25.654,0.683731,4.66101,-2.36924,19.9165,-0.831045,-6.3972,-1.69777,18.277,-0.496599,9.36187,0.63513,24.1322,0.519561,0.0404901,-0.602172,0.608373,-0.0262911,-0.595008,0.604437,0.0380816,-0.603468,0.619301,-0.0162577,-0.59169,0.610054,-0.154253,-0.559035,1.24915,0.090304,-0.653262,1.10619,-0.123995,-0.64379,1.08557,0.217144,-0.575273,1.22185,-1.10481e-05,0.0102677,0.0412649,4.602e-06,1.49625,-1.67308,-0.924756,1.13074,
-7.81676,1.41162,25.5994,0.736234,4.91667,-2.34653,19.8462,-0.786027,-6.46588,-1.66821,18.341,-0.451023,9.15096,0.557872,24.3187,0.536269,-7.79671,1.70788,25.5994,0.748135,4.6769,-2.37302,20.096,-0.841913,-6.48433,-1.64773,18.6852,-0.484093,9.34679,0.653206,24.4222,0.565366,0.0405524,-0.601583,0.608177,-0.0265555,-0.594589,0.604611,0.0381282,-0.603117,0.619237,-0.0164024,-0.591312,0.610149,-0.154894,-0.565538,1.24703,0.0961199,-0.653434,1.10171,-0.12345,-0.64501,1.0785,0.212323,-0.576777,1.21725,0.0407131,-0.0534644,-3.90382e-06,0.0442803,1.51318,-1.62552,-0.902049,1.11682,
-7.81734,1.55895,25.6162,0.789656,4.80092,-2.45581,20.0662,-0.809937,-6.49038,-1.68379,18.57,-0.444687,9.35376,0.61217,23.9828,0.600774,-7.82115,1.39675,25.6084,0.732021,4.92447,-2.3582,19.846,-0.787044,-6.46707,-1.67277,18.3419,-0.451023,9.15699,0.556066,24.3083,0.535784,0.0406449,-0.601155,0.608032,-0.0267831,-0.594235,0.604658,0.0381664,-0.602912,0.619189,-0.0165526,-0.59117,0.610418,-0.154652,-0.562374,1.24935,0.0931901,-0.655041,1.10548,-0.124112,-0.644582,1.08269,0.217157,-0.576247,1.21113,-1.10164e-05,0.0113423,0.0448506,7.04704e-06,1.5793,-1.60853,-0.844524,1.20155,
-7.79282,1.30501,25.8602,0.773493,4.91065,-2.39116,19.9604,-0.758012,-6.51159,-1.65209,18.4764,-0.418292,9.27895,0.575302,24.19,0.588052,-7.81588,1.54603,25.7079,0.766005,4.80942,-2.46489,20.0645,-0.810518,-6.49531,-1.65908,18.572,-0.445601,9.3589,0.575023,23.9769,0.577708,0.0407557,-0.600763,0.607835,-0.0270042,-0.593985,0.604733,0.0382047,-0.602801,0.619195,-0.0166968,-0.591101,0.61059,-0.153929,-0.567493,1.25529,0.0955456,-0.65403,1.10464,-0.124599,-0.643697,1.08183,0.215226,-0.577094,1.21448,-1.14586e-05,-0.051473,-4.92343e-06,8.53949e-06,1.54697,-1.5675,-0.836589,1.17611,
-7.73699,1.20126,25.9502,0.730504,4.81277,-2.33462,20.0506,-0.759974,-6.54092,-1.64264,18.3976,-0.403098,9.39148,0.485641,23.9107,0.574856,-7.79725,1.3361,25.8572,0.773483,4.9125,-2.42904,20.0244,-0.790072,-6.51429,-1.65498,18.5386,-0.441046,9.28983,0.574433,24.1843,0.588051,0.0408623,-0.60052,0.60773,-0.0272255,-0.5938,0.604835,0.0382207,-0.602727,0.619158,-0.0168695,-0.591033,0.610794,-0.15257,-0.56994,1.25544,0.0928819,-0.652497,1.10705,-0.125346,-0.644092,1.07983,0.217837,-0.578449,1.20964,0.0529981,-0.0501779,-2.36871e-06,0.0466705,1.51401,-1.57013,-0.806198,1.19638,
-7.83451,1.53033,25.4794,0.804807,4.79352,-2.40483,20.1482,-0.77907,-6.54754,-1.66147,18.7509,-0.416378,9.3972,0.649459,24.2591,0.621808,-7.74112,1.20161,25.9385,0.729556,4.8213,-2.33514,20.0378,-0.759775,-6.54273,-1.64786,18.4015,-0.403098,9.3999,0.481686,23.9892,0.573914,0.0409731,-0.600461,0.607933,-0.0274394,-0.59371,0.605031,0.0381992,-0.602613,0.619069,-0.0170731,-0.590987,0.610892,-0.154749,-0.56265,1.24616,0.0923511,-0.653405,1.10806,-0.125546,-0.643725,1.08704,0.217694,-0.575108,1.21836,-7.47097e-06,0.012002,0.0470172,9.42607e-06,1.60961,-1.54614,-0.785739,1.24363,
-7.79514,1.27256,25.7733,0.783854,4.86301,-2.51384,20.0063,-0.794598,-6.52428,-1.75982,18.5686,-0.441163,9.4523,0.606349,23.8962,0.588844,-7.83914,1.49671,25.4704,0.78094,4.80061,-2.36707,20.0647,-0.748098,-6.55198,-1.62965,18.7498,-0.392868,9.40067,0.6523,24.3322,0.621808,0.0410835,-0.600483,0.608164,-0.0276425,-0.593748,0.605358,0.0381975,-0.602577,0.619065,-0.0172656,-0.590939,0.61099,-0.153786,-0.569152,1.25162,0.0937368,-0.656242,1.10485,-0.124934,-0.646269,1.08406,0.21891,-0.575394,1.20948,6.79942e-06,0.0128548,0.0476063,0.045978,1.56771,-1.57634,-0.83472,1.22367,
-7.85426,1.10393,25.6097,0.438203,4.95405,-2.98378,20.3175,-1.19834,-6.62621,-1.8636,18.3052,-0.797445,9.18808,0.374038,23.7607,0.21573,-7.80084,1.2476,25.7597,0.756401,4.87003,-2.47237,19.9214,-0.763007,-6.53004,-1.75103,18.5648,-0.417358,9.45406,0.611706,23.9706,0.589266,0.0412302,-0.600664,0.608522,-0.0278251,-0.593899,0.605707,0.0382419,-0.60274,0.619103,-0.017404,-0.591056,0.611139,-0.154971,-0.573667,1.25003,0.0959999,-0.668203,1.11301,-0.12742,-0.649802,1.07603,0.212191,-0.582188,1.2062,-1.77935e-05,0.0131622,0.0491285,9.34032e-06,0.876389,-2.38351,-1.54576,0.431469,
-7.91596,0.894715,25.5648,0.314327,5.15118,-3.13024,19.8727,-1.26822,-6.53838,-2.1813,17.8472,-0.852617,9.06518,0.129936,23.4119,0.0771155,-7.85369,1.11968,25.5861,0.438201,4.96675,-2.971,20.298,-1.19416,-6.62172,-1.86071,18.296,-0.774637,9.19983,0.380178,23.7535,0.215731,0.0412915,-0.600954,0.608952,-0.0280807,-0.59418,0.606188,0.0382146,-0.602836,0.619287,-0.01761,-0.591158,0.611259,-0.156671,-0.578388,1.24738,0.10043,-0.673098,1.10422,-0.125263,-0.657094,1.06633,0.208891,-0.587595,1.19571,0.0392621,-0.0739504,-0.0444449,0.0297546,0.667916,-2.61039,-1.74968,0.183986,
-8.02466,1.07507,25.1453,0.29858,5.06419,-3.19884,19.9269,-1.3449,-6.58149,-2.10003,17.8545,-0.869337,9.30533,0.0965547,23.145,0.0674742,-7.91971,0.956085,25.5414,0.333958,5.1584,-3.1451,19.8566,-1.26566,-6.52732,-2.16736,17.8386,-0.875935,9.07974,0.178574,23.327,0.0971573,0.0412714,-0.601477,0.609589,-0.0284131,-0.59463,0.606635,0.0380666,-0.603087,0.619473,-0.0179305,-0.59142,0.611451,-0.159437,-0.574513,1.23962,0.0979034,-0.675354,1.10419,-0.126546,-0.656143,1.06524,0.214448,-0.588807,1.18925,0.0385888,0.00217255,-0.048915,0.021409,0.635748,-2.68762,-1.78759,0.156358,
-8.11224,1.13219,25.1418,0.291438,5.06316,-3.20404,19.8099,-1.33868,-6.66082,-2.2179,17.6899,-0.917386,9.4959,0.190111,23.0394,0.077853,-8.02447,1.09977,25.1316,0.301912,5.07642,-3.17539,19.9168,-1.30319,-6.57616,-2.08299,17.7921,-0.868922,9.31462,0.115203,23.1428,0.0677615,0.0412442,-0.6021,0.610054,-0.0287421,-0.595166,0.607034,0.0378978,-0.603455,0.619634,-0.0182737,-0.591848,0.611608,-0.161498,-0.574612,1.2378,0.0977319,-0.675183,1.10333,-0.128739,-0.658807,1.0612,0.218911,-0.587782,1.18855,2.1487e-06,0.00159015,0.00100692,-0.0102536,0.582878,-2.67577,-1.83377,0.145452,
-8.23247,1.00948,25.067,0.238612,5.21663,-2.90967,19.6982,-1.29275,-6.69518,-2.13867,17.571,-0.91775,9.4354,0.146642,23.4882,0.0144666,-8.11475,1.11443,25.1392,0.293836,5.07643,-3.18556,19.88,-1.33868,-6.6608,-2.20423,17.6943,-0.917373,9.50054,0.204151,23.0439,0.0779476,0.0412664,-0.602576,0.610287,-0.0289536,-0.595641,0.607172,0.0378373,-0.603801,0.61965,-0.0184574,-0.592184,0.611551,-0.164568,-0.57814,1.23807,0.101398,-0.669199,1.10058,-0.129528,-0.657893,1.05958,0.217336,-0.5884,1.19777,0.0267887,-0.0808202,-0.0505255,0.0201699,0.504012,-2.66633,-1.88602,0.0491031,
-8.24369,1.03088,25.5225,0.214684,5.20737,-2.89734,19.7399,-1.31305,-6.66259,-2.07695,17.734,-0.962473,9.47967,0.235756,23.618,0.0190503,-8.24226,1.03375,25.0755,0.255537,5.22418,-2.91884,19.7781,-1.33353,-6.69279,-2.11519,17.6403,-0.917028,9.44172,0.206963,23.4969,0.0147858,0.0413598,-0.603167,0.610223,-0.0291698,-0.596291,0.607136,0.0378253,-0.604308,0.61946,-0.0186398,-0.592759,0.611442,-0.164729,-0.577333,1.24715,0.100815,-0.669556,1.10139,-0.128706,-0.656247,1.06337,0.218217,-0.586842,1.20272,0.0269876,-0.0803197,0.00065493,-0.0143345,0.456356,-2.70642,-1.92429,0.023766,
-8.25812,1.2921,25.3522,0.217948,5.07972,-2.74119,19.8486,-1.39876,-6.619,-2.05206,17.9511,-0.996333,9.63844,0.455971,23.5126,0.0103828,-8.24845,1.05851,25.535,0.214921,5.21508,-2.86733,19.7526,-1.31234,-6.66196,-2.01965,17.7468,-0.935311,9.48484,0.267029,23.7059,0.00250871,0.0414795,-0.603847,0.610023,-0.0293658,-0.596982,0.606848,0.0378174,-0.604979,0.619141,-0.0188259,-0.5935,0.611213,-0.164835,-0.572428,1.24469,0.0975851,-0.665542,1.102,-0.127701,-0.656364,1.06699,0.221985,-0.583008,1.19983,-0.00968124,0.000707601,0.000659026,-0.0156958,0.426215,-2.79681,-1.99201,0.00506971,
-8.2286,1.23185,25.7063,0.159815,5.21622,-2.52566,19.694,-1.36982,-6.63636,-1.90975,17.9829,-1.00789,9.55894,0.564595,23.9277,-0.061138,-8.2618,1.32083,25.3698,0.218273,5.08841,-2.7108,19.8656,-1.39875,-6.61997,-2.02395,17.9717,-0.996338,9.64417,0.48369,23.5331,0.0105098,0.0415857,-0.604553,0.609625,-0.0295786,-0.597766,0.606515,0.0378226,-0.605712,0.618757,-0.0189972,-0.594239,0.610801,-0.164131,-0.573762,1.25099,0.100614,-0.661808,1.09948,-0.128037,-0.654248,1.06875,0.21991,-0.580143,1.20775,0.0235826,-0.0847703,-0.0560733,0.016558,0.343213,-2.8244,-2.07185,-0.105718,
-8.24781,1.57079,25.4764,0.160325,5.10562,-2.50363,19.8493,-1.46556,-6.6036,-1.93312,18.2279,-1.08284,9.63252,0.62713,23.8778,-0.073041,-8.23317,1.26306,25.7239,0.159972,5.2239,-2.49425,19.7136,-1.36946,-6.63757,-1.8832,18.0093,-1.00653,9.56512,0.589461,23.9556,-0.0600303,0.041698,-0.605342,0.609236,-0.0297854,-0.598539,0.606025,0.0378482,-0.606399,0.618141,-0.0191579,-0.594941,0.610253,-0.164361,-0.567018,1.24693,0.0978065,-0.661202,1.1011,-0.127259,-0.654789,1.0727,0.221526,-0.580095,1.20774,-0.0135977,0.000645447,0.000650917,-0.0201812,0.307053,-2.93047,-2.16503,-0.166263,
-8.28965,1.77664,25.5336,0.131844,5.12035,-2.40466,19.863,-1.5029,-6.63335,-1.84152,18.4939,-1.14234,9.69967,0.719391,24.0621,-0.117578,-8.24822,1.56717,25.5833,0.143796,5.11911,-2.43528,19.8014,-1.42078,-6.61076,-1.87537,18.1993,-1.05147,9.6336,0.617427,23.9902,-0.0898345,0.0418276,-0.606176,0.608737,-0.0299839,-0.599387,0.605492,0.0379144,-0.607113,0.617395,-0.0192889,-0.595605,0.609474,-0.165266,-0.562718,1.24778,0.0979911,-0.659595,1.10086,-0.127898,-0.653228,1.07851,0.223112,-0.578446,1.21148,-0.0142689,0.000632296,0.000667589,-0.0220367,0.249419,-3.00516,-2.28401,-0.257193,
-8.26145,1.77749,25.9131,0.0664994,5.2857,-2.13611,19.7498,-1.47099,-6.66987,-1.70692,18.5496,-1.16084,9.5648,0.755016,24.6054,-0.207714,-8.29535,1.81111,25.5595,0.132795,5.12716,-2.37011,19.8887,-1.50288,-6.63952,-1.80983,18.527,-1.14233,9.70127,0.745737,24.0982,-0.115994,0.0419684,-0.607012,0.608096,-0.0301647,-0.600265,0.604919,0.0380427,-0.607889,0.616617,-0.0193588,-0.596242,0.608555,-0.16454,-0.562662,1.2545,0.101793,-0.654627,1.09914,-0.128573,-0.651419,1.08061,0.21976,-0.577337,1.22216,0.0167661,-0.0912702,-0.0664179,0.0116201,0.149765,-3.03325,-2.38809,-0.403809,
-8.32574,2.14319,25.711,0.0618962,5.17423,-2.03778,19.9102,-1.56949,-6.60872,-1.69282,18.8171,-1.25494,9.68257,0.969598,24.5459,-0.218037,-8.26886,1.81595,25.938,0.0670616,5.29056,-2.09812,19.7776,-1.47056,-6.67541,-1.66977,18.5796,-1.15908,9.56714,0.786939,24.64,-0.206732,0.0421386,-0.607963,0.607501,-0.030315,-0.601174,0.604208,0.038188,-0.608748,0.615782,-0.0194197,-0.597004,0.607703,-0.165828,-0.555446,1.25094,0.0990319,-0.6523,1.10068,-0.126981,-0.651274,1.08497,0.22257,-0.573721,1.22182,-0.0200065,0.000561711,0.000626545,-0.0308147,0.103786,-3.13842,-2.50926,-0.466888,
-8.35776,2.16676,25.9505,-0.000755417,5.26143,-1.97491,19.9714,-1.62584,-6.60179,-1.59267,18.8932,-1.33472,9.57087,1.04978,24.9356,-0.323074,-8.32869,2.14723,25.8223,0.0461712,5.18498,-1.96315,19.8688,-1.52135,-6.61998,-1.62153,18.7845,-1.21759,9.67996,0.966795,24.6632,-0.217098,0.0423355,-0.608994,0.606843,-0.030444,-0.602197,0.603484,0.0383633,-0.609755,0.614994,-0.0194562,-0.597864,0.6068,-0.166427,-0.555912,1.25623,0.101093,-0.651778,1.10146,-0.126604,-0.649823,1.08607,0.219773,-0.572594,1.23063,-0.021061,0.000529811,0.00062877,0.00712388,-0.0225719,-3.25114,-2.66881,-0.639024,
-8.3759,2.36272,26.0818,-0.0367971,5.31122,-1.61655,19.9467,-1.63751,-6.57932,-1.49634,19.0381,-1.39333,9.56134,1.2285,25.2616,-0.347423,-8.36551,2.21001,25.9694,-0.0162752,5.27166,-1.89813,19.9251,-1.57593,-6.61154,-1.52234,18.9192,-1.29487,9.56945,1.048,25.0492,-0.321845,0.0425271,-0.610011,0.60623,-0.0305551,-0.60324,0.602815,0.0385376,-0.610737,0.614323,-0.0194817,-0.598734,0.605952,-0.166807,-0.551178,1.2569,0.102231,-0.643926,1.10022,-0.125877,-0.648445,1.09063,0.219492,-0.56906,1.23799,-0.0254451,0.00050273,0.000592639,-0.0387698,-0.0990392,-3.27452,-2.78607,-0.733616,
-8.47663,2.7677,25.8421,-0.0821504,5.2059,-1.51868,19.9852,-1.68104,-6.5281,-1.43242,19.3242,-1.47751,9.71924,1.39424,25.2383,-0.382013,-8.38551,2.41316,26.0989,-0.035603,5.31999,-1.54231,19.8987,-1.56925,-6.58725,-1.4164,19.0626,-1.35141,9.55938,1.23063,25.3752,-0.367958,0.0427568,-0.611272,0.605765,-0.030649,-0.604362,0.602192,0.0387395,-0.611959,0.613598,-0.0195181,-0.599731,0.605133,-0.168959,-0.543294,1.2526,0.0995257,-0.642585,1.10061,-0.124305,-0.648114,1.09553,0.223403,-0.565971,1.23665,0.0066476,-0.0216022,0.000571795,-0.0424639,-0.157653,-3.38367,-2.95445,-0.806491,
-8.50284,2.88048,26.2365,-0.123355,5.33643,-1.35959,19.8605,-1.58777,-6.5432,-1.2066,19.7017,-1.49811,9.62495,1.43912,25.8519,-0.479061,-8.48629,2.81543,25.8595,-0.0642646,5.20764,-1.49352,20.0036,-1.64697,-6.5357,-1.38519,19.2819,-1.4775,9.71607,1.43185,25.269,-0.380976,0.0429952,-0.61248,0.605297,-0.0307128,-0.605237,0.601705,0.0389717,-0.613169,0.612984,-0.0194959,-0.600705,0.604321,-0.169478,-0.540762,1.25992,0.102593,-0.640024,1.09879,-0.124392,-0.64445,1.10436,0.221204,-0.564843,1.24912,0.00177126,-0.207234,-0.0888567,0.000460486,-0.244938,-3.38277,-3.08507,-0.957662,
-8.54697,3.17628,26.1598,-0.158731,5.35054,-1.30255,19.8732,-1.66624,-6.48914,-1.19699,19.5149,-1.64153,9.53522,1.64231,25.8898,-0.513969,-8.51286,2.972,26.1637,-0.122749,5.33233,-1.34405,19.9456,-1.55666,-6.55428,-1.18411,19.7151,-1.48432,9.62648,1.52385,25.8761,-0.479071,0.0432594,-0.613795,0.604927,-0.0307605,-0.605785,0.601262,0.0392609,-0.614461,0.612549,-0.0194407,-0.601774,0.603649,-0.17021,-0.534742,1.25771,0.1029,-0.638231,1.09872,-0.122852,-0.645543,1.10104,0.219009,-0.560915,1.2516,-0.0326813,-0.156736,-0.0082474,-0.0505038,-0.350143,-3.48923,-3.29131,-1.07844,
-8.56894,3.332,26.1817,-0.187035,5.40396,-1.27874,19.8675,-1.53528,-6.50341,-1.11946,19.6525,-1.56469,9.48358,1.8345,26.2091,-0.566728,-8.55689,3.2686,26.0829,-0.157214,5.34574,-1.30483,19.9526,-1.62506,-6.50022,-1.18919,19.5912,-1.60773,9.53633,1.72825,25.9082,-0.511971,0.043506,-0.615185,0.60468,-0.0308005,-0.605996,0.60094,0.0395371,-0.615624,0.612263,-0.0193878,-0.602943,0.60308,-0.170615,-0.532263,1.25808,0.104209,-0.638336,1.09833,-0.12283,-0.644556,1.10426,0.217782,-0.55729,1.25695,0.000495866,-0.354875,-0.188322,0.00046208,-0.373575,-3.42543,-3.31769,-1.13299,
-8.63116,3.7809,25.9193,-0.16845,5.2883,-1.31376,19.9389,-1.57452,-6.45223,-1.09409,19.9946,-1.62117,9.62539,2.06165,26.0112,-0.522631,-8.5789,3.38652,26.184,-0.187028,5.40477,-1.28733,19.8727,-1.51781,-6.51404,-1.09666,19.656,-1.53333,9.48173,1.87874,26.2243,-0.566598,0.0437647,-0.616581,0.604588,-0.0308217,-0.605873,0.600709,0.0398137,-0.616391,0.612063,-0.0193357,-0.604086,0.602685,-0.171805,-0.523359,1.25355,0.101443,-0.638233,1.09824,-0.121374,-0.643763,1.11103,0.221283,-0.553673,1.2538,-0.036597,-0.278622,-0.141601,-0.0791143,-0.373497,-3.42767,-3.38394,-1.12438,
-8.59754,3.85705,26.1312,-0.21396,5.43561,-1.26897,19.886,-1.47337,-6.5212,-1.03461,20.0644,-1.53419,9.45481,2.17387,26.4703,-0.596935,-8.63885,3.83021,25.9225,-0.161603,5.29098,-1.32986,19.9419,-1.5616,-6.4686,-1.08635,19.9266,-1.58759,9.61827,2.05768,26.0268,-0.505716,0.0439921,-0.617914,0.604478,-0.0308682,-0.605598,0.600634,0.0401117,-0.616834,0.611999,-0.019265,-0.60508,0.602255,-0.170874,-0.521874,1.25671,0.104908,-0.637456,1.09858,-0.122784,-0.643223,1.11275,0.217112,-0.551672,1.26271,0.000278492,-0.41634,-0.322237,-0.0280753,-0.427642,-3.36309,-3.39062,-1.22195,
-8.66097,4.34167,25.8322,-0.163583,5.53252,-1.14582,19.8436,-1.47998,-6.4776,-0.937537,20.266,-1.47583,9.33312,2.20241,26.637,-0.533872,-8.60897,3.90084,26.1308,-0.167127,5.43897,-1.31625,19.9559,-1.47278,-6.5322,-1.06658,20.0586,-1.56234,9.45297,2.19128,26.391,-0.518325,0.0441893,-0.61915,0.604491,-0.0309422,-0.605178,0.60058,0.0404073,-0.616946,0.612088,-0.0191963,-0.605707,0.601942,-0.172278,-0.511684,1.25132,0.107388,-0.633939,1.09751,-0.12131,-0.640747,1.11967,0.214215,-0.550499,1.26665,-0.0298707,-0.307694,-0.37835,-0.0986635,-0.357038,-3.26765,-3.33002,-1.16641,
-8.61961,4.22122,26.3083,-0.109282,5.4024,-1.31152,19.995,-1.48666,-6.42568,-1.00265,20.4204,-1.52273,9.5986,2.27607,26.2004,-0.452001,-8.66941,4.33395,25.9178,-0.128665,5.53429,-1.16278,19.8478,-1.42993,-6.49036,-0.94288,20.3228,-1.45685,9.32942,2.2165,26.6358,-0.512381,0.0443851,-0.620044,0.604459,-0.0310106,-0.604739,0.600491,0.0407093,-0.616857,0.612311,-0.0191246,-0.606147,0.601882,-0.170929,-0.515293,1.26311,0.10395,-0.636899,1.09947,-0.119793,-0.641475,1.12388,0.220843,-0.549924,1.25799,-0.159065,-0.300642,-0.306881,-0.229281,-0.37763,-3.27396,-3.35235,-1.13328,
-8.63511,3.94014,26.2437,-0.484942,5.59145,-1.73944,20.0804,-1.83575,-6.52629,-1.28623,19.8124,-1.79867,9.2156,2.07486,26.0585,-0.892674,-8.62254,4.23891,26.3013,-0.0890843,5.40641,-1.32523,19.9921,-1.49563,-6.43872,-1.01432,20.3992,-1.50804,9.59352,2.28236,26.199,-0.445538,0.0445864,-0.620578,0.604444,-0.0310838,-0.604364,0.600509,0.0410374,-0.616671,0.612706,-0.0190167,-0.606417,0.601872,-0.171132,-0.521965,1.25959,0.108717,-0.648002,1.10341,-0.121862,-0.649034,1.10744,0.211488,-0.55423,1.2523,-0.138918,-0.390979,-0.447998,-0.159062,-1.1088,-4.06248,-4.04535,-1.94441,
-8.69167,3.82947,25.906,-0.370631,5.52071,-2.14521,19.862,-1.84863,-6.48313,-1.60674,19.2667,-1.7165,9.34995,1.78278,25.35,-0.713979,-8.63264,3.91526,26.2231,-0.389112,5.59974,-1.78501,20.1338,-1.755,-6.53395,-1.37031,19.7845,-1.76941,9.21595,2.02913,26.0492,-0.787235,0.0446996,-0.620559,0.604803,-0.0312377,-0.603613,0.600755,0.0413053,-0.61588,0.613321,-0.0189655,-0.606006,0.602054,-0.172498,-0.524906,1.25378,0.106587,-0.656172,1.09843,-0.12069,-0.655668,1.09625,0.214736,-0.561252,1.23702,-0.407813,-0.43034,-0.62972,-0.470147,-1.14907,-4.12761,-4.06271,-1.8981,
-8.72829,3.71937,26.0079,-0.257597,5.48213,-2.26025,19.7973,-1.63847,-6.56137,-1.60369,19.3911,-1.61766,9.55257,1.57387,25.4759,-0.548118,-8.6881,3.74497,25.9671,-0.307799,5.52424,-2.17512,19.8432,-1.81257,-6.49168,-1.70435,19.3056,-1.68059,9.34562,1.68241,25.3403,-0.71657,0.0447427,-0.61964,0.605345,-0.0314612,-0.602254,0.601164,0.041528,-0.614383,0.614043,-0.0189569,-0.604649,0.602271,-0.173395,-0.526324,1.25689,0.105376,-0.657463,1.0955,-0.122328,-0.653855,1.1001,0.219821,-0.564798,1.23829,-0.465542,-0.629476,-0.58586,-0.557178,-0.980736,-3.90641,-3.82118,-1.65341,
-8.71459,3.41783,25.9833,-0.160863,5.46734,-2.32893,19.8334,-1.65707,-6.62637,-1.64096,19.1705,-1.52578,9.58392,1.50976,25.2768,-0.545517,-8.72456,3.63564,26.0723,-0.246669,5.49181,-2.30825,19.7112,-1.65748,-6.56955,-1.68297,19.3543,-1.56511,9.54813,1.49533,25.4595,-0.567648,0.0447646,-0.618364,0.605868,-0.031698,-0.600892,0.601599,0.0417373,-0.612939,0.614836,-0.0189384,-0.603281,0.602649,-0.173037,-0.532556,1.25676,0.10491,-0.658743,1.09679,-0.12384,-0.653524,1.09383,0.220632,-0.565292,1.23587,-0.555013,-0.469332,-0.578303,-0.430117,-0.87674,-3.78347,-3.62986,-1.52115,
-8.67549,3.049,26.2933,-0.214021,5.59978,-2.52703,19.7875,-1.61765,-6.63155,-1.88412,18.6854,-1.43792,9.40633,1.37313,25.3791,-0.504761,-8.71527,3.38553,25.9675,-0.188285,5.47716,-2.3593,19.8218,-1.69148,-6.63486,-1.67185,19.1317,-1.55784,9.58234,1.48988,25.2594,-0.582395,0.044779,-0.617292,0.606267,-0.0319504,-0.599822,0.601974,0.0419506,-0.611827,0.615817,-0.0189066,-0.602441,0.603041,-0.172153,-0.540131,1.26282,0.107816,-0.662128,1.09772,-0.123661,-0.658088,1.08436,0.216315,-0.567336,1.23676,-0.431611,-0.51975,-0.620704,-0.440108,-0.859652,-3.75505,-3.49655,-1.44963,
-8.67337,2.83059,26.2316,-0.26855,5.66145,-2.45948,19.7045,-1.6586,-6.64597,-1.88579,18.3883,-1.49951,9.35826,1.46144,25.2809,-0.597721,-8.68277,3.07382,26.1892,-0.221091,5.60183,-2.53383,19.8451,-1.71573,-6.63632,-1.88411,18.7133,-1.54897,9.40857,1.41129,25.2747,-0.544814,0.0448211,-0.616718,0.606719,-0.0321853,-0.599339,0.602306,0.0421677,-0.611417,0.616798,-0.0188728,-0.602172,0.603522,-0.172032,-0.545369,1.26175,0.109151,-0.661068,1.09601,-0.123811,-0.658849,1.07787,0.215147,-0.565215,1.2348,-0.34411,-0.444478,-0.502119,-0.27257,-0.88121,-3.76168,-3.50115,-1.46801,
-8.78726,2.91494,25.795,-0.309395,5.58351,-2.69498,19.8717,-1.80627,-6.66098,-1.97457,18.2427,-1.63279,9.42101,1.35942,24.8096,-0.600358,-8.67704,2.84234,26.2094,-0.308972,5.66793,-2.45569,19.6889,-1.67863,-6.65321,-1.87359,18.3597,-1.54126,9.35781,1.47003,25.2666,-0.616628,0.0449018,-0.616732,0.607282,-0.0323697,-0.599244,0.602645,0.0423659,-0.611507,0.617623,-0.0188509,-0.602306,0.603994,-0.174666,-0.544415,1.25355,0.107185,-0.666261,1.09881,-0.124083,-0.660681,1.07338,0.216639,-0.568856,1.22549,-0.336142,-0.281107,-0.310974,-0.319923,-0.954932,-3.89364,-3.57656,-1.52064,
-8.84601,2.78984,25.9293,-0.41861,5.73404,-2.68116,19.6879,-1.74854,-6.73284,-1.9315,18.1229,-1.63242,9.36226,1.24042,25.0773,-0.699413,-8.78828,2.9314,25.7743,-0.324661,5.59236,-2.68806,19.8556,-1.81552,-6.66673,-1.96025,18.2247,-1.65714,9.422,1.36764,24.8074,-0.617963,0.0449603,-0.617044,0.6078,-0.0325738,-0.59938,0.603097,0.0425362,-0.611833,0.618277,-0.0188553,-0.60249,0.604185,-0.176219,-0.54713,1.25534,0.110567,-0.666905,1.09644,-0.125652,-0.660669,1.07241,0.215227,-0.571184,1.23016,-0.230762,-0.389592,-0.36904,-0.197695,-1.06798,-3.88667,-3.63387,-1.59652,
-8.90285,2.80983,25.8545,-0.443338,5.74884,-2.54939,19.5852,-1.74644,-6.70038,-1.92222,18.1366,-1.65304,9.41036,1.25842,25.191,-0.655395,-8.85062,2.84086,25.8231,-0.380423,5.73803,-2.70054,19.7454,-1.82149,-6.73182,-1.94595,18.1744,-1.693,9.37102,1.28689,24.9949,-0.706879,0.044982,-0.617473,0.608362,-0.0328164,-0.599622,0.6035,0.0426424,-0.612181,0.61867,-0.0189357,-0.602743,0.604221,-0.177635,-0.547076,1.25401,0.110683,-0.66394,1.09423,-0.124789,-0.660781,1.07304,0.216295,-0.571033,1.23296,-0.229622,-0.370288,-0.356514,-0.272327,-1.1163,-3.86317,-3.66259,-1.58312,
-9.0236,2.9209,25.5085,-0.403979,5.6101,-2.58371,19.6841,-1.84553,-6.65987,-2.0073,18.2306,-1.74855,9.63605,1.39199,24.9299,-0.6608,-8.90497,2.82307,25.8381,-0.436167,5.75671,-2.53526,19.5763,-1.74815,-6.70238,-1.90988,18.1302,-1.6518,9.4158,1.27547,25.1939,-0.704953,0.0450145,-0.617876,0.608887,-0.0330395,-0.599944,0.603772,0.0426987,-0.612492,0.618877,-0.0190666,-0.60312,0.604224,-0.180491,-0.545476,1.24789,0.107159,-0.664365,1.09515,-0.123804,-0.662525,1.07398,0.221709,-0.569006,1.22847,-0.321993,-0.241616,-0.249459,-0.263512,-1.12995,-3.93268,-3.74656,-1.58511,
-9.02269,2.76443,25.7594,-0.461924,5.76892,-2.51276,19.582,-1.76137,-6.74952,-1.96497,18.0975,-1.69439,9.52098,1.39201,25.3447,-0.750957,-9.02506,2.92759,25.5033,-0.395631,5.61864,-2.57534,19.6805,-1.83604,-6.66437,-1.99807,18.2304,-1.74128,9.63848,1.40587,24.9393,-0.658729,0.0450578,-0.618128,0.609143,-0.0332564,-0.600254,0.603985,0.0427829,-0.612787,0.61901,-0.0191674,-0.603497,0.604044,-0.180532,-0.548735,1.25222,0.110761,-0.663606,1.09447,-0.125848,-0.662407,1.07224,0.21885,-0.5685,1.23651,-0.263317,-0.387614,-0.37594,-0.178879,-1.18716,-3.91035,-3.76472,-1.68079,
-9.06248,2.85647,25.6457,-0.430076,5.70545,-2.38432,19.6601,-1.78273,-6.73499,-1.99076,18.1681,-1.71003,9.65228,1.45132,25.1926,-0.69936,-9.02879,2.80248,25.6759,-0.455834,5.77174,-2.53695,19.5836,-1.81912,-6.75304,-1.9848,18.0997,-1.74099,9.5284,1.40206,25.2687,-0.732877,0.0451067,-0.618292,0.609234,-0.0334787,-0.600469,0.603988,0.0428839,-0.613018,0.618966,-0.0192584,-0.603836,0.603829,-0.181477,-0.546551,1.24935,0.108953,-0.660591,1.09461,-0.125471,-0.663261,1.07237,0.222032,-0.568154,1.23248,-0.354234,-0.397893,-0.394269,-0.307832,-1.21439,-3.96336,-3.81432,-1.70655,
-9.07238,2.85539,25.6249,-0.369283,5.6835,-2.42543,19.8382,-1.70376,-6.83139,-1.90428,18.3191,-1.70154,9.67865,1.51269,25.6483,-0.662836,-9.06798,2.88655,25.6545,-0.455331,5.71466,-2.4189,19.5959,-1.82502,-6.73996,-1.98638,18.1749,-1.69936,9.65797,1.45412,25.1201,-0.72788,0.0451478,-0.618324,0.609174,-0.0337027,-0.600544,0.603896,0.0429946,-0.613171,0.618897,-0.0193367,-0.604003,0.603577,-0.181687,-0.546496,1.25069,0.108314,-0.661544,1.09889,-0.127675,-0.660508,1.07755,0.222629,-0.56582,1.24356,-0.38164,-0.439449,-0.304012,-0.342302,-1.12021,-3.84697,-3.70709,-1.66797,
-9.02537,2.81459,26.0009,-0.421937,5.82995,-2.2558,19.6869,-1.69215,-6.78762,-1.79053,18.326,-1.65252,9.56841,1.50199,25.6598,-0.681383,-9.07365,2.88897,25.6397,-0.373297,5.69319,-2.45419,19.7758,-1.76984,-6.83393,-1.89409,18.3241,-1.69931,9.68419,1.55128,25.5709,-0.64634,0.045187,-0.618292,0.608842,-0.0339474,-0.600553,0.603704,0.0431306,-0.613369,0.618708,-0.0194004,-0.604094,0.603313,-0.180377,-0.547529,1.25762,0.111578,-0.657387,1.09487,-0.126438,-0.658632,1.076,0.219818,-0.566167,1.24363,-0.297491,-0.431344,-0.418883,-0.284476,-1.14137,-3.81564,-3.72391,-1.64724,
-9.07675,3.00362,25.8581,-0.367317,5.68774,-2.2732,19.7014,-1.70179,-6.70383,-1.81465,18.3743,-1.71273,9.73755,1.56479,25.3333,-0.585072,-9.02459,2.81627,26.0163,-0.42252,5.83719,-2.25187,19.6246,-1.75018,-6.79288,-1.78477,18.3331,-1.64356,9.57096,1.54205,25.6662,-0.674642,0.0452455,-0.61834,0.608515,-0.0341638,-0.600629,0.603488,0.0432667,-0.613563,0.618584,-0.019462,-0.6042,0.603174,-0.18157,-0.543691,1.25578,0.107979,-0.657138,1.09502,-0.124284,-0.658681,1.0786,0.223898,-0.564714,1.23746,-0.374757,-0.437038,-0.327648,-0.389149,-1.10939,-3.84062,-3.75311,-1.55929,
-9.04777,2.87247,26.1375,-0.38365,5.82136,-2.22797,19.717,-1.7434,-6.75907,-1.80604,18.3971,-1.70391,9.58874,1.61766,25.7448,-0.669157,-9.07943,3.002,25.8748,-0.400399,5.69585,-2.27297,19.6398,-1.69363,-6.7101,-1.81666,18.4499,-1.64716,9.73876,1.60277,25.3473,-0.592331,0.0453198,-0.618331,0.608079,-0.0343694,-0.600705,0.60326,0.0434166,-0.613639,0.618345,-0.0195078,-0.604293,0.602884,-0.180882,-0.546092,1.26023,0.110967,-0.6568,1.09519,-0.125423,-0.65912,1.07887,0.220226,-0.563473,1.24527,-0.385151,-0.331818,-0.348768,-0.286712,-1.15245,-3.81861,-3.75658,-1.62503,
-9.05722,3.06538,25.9262,-0.350528,5.7192,-2.19956,19.7126,-1.74665,-6.70661,-1.8282,18.6303,-1.69878,9.73056,1.69062,25.6015,-0.578641,-9.05384,2.87176,26.1511,-0.417679,5.82502,-2.22631,19.6533,-1.67976,-6.76295,-1.81007,18.4096,-1.64165,9.59278,1.61752,25.6717,-0.659195,0.0453807,-0.618324,0.607743,-0.0345951,-0.600715,0.603062,0.0435469,-0.613559,0.617997,-0.019582,-0.604354,0.602555,-0.181073,-0.542099,1.25674,0.108175,-0.655349,1.0949,-0.124092,-0.658863,1.08278,0.223578,-0.562531,1.24135,-0.396047,-0.337947,-0.363052,-0.397419,-1.0971,-3.83124,-3.76061,-1.5547,
-9.01111,2.99672,26.2215,-0.389477,5.87601,-2.13442,19.6197,-1.6613,-6.75624,-1.90785,18.6706,-1.68084,9.59567,1.84018,25.8287,-0.653086,-9.05891,3.02998,25.942,-0.346253,5.72294,-2.20029,19.7192,-1.73794,-6.71585,-1.80469,18.5791,-1.63686,9.73251,1.65592,25.6149,-0.579892,0.0454274,-0.618297,0.607328,-0.0348338,-0.600749,0.602917,0.0436769,-0.61345,0.61767,-0.0196608,-0.604365,0.602266,-0.179773,-0.543766,1.2616,0.111853,-0.654484,1.09417,-0.125182,-0.660723,1.08344,0.220229,-0.5588,1.24882,-0.329045,-0.476542,-0.375827,-0.307083,-1.108,-3.79913,-3.73751,-1.61326,
-8.98142,2.99268,26.282,-0.407582,5.79606,-2.11017,19.9418,-1.71939,-6.79548,-1.77569,18.7363,-1.70336,9.5966,1.66653,25.977,-0.596642,-9.00865,2.96491,26.1475,-0.349527,5.87917,-2.13322,19.6246,-1.65838,-6.76494,-1.87732,18.6151,-1.62873,9.59828,1.83615,25.9242,-0.632343,0.045473,-0.618297,0.606999,-0.0350606,-0.600739,0.602735,0.0438202,-0.613404,0.617378,-0.0197309,-0.604305,0.60196,-0.178983,-0.543921,1.26281,0.109632,-0.653132,1.10035,-0.126025,-0.657467,1.08485,0.220098,-0.562148,1.2523,-0.331422,-0.362815,-0.368248,-0.438686,-1.14659,-3.8016,-3.77498,-1.63197,
-9.08771,3.12919,25.9899,-0.369782,5.90545,-2.12702,19.4383,-1.65274,-6.61851,-1.81158,18.7195,-1.64571,9.59034,1.75371,25.6136,-0.584772,-8.97974,2.99694,26.2867,-0.361287,5.79881,-2.10632,19.9391,-1.7105,-6.80043,-1.77541,18.7391,-1.69016,9.59982,1.70137,25.9775,-0.587125,0.0455273,-0.618352,0.606821,-0.0352891,-0.600819,0.602741,0.0439521,-0.613441,0.617249,-0.0198049,-0.604238,0.601774,-0.18157,-0.539766,1.25754,0.112151,-0.654441,1.08961,-0.121392,-0.659089,1.08598,0.219953,-0.559941,1.24101,-0.345479,-0.501493,-0.506696,-0.367217,-1.08504,-3.80698,-3.79811,-1.53676,
-9.01041,3.34107,26.1652,-0.303847,5.8541,-1.91668,19.9141,-1.60735,-6.83285,-1.69288,18.9772,-1.63737,9.66273,1.91344,26.0725,-0.520821,-9.08588,3.1314,26.0834,-0.363338,5.90737,-2.15434,19.4411,-1.7132,-6.62101,-1.84005,18.7216,-1.63824,9.5957,1.75713,25.5309,-0.589177,0.0455925,-0.618445,0.606654,-0.0354836,-0.600916,0.60272,0.0440908,-0.613451,0.617146,-0.0198646,-0.604277,0.601709,-0.179579,-0.535359,1.2617,0.11068,-0.64927,1.0997,-0.126596,-0.656134,1.09073,0.221712,-0.556906,1.25242,-0.433311,-0.498868,-0.409588,-0.444002,-1.041,-3.71357,-3.68432,-1.48564,
-9.01918,3.14644,26.2241,-0.310607,5.99334,-1.92549,19.7959,-1.59853,-6.77281,-1.69281,19.0957,-1.58461,9.53921,1.81092,26.0755,-0.553624,-9.00914,3.30574,26.2523,-0.290704,5.86226,-1.91243,19.8395,-1.66071,-6.8392,-1.72056,18.9123,-1.63821,9.66446,1.9162,26.0743,-0.562292,0.0456619,-0.618449,0.606514,-0.0356915,-0.601003,0.602753,0.0442489,-0.613471,0.617101,-0.0199192,-0.604323,0.601689,-0.179722,-0.540175,1.26312,0.114092,-0.64882,1.09685,-0.125016,-0.656166,1.09368,0.218491,-0.558652,1.25463,-0.386865,-0.509829,-0.518296,-0.447929,-1.00808,-3.70688,-3.68752,-1.55518,
-9.01607,3.04998,26.218,-0.302007,6.03446,-1.90264,19.5976,-1.5951,-6.76566,-1.7443,18.7001,-1.58747,9.54469,1.80502,25.6931,-0.585553,-9.02275,3.1553,26.222,-0.320057,6.00511,-1.91782,19.7883,-1.65344,-6.7786,-1.71265,19.087,-1.63826,9.54148,1.85514,26.0663,-0.54517,0.0457415,-0.618515,0.606459,-0.0358667,-0.60116,0.602932,0.0444068,-0.613598,0.617229,-0.0199666,-0.604456,0.601737,-0.179661,-0.541974,1.26088,0.114955,-0.649216,1.09384,-0.124603,-0.657696,1.08567,0.218663,-0.559015,1.24311,-0.441936,-0.516343,-0.522175,-0.376436,-1.04595,-3.70654,-3.69712,-1.54754,
-9.12516,3.44733,25.8816,-0.337634,5.95259,-1.92909,19.9693,-1.67049,-6.85694,-1.73424,19.0133,-1.64359,9.63085,1.89735,25.9649,-0.538138,-9.01945,3.06274,26.2135,-0.309793,6.04129,-1.89582,19.5903,-1.595,-6.77067,-1.73666,18.6963,-1.59341,9.54732,1.81037,25.689,-0.586524,0.04583,-0.618793,0.606572,-0.0360462,-0.601328,0.603085,0.0445436,-0.613798,0.617363,-0.0200248,-0.604644,0.601927,-0.182193,-0.53321,1.25472,0.112602,-0.649287,1.10159,-0.12684,-0.656923,1.09197,0.220669,-0.557715,1.25215,-0.350708,-0.401106,-0.400214,-0.46031,-1.02597,-3.7421,-3.68739,-1.53658,
-9.13181,3.17704,26.1032,-0.286151,6.09242,-1.83159,19.7152,-1.5776,-6.87434,-1.68673,18.8388,-1.60957,9.60263,1.84077,26.0411,-0.588721,-9.12764,3.45161,25.879,-0.319664,5.95981,-1.92456,19.9598,-1.66254,-6.86314,-1.72396,19.0071,-1.64419,9.63256,1.90246,25.9577,-0.532525,0.0459038,-0.619,0.606629,-0.0362194,-0.601495,0.603347,0.0446895,-0.614041,0.617533,-0.0200762,-0.604749,0.602002,-0.182394,-0.539259,1.25824,0.116051,-0.647746,1.09725,-0.127032,-0.656727,1.08941,0.22001,-0.558372,1.25207,-0.458111,-0.535021,-0.509982,-0.384462,-1.03041,-3.69022,-3.72912,-1.5619,
-9.19336,3.4136,25.8933,-0.322992,6.0393,-1.88508,19.7679,-1.64249,-6.86972,-1.73275,18.9294,-1.59532,9.72952,1.8956,25.6669,-0.508833,-9.13549,3.18524,26.0998,-0.289509,6.09838,-1.82621,19.7055,-1.57667,-6.88051,-1.67694,18.8302,-1.65827,9.60392,1.84658,26.0315,-0.583303,0.0459914,-0.619189,0.606767,-0.0363835,-0.601615,0.603571,0.0448469,-0.614288,0.617697,-0.0201136,-0.604904,0.602247,-0.183737,-0.534386,1.2552,0.11444,-0.648455,1.09708,-0.12684,-0.657407,1.09027,0.223058,-0.558038,1.24513,-0.378048,-0.421973,-0.52365,-0.483185,-1.02403,-3.70696,-3.71429,-1.50085,
-9.22665,3.18681,26.1208,-0.295068,6.10227,-1.78451,19.6506,-1.60974,-6.88239,-1.65212,18.8869,-1.69031,9.72981,1.84506,25.9017,-0.524392,-9.1914,3.41608,25.9754,-0.313148,6.04698,-1.88207,19.6892,-1.58287,-6.87959,-1.69565,18.858,-1.59527,9.72694,1.86505,25.7487,-0.558302,0.0460637,-0.619326,0.606844,-0.036556,-0.601746,0.603826,0.0450111,-0.614525,0.617893,-0.0201432,-0.60504,0.602429,-0.184522,-0.539301,1.26092,0.115949,-0.646784,1.09438,-0.126989,-0.6556,1.08936,0.223046,-0.559412,1.25109,-0.468894,-0.42599,-0.413014,-0.468795,-1.05903,-3.64546,-3.79364,-1.51758,
-9.20536,3.26352,26.1627,-0.339038,6.16127,-1.78101,19.6977,-1.56399,-6.89077,-1.72537,18.9179,-1.59911,9.63735,1.90992,26.1607,-0.605259,-9.22407,3.19095,26.2017,-0.294979,6.11066,-1.78006,19.5736,-1.6129,-6.89021,-1.62321,18.88,-1.67262,9.73293,1.81715,25.8972,-0.528262,0.0461095,-0.619436,0.606912,-0.0367596,-0.60183,0.604044,0.0451545,-0.614639,0.618085,-0.0201943,-0.605189,0.602495,-0.183953,-0.538324,1.26207,0.117083,-0.646053,1.09576,-0.127082,-0.657433,1.09194,0.220739,-0.557983,1.25551,-0.395019,-0.532584,-0.560199,-0.373803,-1.0731,-3.66057,-3.75842,-1.58432,
-9.17474,3.25902,26.332,-0.336786,6.04594,-1.70739,19.7777,-1.55623,-6.887,-1.66886,19.0121,-1.59703,9.76012,1.81547,26.154,-0.570934,-9.20587,3.2683,26.1575,-0.297372,6.16553,-1.776,19.6902,-1.61769,-6.89348,-1.72173,18.9708,-1.65046,9.64593,1.91597,26.0642,-0.547861,0.0461326,-0.619535,0.606973,-0.0369854,-0.601966,0.604274,0.0452528,-0.614706,0.618329,-0.0202942,-0.605336,0.602662,-0.183276,-0.537723,1.26431,0.113962,-0.6451,1.09968,-0.126836,-0.656841,1.09462,0.223682,-0.559605,1.25558,-0.404453,-0.538676,-0.568692,-0.400546,-1.07802,-3.65113,-3.76276,-1.54241,
-9.16128,3.33859,26.0006,-0.312768,6.07053,-1.62883,19.9697,-1.56315,-6.99686,-1.68655,18.6919,-1.5619,9.71731,1.9973,26.0082,-0.566918,-9.17649,3.26407,26.3225,-0.292823,6.05401,-1.7015,19.7651,-1.60695,-6.88761,-1.6923,19.0601,-1.64673,9.76342,1.82639,26.1391,-0.527271,0.0461639,-0.619676,0.607196,-0.0372026,-0.602087,0.604489,0.0453383,-0.614822,0.618699,-0.0203981,-0.605565,0.603002,-0.182791,-0.536703,1.2584,0.1145,-0.642523,1.10307,-0.12948,-0.657428,1.08708,0.222439,-0.556233,1.2545,-0.418441,-0.55105,-0.580806,-0.399862,-1.04398,-3.67736,-3.7046,-1.5337,
-9.33781,3.20175,25.6548,-0.268852,6.25037,-1.86242,19.4269,-1.603,-6.91253,-1.79768,18.4375,-1.66407,9.69469,2.00781,25.4785,-0.507025,-9.16028,3.30765,26.0732,-0.309687,6.08218,-1.60124,19.9515,-1.54461,-7.003,-1.68404,18.6804,-1.57176,9.71489,1.96231,26.0843,-0.559084,0.0462241,-0.619776,0.607471,-0.0373898,-0.602131,0.604906,0.0454681,-0.614923,0.619068,-0.0204571,-0.605721,0.603337,-0.187127,-0.540174,1.25005,0.118832,-0.64828,1.09171,-0.12729,-0.659558,1.0794,0.221847,-0.555979,1.24153,-0.49637,-0.475528,-0.452145,-0.502203,-1.03408,-3.68154,-3.78028,-1.51625,
-9.33037,3.20933,26.0245,-0.334575,6.32422,-1.78364,19.5346,-1.52145,-7.0563,-1.78125,18.6097,-1.59449,9.68822,1.82229,26.0294,-0.569044,-9.33933,3.20372,25.6534,-0.283531,6.25755,-1.86749,19.4859,-1.61216,-6.91922,-1.80278,18.44,-1.66959,9.69511,1.9966,25.4848,-0.51,0.0462809,-0.619822,0.607618,-0.0375615,-0.60205,0.605277,0.0456306,-0.614912,0.619228,-0.0204776,-0.605593,0.603386,-0.186993,-0.539226,1.25726,0.120373,-0.646931,1.09463,-0.130636,-0.659715,1.08522,0.221756,-0.559467,1.25303,-0.395632,-0.569095,-0.549902,-0.413162,-1.06478,-3.612,-3.73889,-1.55125,
-9.36944,3.31927,25.7095,-0.302385,6.19949,-1.77788,19.6341,-1.59795,-7.04455,-1.86548,18.5737,-1.64513,9.86019,1.9196,25.6915,-0.48936,-9.33076,3.21091,26.0269,-0.335858,6.33322,-1.78361,19.5316,-1.53487,-7.05951,-1.78073,18.6117,-1.60095,9.69258,1.81711,26.0342,-0.572684,0.0463138,-0.619891,0.607677,-0.0377658,-0.601965,0.605415,0.0457575,-0.614835,0.619141,-0.0205462,-0.605422,0.603333,-0.187865,-0.537343,1.25142,0.117144,-0.646036,1.09549,-0.130336,-0.661124,1.08266,0.225853,-0.557791,1.24664,-0.466073,-0.429914,-0.426738,-0.493163,-1.07084,-3.62582,-3.71699,-1.47188,
-9.37593,3.11394,26.0986,-0.364508,6.3177,-1.75468,19.5642,-1.54047,-7.09551,-1.73756,18.6263,-1.63151,9.79211,1.81678,26.1393,-0.588628,-9.36922,3.31465,25.7208,-0.298964,6.20917,-1.78073,19.6374,-1.60132,-7.04946,-1.86112,18.5826,-1.65926,9.86241,1.91519,25.7031,-0.50119,0.0463178,-0.61985,0.607493,-0.0380052,-0.601943,0.605462,0.0458662,-0.614903,0.619039,-0.0206269,-0.605291,0.603119,-0.188124,-0.541544,1.25879,0.119727,-0.646138,1.09537,-0.131408,-0.658747,1.08535,0.224175,-0.559378,1.2554,-0.401869,-0.53533,-0.507692,-0.384677,-1.13089,-3.61627,-3.77072,-1.56193,
-9.30877,3.11265,26.2247,-0.374682,6.22544,-1.6813,19.7943,-1.54879,-7.13395,-1.8188,18.6701,-1.61837,9.84195,1.82831,26.2053,-0.594092,-9.37964,3.14289,26.0274,-0.326301,6.32302,-1.78522,19.6395,-1.60069,-7.09569,-1.73367,18.6973,-1.67938,9.80035,1.85135,26.1474,-0.541537,0.0463188,-0.619747,0.607204,-0.0382611,-0.601898,0.605343,0.0459725,-0.614985,0.618837,-0.0207225,-0.605222,0.602936,-0.186449,-0.541466,1.2616,0.117161,-0.644295,1.10095,-0.13229,-0.660166,1.08628,0.2253,-0.559062,1.25903,-0.403037,-0.52698,-0.523121,-0.390385,-1.1524,-3.62456,-3.75986,-1.57857,
-9.39271,3.21123,25.9949,-0.305526,6.16657,-1.72147,19.6646,-1.6007,-7.00586,-1.70961,18.796,-1.69506,9.98322,1.93186,25.9302,-0.49242,-9.31327,3.10963,26.234,-0.369842,6.23517,-1.68039,19.7962,-1.54182,-7.13684,-1.78196,18.6714,-1.61772,9.84658,1.82994,26.2051,-0.586321,0.0463248,-0.619678,0.606974,-0.0385112,-0.601886,0.605197,0.0460487,-0.615137,0.618699,-0.0208418,-0.605247,0.602791,-0.188533,-0.539763,1.25775,0.115566,-0.644557,1.09592,-0.129087,-0.65765,1.08778,0.228624,-0.557416,1.24995,-0.48919,-0.428104,-0.413337,-0.49571,-1.10024,-3.6295,-3.80346,-1.48055,
-9.34485,3.23464,26.3045,-0.380657,6.1988,-1.86021,19.8179,-1.57919,-7.12088,-1.7081,18.6815,-1.66005,9.87806,1.84896,26.1863,-0.59074,-9.39712,3.17421,26.0065,-0.307008,6.17582,-1.72369,19.6668,-1.59674,-7.01405,-1.70916,18.7996,-1.68188,9.985,1.93243,25.8478,-0.500818,0.0463376,-0.619595,0.606674,-0.0387533,-0.601882,0.605165,0.0461504,-0.615267,0.618667,-0.0209246,-0.605264,0.602727,-0.187321,-0.539079,1.26308,0.116011,-0.648724,1.10141,-0.131831,-0.658336,1.08644,0.226026,-0.558627,1.25626,-0.412271,-0.548132,-0.551544,-0.393468,-1.17359,-3.7065,-3.87164,-1.57495,
-9.36188,3.2034,26.1699,-0.279416,6.22823,-1.75301,19.527,-1.53963,-7.04194,-1.77896,18.7905,-1.66641,9.96911,1.92623,25.8528,-0.487921,-9.34855,3.22692,26.2234,-0.366457,6.20913,-1.85982,19.8828,-1.6326,-7.12737,-1.71595,18.7478,-1.64197,9.88562,1.88309,26.1883,-0.584301,0.0463434,-0.619431,0.606473,-0.039002,-0.601836,0.605179,0.0462614,-0.615172,0.618598,-0.0210118,-0.605263,0.602692,-0.187754,-0.538823,1.2596,0.11661,-0.645282,1.09427,-0.129767,-0.65919,1.08913,0.228197,-0.556653,1.25006,-0.51738,-0.557045,-0.476661,-0.495264,-1.07621,-3.63631,-3.80948,-1.47111,
-9.38912,3.25855,26.0872,-0.325313,6.26863,-1.79764,19.6024,-1.59598,-7.07415,-1.80601,18.8719,-1.66163,9.98178,1.96872,25.8425,-0.500504,-9.36145,3.19896,26.1754,-0.285577,6.24338,-1.7233,19.5254,-1.54147,-7.05012,-1.75674,18.7916,-1.61011,9.97152,1.92682,25.9437,-0.537655,0.0463373,-0.619292,0.606388,-0.0392626,-0.601827,0.605228,0.0463733,-0.614997,0.61853,-0.0210932,-0.605268,0.602622,-0.18835,-0.538161,1.25951,0.117356,-0.646387,1.09449,-0.130442,-0.6597,1.0895,0.228373,-0.556481,1.24968,-0.431446,-0.441728,-0.47794,-0.480319,-1.08207,-3.63369,-3.8012,-1.48133,
-9.33286,3.06649,26.3382,-0.334614,6.4539,-1.66473,19.5632,-1.52136,-7.16988,-1.77313,18.7044,-1.58384,9.80956,1.94165,26.2665,-0.582361,-9.38738,3.25499,26.0948,-0.290416,6.27999,-1.79742,19.602,-1.60015,-7.07935,-1.80891,18.8729,-1.66447,9.98114,1.9692,25.8485,-0.503186,0.0463094,-0.619169,0.606175,-0.0395373,-0.601834,0.6053,0.0465038,-0.614893,0.61853,-0.0211558,-0.605259,0.602458,-0.187085,-0.542042,1.26348,0.121575,-0.643824,1.09523,-0.132625,-0.659525,1.08693,0.224014,-0.556296,1.25798,-0.427763,-0.545265,-0.583605,-0.389873,-1.09699,-3.58798,-3.75129,-1.5546,
-9.3401,3.04909,26.3197,-0.344674,6.50671,-1.61103,19.6165,-1.51852,-7.16399,-1.76845,18.6558,-1.58112,9.75004,1.95294,26.3461,-0.577762,-9.33685,3.10284,26.2583,-0.306,6.45895,-1.66164,19.6306,-1.5791,-7.17154,-1.79877,18.768,-1.64768,9.80947,1.97669,26.181,-0.527425,0.0462872,-0.619152,0.606008,-0.0398118,-0.601859,0.605318,0.0466307,-0.614883,0.618532,-0.0212263,-0.605261,0.602361,-0.187266,-0.542546,1.26287,0.122649,-0.641814,1.09658,-0.132361,-0.659482,1.08574,0.222438,-0.555996,1.25992,-0.408598,-0.540454,-0.565708,-0.412243,-1.09794,-3.5775,-3.72795,-1.56777,
-9.3731,3.0273,26.2706,-0.323211,6.50604,-1.55333,19.5101,-1.56212,-7.09591,-1.85877,18.6387,-1.64967,9.85774,2.01666,25.8992,-0.498222,-9.34317,3.05678,26.3224,-0.352311,6.51304,-1.60734,19.6136,-1.51459,-7.1694,-1.76044,18.6531,-1.59047,9.75213,1.98741,26.3426,-0.565723,0.0463247,-0.619291,0.605944,-0.0400177,-0.601958,0.605332,0.046758,-0.615,0.618553,-0.021288,-0.60524,0.602427,-0.18791,-0.544132,1.26371,0.122585,-0.641214,1.09229,-0.130591,-0.661236,1.08377,0.225167,-0.554365,1.25103,-0.469286,-0.438402,-0.437015,-0.525019,-1.11571,-3.56264,-3.73636,-1.52146,
-9.48262,3.24326,26.1188,-0.350524,6.36164,-1.55847,19.6424,-1.50392,-7.13687,-1.71266,18.7626,-1.60156,10.01,2.00682,26.0811,-0.497519,-9.37718,3.03852,26.2711,-0.330579,6.51175,-1.55219,19.5066,-1.55981,-7.10203,-1.84963,18.6401,-1.66186,9.86257,2.00921,25.9024,-0.495954,0.0464132,-0.619511,0.605853,-0.0401808,-0.60201,0.605442,0.0469106,-0.615233,0.618609,-0.0213321,-0.60515,0.602407,-0.190644,-0.538174,1.25776,0.118718,-0.640632,1.09737,-0.131385,-0.658526,1.08844,0.228933,-0.555295,1.25335,-0.376705,-0.551654,-0.522361,-0.445098,-1.07775,-3.55949,-3.72548,-1.44014,
-9.55545,3.32574,26.0544,-0.330188,6.35954,-1.53282,19.6447,-1.53757,-7.14904,-1.71768,18.9618,-1.71521,10.1081,1.82387,26.1244,-0.463756,-9.48437,3.24855,26.1193,-0.345589,6.36709,-1.56013,19.6396,-1.50029,-7.14164,-1.70752,18.7649,-1.60194,10.0108,2.00177,25.9994,-0.506674,0.0464728,-0.619696,0.605871,-0.0403003,-0.602027,0.605467,0.0470249,-0.615367,0.618534,-0.0213605,-0.604992,0.602335,-0.192326,-0.537071,1.25824,0.118643,-0.640696,1.09579,-0.13164,-0.658068,1.09174,0.231287,-0.558858,1.25431,-0.460666,-0.449689,-0.411059,-0.51031,-1.12104,-3.52483,-3.84148,-1.43782,
-9.51527,3.13529,26.3341,-0.382821,6.52436,-1.57317,19.5991,-1.49651,-7.22881,-1.75341,18.7108,-1.64388,9.92174,1.94377,26.4079,-0.581046,-9.55731,3.32665,26.0596,-0.31613,6.36694,-1.56319,19.6454,-1.54039,-7.15576,-1.71468,18.9601,-1.69508,10.1087,1.86529,26.0414,-0.48248,0.0465303,-0.61979,0.605747,-0.0404809,-0.602003,0.605532,0.0471929,-0.615514,0.618548,-0.0213808,-0.604969,0.602217,-0.191365,-0.541029,1.26299,0.122457,-0.641691,1.09634,-0.133386,-0.659761,1.08715,0.226692,-0.55602,1.2613,-0.415374,-0.55244,-0.565003,-0.38621,-1.18102,-3.54546,-3.85277,-1.5483,
-9.54681,3.21939,26.0717,-0.319276,6.445,-1.60227,19.7323,-1.5812,-7.20081,-1.82717,18.7096,-1.69263,10.0286,2.02481,26.0809,-0.563816,-9.51648,3.13507,26.3369,-0.374751,6.53237,-1.57063,19.5994,-1.49802,-7.23274,-1.75087,18.7042,-1.63334,9.92483,1.94845,26.406,-0.524276,0.0465756,-0.619828,0.605697,-0.0406752,-0.602012,0.605486,0.0473301,-0.615581,0.618621,-0.0214322,-0.605119,0.602244,-0.192027,-0.539761,1.2585,0.12038,-0.64174,1.09795,-0.132657,-0.660957,1.08567,0.229197,-0.555014,1.25538,-0.508858,-0.440014,-0.474816,-0.411707,-1.14741,-3.60241,-3.86008,-1.53934,
-9.54685,3.14246,26.3801,-0.34932,6.55626,-1.48396,19.6282,-1.46744,-7.2271,-1.72609,18.6678,-1.6044,9.96138,1.94923,26.4131,-0.479378,-9.54809,3.21766,26.0751,-0.31699,6.45285,-1.6037,19.7309,-1.57326,-7.20683,-1.79731,18.7032,-1.68937,10.0263,2.02285,26.0802,-0.553374,0.0466072,-0.619799,0.605589,-0.0408823,-0.602045,0.605535,0.0474618,-0.61564,0.618819,-0.0214835,-0.605148,0.602246,-0.192087,-0.540811,1.26401,0.122844,-0.639496,1.0971,-0.133088,-0.658465,1.0864,0.227494,-0.555967,1.26153,-0.43876,-0.566843,-0.593024,-0.519291,-1.1374,-3.50172,-3.80183,-1.47805,
-9.5922,3.26559,26.1301,-0.296328,6.46935,-1.49242,19.6114,-1.48458,-7.1955,-1.7792,18.7595,-1.66386,10.0848,2.0399,26.1015,-0.458144,-9.55014,3.14227,26.3801,-0.350143,6.55758,-1.51247,19.6924,-1.52465,-7.23331,-1.69804,18.6612,-1.60298,9.96255,1.95067,26.4099,-0.526163,0.0466695,-0.619797,0.605596,-0.0410615,-0.602044,0.6056,0.047617,-0.615654,0.618951,-0.0215097,-0.605169,0.602351,-0.19304,-0.538568,1.2599,0.120523,-0.63974,1.09678,-0.132208,-0.659785,1.08725,0.230637,-0.554636,1.25602,-0.513231,-0.560127,-0.486032,-0.512487,-1.10589,-3.52928,-3.81376,-1.42878,
-9.66113,2.9832,26.1121,-0.32322,6.61836,-1.52126,19.4102,-1.5502,-7.21831,-1.94871,18.3056,-1.69748,10.0402,2.06234,25.9474,-0.508198,-9.59106,3.23136,26.1306,-0.333885,6.47588,-1.49297,19.6745,-1.48251,-7.20588,-1.75188,18.7538,-1.60967,10.0845,2.006,26.1885,-0.508486,0.0467435,-0.619787,0.605559,-0.0412193,-0.602043,0.605711,0.0477933,-0.61564,0.619151,-0.0215191,-0.605213,0.602406,-0.194698,-0.5456,1.25732,0.124196,-0.639703,1.09187,-0.132586,-0.663992,1.07767,0.229452,-0.55411,1.25216,-0.512084,-0.456103,-0.483821,-0.495984,-1.15852,-3.5565,-3.87878,-1.51238,
-9.61427,3.04994,26.5639,-0.380771,6.50462,-1.72846,19.7207,-1.56937,-7.30588,-1.8348,18.6659,-1.71331,10.1401,1.81875,26.1557,-0.568544,-9.66278,2.95422,26.0322,-0.376037,6.62565,-1.49746,19.4107,-1.49325,-7.22889,-1.94948,18.3071,-1.64896,10.0364,2.0197,26.041,-0.50161,0.0467993,-0.619828,0.605503,-0.0413919,-0.601968,0.60574,0.047989,-0.615628,0.619186,-0.0215063,-0.605147,0.60233,-0.193575,-0.544043,1.26849,0.121057,-0.644739,1.09794,-0.134573,-0.661823,1.08506,0.231965,-0.560004,1.25718,-0.482477,-0.462656,-0.469525,-0.424447,-1.24402,-3.60139,-3.89615,-1.56153,
-9.56224,3.0684,26.4228,-0.39698,6.61291,-1.47571,19.5362,-1.47553,-7.32977,-1.78102,18.5276,-1.60858,9.98751,1.95104,26.5423,-0.555283,-9.61671,3.05468,26.4744,-0.369185,6.51133,-1.72795,19.7167,-1.57424,-7.30914,-1.86369,18.6606,-1.70601,10.1439,1.81765,26.1578,-0.528348,0.0468078,-0.619912,0.605482,-0.0416302,-0.60192,0.605835,0.0481326,-0.615603,0.619282,-0.0215446,-0.605018,0.602162,-0.192313,-0.542848,1.26504,0.123474,-0.639188,1.09515,-0.13502,-0.660468,1.08335,0.228132,-0.555776,1.2646,-0.425754,-0.563877,-0.596713,-0.415956,-1.21971,-3.51493,-3.81388,-1.52652,
-9.66173,3.2234,26.0709,-0.31319,6.52258,-1.47427,19.6447,-1.52802,-7.24662,-1.83072,18.6431,-1.66722,10.143,2.04926,26.2238,-0.451679,-9.563,3.07104,26.4161,-0.389193,6.62082,-1.47317,19.531,-1.47677,-7.33258,-1.77897,18.5194,-1.61169,9.99167,1.9512,26.5398,-0.548315,0.0468017,-0.620014,0.605646,-0.0418664,-0.601945,0.605932,0.0482146,-0.615606,0.619428,-0.0216452,-0.605016,0.602202,-0.194683,-0.539885,1.25857,0.121123,-0.63848,1.09631,-0.132935,-0.661061,1.08485,0.231824,-0.554229,1.25892,-0.520074,-0.45408,-0.480644,-0.518752,-1.14645,-3.51012,-3.81508,-1.42211,
-9.66867,3.07465,26.2933,-0.367164,6.68941,-1.46695,19.6224,-1.46036,-7.32893,-1.80965,18.4943,-1.61706,9.98481,2.00886,26.5506,-0.534367,-9.66452,3.22339,26.0696,-0.313619,6.52834,-1.47353,19.6396,-1.52516,-7.25381,-1.82679,18.6361,-1.67108,10.1424,2.05146,26.2228,-0.459371,0.0468423,-0.620038,0.605711,-0.042052,-0.602006,0.606105,0.0483438,-0.615698,0.619659,-0.0216931,-0.60503,0.602213,-0.194875,-0.542776,1.26205,0.125034,-0.639056,1.09758,-0.134739,-0.661344,1.08291,0.227965,-0.55441,1.26494,-0.444657,-0.567176,-0.583142,-0.418215,-1.17899,-3.48789,-3.81726,-1.48695,
-9.7594,3.2152,26.0339,-0.299203,6.70615,-1.52858,19.4713,-1.49936,-7.22369,-1.85066,18.5783,-1.6864,10.0326,1.99715,26.1439,-0.443976,-9.676,3.0768,26.2904,-0.369221,6.6945,-1.4634,19.6164,-1.46299,-7.33515,-1.80351,18.486,-1.61957,9.98543,2.01174,26.5457,-0.529309,0.0469273,-0.62009,0.605824,-0.0421928,-0.602043,0.606212,0.0485127,-0.615808,0.619824,-0.0217049,-0.605118,0.602345,-0.197049,-0.540155,1.25777,0.12543,-0.639947,1.09226,-0.132013,-0.661823,1.08363,0.229055,-0.555679,1.25711,-0.517297,-0.454603,-0.467896,-0.516077,-1.1157,-3.45332,-3.84069,-1.40403,
-9.73274,3.09109,26.3175,-0.372223,6.75275,-1.58045,19.6715,-1.47921,-7.36418,-1.82183,18.4321,-1.62925,9.97465,2.02919,26.4856,-0.54918,-9.76623,3.21738,26.0376,-0.30486,6.71182,-1.49225,19.4716,-1.51108,-7.23045,-1.84298,18.5703,-1.68624,10.0329,2.00745,26.1411,-0.458522,0.0470137,-0.620136,0.605795,-0.0423374,-0.602174,0.606324,0.0486861,-0.616003,0.620077,-0.0217178,-0.605271,0.602421,-0.196296,-0.54249,1.26266,0.126345,-0.641426,1.09893,-0.135284,-0.662006,1.08178,0.227681,-0.554259,1.26355,-0.431782,-0.536585,-0.578949,-0.401782,-1.17623,-3.49501,-3.83744,-1.50014,
-9.77206,3.21043,26.0916,-0.3261,6.63804,-1.41154,19.7012,-1.54757,-7.3304,-1.83398,18.543,-1.69616,10.1923,2.06003,26.1426,-0.465942,-9.73494,3.09346,26.3169,-0.371247,6.75956,-1.54125,19.6684,-1.4816,-7.36791,-1.81623,18.4252,-1.62977,9.97782,2.03399,26.4815,-0.539212,0.0470877,-0.620215,0.605812,-0.042492,-0.602379,0.606312,0.0488173,-0.616155,0.620234,-0.0217665,-0.605485,0.602566,-0.197132,-0.540406,1.25916,0.123411,-0.637443,1.09804,-0.134408,-0.661751,1.08314,0.232958,-0.554509,1.25728,-0.510745,-0.422916,-0.467707,-0.509614,-1.16294,-3.51807,-3.86003,-1.4415,
-9.77384,3.03329,26.323,-0.389282,6.76835,-1.38775,19.6273,-1.46747,-7.41435,-1.83307,18.3855,-1.63729,10.0743,2.01172,26.5335,-0.550603,-9.77429,3.20878,26.0917,-0.322714,6.64442,-1.41048,19.6965,-1.53379,-7.33659,-1.83449,18.5402,-1.69287,10.1927,2.05983,26.1442,-0.46976,0.0471454,-0.620218,0.605788,-0.0426595,-0.602533,0.606432,0.0489499,-0.616245,0.620401,-0.0218073,-0.605542,0.602576,-0.197207,-0.543963,1.26283,0.126396,-0.637615,1.09801,-0.136282,-0.662418,1.08087,0.230075,-0.554827,1.26484,-0.442558,-0.558691,-0.585181,-0.416965,-1.22112,-3.49364,-3.85977,-1.51817,
-9.8178,3.00292,26.0095,-0.371979,6.73783,-1.18256,19.7689,-1.4539,-7.51377,-1.83834,18.2463,-1.60938,10.1384,2.11917,26.6831,-0.538349,-9.77927,3.06523,26.2351,-0.348806,6.77546,-1.41789,19.6888,-1.51553,-7.41624,-1.86272,18.4461,-1.69151,10.0772,2.00774,26.4449,-0.497556,0.0472019,-0.620185,0.605825,-0.0428345,-0.602544,0.606564,0.0490883,-0.616224,0.620478,-0.0218568,-0.605524,0.602579,-0.198258,-0.54468,1.25505,0.125555,-0.632469,1.10171,-0.138656,-0.662507,1.07746,0.231525,-0.55294,1.26859,-0.445608,-0.569634,-0.587134,-0.435592,-1.18956,-3.47743,-3.8059,-1.51229,
-9.8244,3.45554,26.1504,0.0301085,6.61456,-0.849484,19.4189,-1.05475,-7.40925,-1.5266,18.8163,-1.31339,10.4265,2.22812,26.8257,-0.0772183,-9.82,3.00338,25.9257,-0.379353,6.74825,-1.22091,19.8287,-1.43673,-7.51911,-1.86508,18.309,-1.61857,10.1398,2.07379,26.5921,-0.481327,0.0472521,-0.620185,0.60585,-0.0430009,-0.602439,0.606743,0.0492111,-0.616219,0.620527,-0.0219059,-0.605374,0.602618,-0.198281,-0.5342,1.25857,0.122316,-0.623915,1.09316,-0.135962,-0.654737,1.09171,0.238777,-0.549979,1.2722,-0.506413,-0.499409,-0.459624,-0.462516,-0.446196,-2.6089,-3.08641,-0.616953,
-9.78097,3.53423,26.3849,-0.0449344,6.75246,-0.531977,19.541,-1.04857,-7.49299,-1.36491,19.1189,-1.33625,10.2672,2.53003,27.3692,-0.152343,-9.83053,3.48696,26.0803,-0.0888625,6.61681,-0.849229,19.4894,-1.14248,-7.41999,-1.48825,18.8228,-1.39599,10.4226,2.26772,26.7427,-0.188605,0.0473552,-0.620543,0.60568,-0.0431123,-0.602667,0.606794,0.0494198,-0.616676,0.620423,-0.0218744,-0.605703,0.602581,-0.197119,-0.532245,1.26409,0.125607,-0.616701,1.09607,-0.137715,-0.650992,1.09751,0.234817,-0.542574,1.28565,-0.327355,-0.407029,-0.389695,-0.308852,-0.417224,-2.50417,-3.06219,-0.613538,
-9.77568,3.65217,26.3716,-0.181853,6.83335,-0.503079,19.5702,-1.25305,-7.38772,-1.3441,19.2418,-1.5473,10.1374,2.65569,27.0485,-0.360621,-9.78669,3.58687,26.4002,-0.128773,6.75165,-0.481962,19.5488,-1.10695,-7.50244,-1.28479,19.0665,-1.38608,10.2627,2.58967,27.3812,-0.204685,0.04751,-0.621619,0.60536,-0.043186,-0.603633,0.606619,0.0496785,-0.617793,0.620187,-0.0218162,-0.606974,0.602421,-0.196757,-0.531458,1.26547,0.127553,-0.616576,1.09498,-0.134906,-0.651808,1.10027,0.231597,-0.541867,1.27959,-0.222578,-0.201779,-0.187184,-0.124355,-0.586285,-2.70787,-3.28178,-0.845597,
-9.77668,3.8513,26.3048,-0.291885,6.88134,-0.414497,19.6799,-1.29514,-7.44162,-1.33003,19.1939,-1.58902,10.0094,2.71058,27.4537,-0.479252,-9.77698,3.69854,26.3799,-0.185905,6.83681,-0.462894,19.5763,-1.25781,-7.39262,-1.30616,19.2579,-1.54843,10.1404,2.69645,27.0676,-0.321099,0.0475975,-0.622815,0.60503,-0.0433149,-0.604749,0.606487,0.0498636,-0.618935,0.619884,-0.0218322,-0.608191,0.602019,-0.196834,-0.52685,1.26147,0.12857,-0.616078,1.09918,-0.136058,-0.653139,1.1003,0.2284,-0.540636,1.28698,-0.145343,-0.282688,-0.291555,-0.122345,-0.729114,-2.87297,-3.46959,-1.08085,
-9.81925,3.91293,26.2688,-0.286341,6.89764,-0.320373,19.5199,-1.32426,-7.39079,-1.36007,19.2787,-1.60925,10.106,2.69998,27.2111,-0.461839,-9.78133,3.90928,26.2264,-0.225718,6.88817,-0.419083,19.7472,-1.26829,-7.44354,-1.31199,19.2772,-1.61776,10.0168,2.76091,27.4724,-0.394807,0.0476354,-0.623762,0.604838,-0.0434881,-0.605588,0.606376,0.0499936,-0.619664,0.619461,-0.0219181,-0.608937,0.601604,-0.19786,-0.525963,1.26044,0.128894,-0.61432,1.09513,-0.134666,-0.653627,1.10197,0.230724,-0.541242,1.28272,-0.210229,-0.243595,-0.345217,-0.206742,-0.782912,-2.89211,-3.56372,-1.13042,
-9.89608,4.28966,26.0556,-0.189808,6.78084,-0.24966,19.6791,-1.28016,-7.42168,-1.29824,19.7376,-1.62377,10.2995,2.81267,27.4571,-0.351225,-9.82188,3.91793,26.2758,-0.256203,6.9068,-0.31513,19.5242,-1.25383,-7.39723,-1.33158,19.2962,-1.58089,10.108,2.69366,27.322,-0.430703,0.0476909,-0.624201,0.604715,-0.0436452,-0.60597,0.606265,0.0501364,-0.619935,0.618985,-0.0219885,-0.609097,0.601116,-0.199634,-0.517471,1.25701,0.125831,-0.611996,1.09739,-0.135345,-0.652064,1.11134,0.235421,-0.53917,1.28835,-0.340033,-0.293366,-0.291421,-0.35541,-0.719648,-2.85368,-3.53897,-1.05786,
