FengTian-Bit/rl_sar_bitter/src/rl_sar/models/w1/csv_data/csv_rl.csv
joint_tau_cal_0,joint_tau_cal_1,joint_tau_cal_2,joint_tau_cal_3,joint_tau_cal_4,joint_tau_cal_5,joint_tau_cal_6,joint_tau_cal_7,joint_tau_cal_8,joint_tau_cal_9,joint_tau_cal_10,joint_tau_cal_11,joint_tau_cal_12,joint_tau_cal_13,joint_tau_cal_14,joint_tau_cal_15,joint_tau_est_0,joint_tau_est_1,joint_tau_est_2,joint_tau_est_3,joint_tau_est_4,joint_tau_est_5,joint_tau_est_6,joint_tau_est_7,joint_tau_est_8,joint_tau_est_9,joint_tau_est_10,joint_tau_est_11,joint_tau_est_12,joint_tau_est_13,joint_tau_est_14,joint_tau_est_15,joint_pos_0,joint_pos_1,joint_pos_2,joint_pos_4,joint_pos_5,joint_pos_6,joint_pos_8,joint_pos_9,joint_pos_10,joint_pos_12,joint_pos_13,joint_pos_14,joint_pos_target_0,joint_pos_target_1,joint_pos_target_2,joint_pos_target_4,joint_pos_target_5,joint_pos_target_6,joint_pos_target_8,joint_pos_target_9,joint_pos_target_10,joint_pos_target_12,joint_pos_target_13,joint_pos_target_14,joint_vel_3,joint_vel_7,joint_vel_11,joint_vel_15,joint_vel_target_3,joint_vel_target_7,joint_vel_target_11,joint_vel_target_15,
-13.472,6.82354,27.7561,0.152926,10.467,4.33774,23.6481,0.0345104,-17.7476,2.65104,31.5042,-1.5742,19.5893,4.72804,35.1205,-0.422727,-45.8221,1.03725,21.4452,0.00819739,45.9914,1.34891,21.6139,0.00509587,-45.4636,1.2766,22.7644,0.0119104,45.3869,1.54724,23.1382,0.00318723,0.076375,-0.601615,0.564267,-0.0766571,-0.602132,0.563987,0.0757743,-0.602065,0.562147,-0.07564,-0.602515,0.561525,-0.260425,-0.431196,1.25814,0.185019,-0.493863,1.15516,-0.367911,-0.535869,1.34959,0.414097,-0.484396,1.43937,-0.00183778,0.000408501,-0.00269727,-0.00076369,0.304014,0.0694293,-3.1511,-0.846218,
-13.7359,3.27588,31.6245,-0.327653,11.3327,5.23061,23.6449,-0.44931,-14.3043,-1.60322,29.6711,-2.25877,18.9965,5.65438,38.9539,-1.17475,-13.4925,6.81884,27.7522,0.184339,10.4487,4.34878,23.6342,0.0351765,-17.7701,2.64258,31.4877,-1.51195,19.5684,4.73205,35.0971,-0.380646,0.0765577,-0.601645,0.564265,-0.0765049,-0.602251,0.564072,0.0759495,-0.60204,0.562142,-0.075465,-0.602561,0.561577,-0.266548,-0.519768,1.35498,0.207089,-0.471845,1.15544,-0.281302,-0.642002,1.30427,0.399776,-0.461355,1.53587,-0.0737078,-0.00105162,-0.148607,-0.0959485,-0.729015,-0.899672,-4.66615,-2.44544,
-13.8902,2.78387,32.3447,-0.0995576,11.0543,5.89605,23.2536,-0.257779,-12.4486,-1.64038,25.8538,-1.84059,17.2196,6.16175,39.0804,-0.450699,-13.7758,3.34566,31.561,-0.294273,11.2861,5.26693,23.5602,-0.302842,-14.3485,-1.51954,29.4417,-2.04628,18.933,5.65688,38.7206,-0.773369,0.0771252,-0.602347,0.564987,-0.0758743,-0.6029,0.56509,0.0765996,-0.602735,0.564725,-0.0746309,-0.602698,0.564246,-0.26936,-0.533898,1.37464,0.201352,-0.456155,1.14787,-0.233748,-0.645135,1.21483,0.357018,-0.448741,1.54513,-0.141791,-0.30345,-0.583427,-0.923968,-0.340906,-0.819008,-4.26461,-1.82537,
-14.4335,3.18321,32.7982,0.0796489,10.8279,6.01387,22.1361,0.164818,-11.4379,-1.08285,23.2943,-1.46569,16.2568,6.24389,36.3394,0.659768,-14.0065,2.98339,32.1624,-0.161497,10.9217,5.94608,23.0108,-0.0493782,-12.5703,-1.42685,25.37,-1.7392,17.0618,6.16062,38.5639,-0.0724524,0.0792384,-0.60574,0.568084,-0.0734782,-0.604085,0.569291,0.0788374,-0.60657,0.573936,-0.0717043,-0.602748,0.573953,-0.279956,-0.529057,1.39068,0.1991,-0.454494,1.1262,-0.205354,-0.636693,1.16329,0.337005,-0.446661,1.48989,-0.0156579,-0.727403,-0.79165,-1.69614,0.14364,-0.397766,-3.72303,-0.376605,
-14.7875,3.85053,31.7994,0.166212,10.6269,5.62133,21.0169,0.365359,-11.0038,-0.927582,21.6033,-1.30017,15.7502,5.75058,33.288,1.25986,-14.5237,3.44401,32.4699,0.0717481,10.7098,6.06632,21.7733,0.259408,-11.5405,-0.847357,22.7131,-1.44491,16.1086,6.2557,35.7472,0.704508,0.0818035,-0.611489,0.574366,-0.0703319,-0.605383,0.576781,0.0816917,-0.612178,0.58721,-0.0677703,-0.60293,0.587792,-0.286508,-0.519067,1.37417,0.197089,-0.465652,1.10754,-0.19189,-0.638841,1.13593,0.328123,-0.459292,1.42879,1.92114e-05,-0.918937,-0.835182,-1.78738,0.332444,-0.188218,-3.43552,0.732345,
-14.9301,4.44186,29.535,0.161179,10.6683,4.81336,20.1742,0.338915,-11.0727,-1.21582,19.8786,-1.27259,15.5208,4.86132,30.9111,1.30545,-14.8071,4.1366,31.3402,0.166206,10.5757,5.67578,20.5772,0.363534,-11.0375,-0.715015,20.9938,-1.32569,15.6767,5.78676,32.7262,1.08097,0.0833093,-0.618371,0.584186,-0.0681638,-0.606768,0.586842,0.0834909,-0.617874,0.602274,-0.0649594,-0.603522,0.602441,-0.289594,-0.511614,1.32935,0.199417,-0.487241,1.09775,-0.192771,-0.651475,1.10842,0.324248,-0.482443,1.38374,1.06355e-05,-0.915727,-0.78441,-1.42196,0.322368,-0.237897,-3.32959,1.18894,
-15.1679,4.83041,26.8791,0.0789345,10.9968,3.89418,19.4328,0.195822,-11.6286,-1.70963,17.9499,-1.34838,15.59,3.90994,29.2685,0.987596,-14.8953,4.7212,28.9968,0.16121,10.6658,4.8714,19.7058,0.276312,-11.0572,-1.02886,19.29,-1.33839,15.498,4.93273,30.4072,1.03281,0.0831843,-0.625578,0.596899,-0.0673628,-0.60822,0.598338,0.0837803,-0.623078,0.617572,-0.0636275,-0.604829,0.616288,-0.29644,-0.509048,1.27675,0.207682,-0.511702,1.09122,-0.207074,-0.668589,1.07527,0.326551,-0.508054,1.35555,-0.000222094,-0.788904,-0.650511,-0.865863,0.157647,-0.397261,-3.34727,1.10933,
-15.7103,4.68411,24.8054,-0.0821696,11.3885,3.11012,18.5338,0.0404127,-12.4993,-2.35572,15.8228,-1.51685,16.095,3.0124,28.1241,0.56063,-15.1221,5.07365,26.3679,0.0850696,11.0063,3.95505,18.9721,0.0978418,-11.604,-1.54084,17.3785,-1.41446,15.5783,4.01561,28.8488,0.738597,0.0822164,-0.63239,0.610103,-0.0673951,-0.609734,0.610348,0.0833464,-0.627458,0.632283,-0.0631251,-0.607023,0.628071,-0.311156,-0.518907,1.23799,0.217218,-0.532855,1.08054,-0.229383,-0.688447,1.03527,0.339484,-0.533186,1.33765,-0.0132554,-0.589448,-0.421815,-0.358257,-0.177595,-0.508622,-3.45551,0.763003,
-16.5238,3.87251,23.6369,-0.329351,11.5787,2.87922,17.5188,-0.0447761,-13.5607,-2.9405,13.3525,-1.60741,17.2038,2.41277,27.5578,0.186956,-15.6735,4.84955,24.3716,-0.0617393,11.3946,3.17032,18.1525,-0.0775828,-12.4782,-2.19141,15.3221,-1.61975,16.0813,3.1407,27.7658,0.381692,0.0812154,-0.63763,0.622262,-0.0675663,-0.611262,0.621057,0.0828679,-0.631316,0.644918,-0.0627604,-0.609983,0.638292,-0.332417,-0.543403,1.21986,0.221805,-0.540161,1.06491,-0.256324,-0.706731,0.985069,0.367569,-0.551446,1.33265,-0.0550711,-0.349212,-0.303005,-0.000209341,-0.713773,-0.438764,-3.51782,0.373703,
-17.5681,2.47163,23.3995,-0.706531,11.4012,3.29812,16.3565,-0.0353207,-14.4806,-3.31865,10.6456,-1.79508,19.0454,1.92309,27.7233,0.0621485,-16.4835,3.956,23.3107,-0.310359,11.5972,2.92573,17.2422,-0.164042,-13.5297,-2.7874,12.9528,-1.75855,17.2014,2.47836,27.2796,0.186973,0.0802331,-0.640959,0.632284,-0.0678844,-0.612628,0.629645,0.0823291,-0.634896,0.655392,-0.0625428,-0.612372,0.646479,-0.359538,-0.580529,1.22223,0.216911,-0.530866,1.04291,-0.27993,-0.719629,0.926588,0.413658,-0.565366,1.3439,-0.094083,-0.106347,-0.0850414,-5.51897e-05,-1.50715,-0.176989,-3.67521,0.124242,
-18.6029,0.48763,23.75,-1.10689,10.9721,3.93779,15.3633,0.0858482,-15.1169,-3.84036,7.83978,-1.78587,21.0741,1.58638,28.3114,0.043009,-17.5252,2.46362,23.2184,-0.68793,11.432,3.29598,16.1987,-0.0887591,-14.4464,-3.24158,10.3594,-1.83736,19.0573,1.94004,27.5321,0.0621194,0.079179,-0.642088,0.638815,-0.0684704,-0.613298,0.635492,0.0815719,-0.637414,0.663356,-0.0626327,-0.61352,0.652574,-0.386525,-0.629887,1.23559,0.205417,-0.514789,1.02208,-0.296954,-0.734263,0.86293,0.464081,-0.574185,1.36347,-0.131861,0.0003321,-0.0813838,-0.000288324,-2.34564,0.172028,-3.65312,0.0857297,
-19.4889,-1.65135,24.3153,-1.51878,10.4702,4.55019,14.5976,0.31852,-15.7227,-4.30251,5.23984,-1.75503,23.198,1.57902,29.2722,0.131071,-18.5622,0.441245,23.6588,-1.09274,11.0116,3.88034,15.3291,0.0861845,-15.0786,-3.82595,7.71542,-1.79109,21.1001,1.56094,28.2233,0.0428979,0.0782228,-0.64142,0.641716,-0.0692462,-0.612649,0.637723,0.08079,-0.638227,0.667729,-0.0630444,-0.613509,0.655927,-0.409846,-0.681359,1.25003,0.191855,-0.497975,1.00381,-0.312822,-0.745933,0.801797,0.51652,-0.573736,1.38975,-0.0503066,-0.000481544,-0.000851805,-0.000358077,-3.08787,0.636559,-3.51092,0.261784,
-20.1616,-3.77671,25.3669,-1.88927,10.0314,4.95174,14.1023,0.538162,-16.1912,-4.64167,3.38668,-1.62474,25.0375,1.65782,30.4804,0.284625,-19.4375,-1.80677,24.3631,-1.47932,10.525,4.36733,14.6798,0.318361,-15.6611,-4.39342,5.21332,-1.72548,23.2321,1.4724,29.2505,0.131166,0.0767254,-0.638281,0.642027,-0.0706607,-0.609272,0.637756,0.0794128,-0.637294,0.670783,-0.0639081,-0.611793,0.658223,-0.427819,-0.731185,1.2767,0.179501,-0.483257,0.989266,-0.325774,-0.752357,0.755627,0.561637,-0.568995,1.4205,0.050957,-0.000350073,-0.00110134,-0.000297967,-3.72759,1.07597,-3.25058,0.568953,
-20.6206,-5.89893,26.4929,-2.06493,9.66345,5.26607,13.845,0.743511,-16.4882,-5.05468,2.01335,-1.42602,26.2594,1.85666,31.7289,0.491471,-20.1425,-4.01897,25.683,-1.80152,10.0626,4.74927,14.2702,0.538434,-16.1684,-4.78414,3.49117,-1.64694,25.0547,1.50829,30.556,0.284506,0.0760021,-0.63336,0.638592,-0.0715985,-0.604905,0.634797,0.0786011,-0.63461,0.669858,-0.0644664,-0.608767,0.657543,-0.439872,-0.776893,1.29923,0.169504,-0.470191,0.978483,-0.334138,-0.758789,0.719004,0.591743,-0.56022,1.44973,0.0177765,-0.00111838,-0.00561231,-0.000430247,-4.11209,1.4859,-2.85765,0.982512,
-20.7274,-7.29395,28.1638,-1.98998,9.30502,5.59138,13.8784,0.962072,-16.7112,-5.11037,1.59632,-1.22338,27.1186,2.10489,33.1513,0.802391,-20.6131,-6.05911,26.7052,-2.07358,9.68559,5.07416,14.0141,0.742751,-16.4732,-5.20249,2.17528,-1.42884,26.2736,1.71991,31.8416,0.491458,0.0756837,-0.628617,0.633998,-0.0721955,-0.600487,0.631244,0.0781922,-0.631442,0.667253,-0.0648243,-0.605754,0.655547,-0.442665,-0.806354,1.33284,0.159967,-0.457107,0.974959,-0.33971,-0.756571,0.704751,0.612864,-0.550434,1.48239,-0.137739,0.000147521,0.0767107,-0.000328704,-4.1177,1.92429,-2.37005,1.60445,
-20.6754,-8.56833,28.752,-2.00186,9.10382,5.35531,14.4335,1.08153,-16.5458,-5.46694,1.48255,-0.959393,27.0595,2.20012,34.2665,1.06343,-20.7179,-7.54215,28.4744,-1.98782,9.33719,5.33054,14.1501,0.962402,-16.6862,-5.33732,1.86294,-1.23089,27.1452,1.88153,33.34,0.802405,0.0754029,-0.621446,0.626946,-0.0730027,-0.594211,0.624983,0.0775882,-0.626335,0.661891,-0.0653933,-0.600602,0.651569,-0.441644,-0.830484,1.3425,0.154107,-0.456314,0.981845,-0.336615,-0.759463,0.695417,0.610697,-0.542369,1.5054,0.0533455,-0.000792688,0.000181088,-0.000161006,-3.95038,2.16227,-1.91861,2.1267,
-20.2608,-9.18484,30.2091,-1.71837,8.99089,4.94185,15.2881,1.16551,-16.2279,-5.47211,2.46473,-0.747775,26.6487,2.15266,35.2185,1.36987,-20.6665,-8.79923,29.1006,-2.06355,9.13829,5.07565,14.7119,1.08146,-16.5326,-5.72349,1.79076,-1.0159,27.0948,1.97151,34.4907,1.06349,0.0751624,-0.613977,0.618381,-0.0738533,-0.587173,0.618179,0.0769124,-0.620096,0.655023,-0.0661795,-0.594954,0.646268,-0.431489,-0.838569,1.36694,0.150392,-0.4595,0.996096,-0.329419,-0.753235,0.712447,0.599532,-0.537744,1.52348,-0.0265669,-0.000919209,0.000670341,-0.000185529,-3.4633,2.3301,-1.49488,2.73956,
-19.6587,-9.16553,31.0368,-1.60854,8.92682,4.02307,16.4806,1.12676,-15.6313,-5.62951,3.75154,-0.636734,25.4651,2.07851,35.485,1.62266,-20.2558,-9.3849,30.4151,-1.73168,9.02182,4.68892,15.5663,1.1649,-16.211,-5.71999,2.7541,-0.83128,26.6865,1.94899,35.4262,1.3698,0.0749909,-0.60704,0.609755,-0.0746988,-0.580436,0.610892,0.076134,-0.613841,0.647688,-0.0670795,-0.589509,0.640845,-0.41655,-0.831449,1.37903,0.147992,-0.476006,1.01877,-0.315333,-0.751071,0.73675,0.568962,-0.534347,1.52485,0.25046,5.36945e-05,0.0543531,-0.00038313,-2.96661,2.25357,-1.21911,3.24493,
-18.8218,-8.84784,31.4596,-1.20774,9.00191,3.21589,17.6447,1.09144,-14.8588,-5.53889,5.60877,-0.553132,23.9772,2.07904,35.2003,1.87394,-19.6514,-9.3321,31.1916,-1.4833,8.95871,3.81155,16.7054,1.12682,-15.6043,-5.82484,4.0171,-0.736809,25.5138,1.90342,35.6525,1.62268,0.0748308,-0.600736,0.601789,-0.0755085,-0.574442,0.604484,0.0752156,-0.608304,0.640236,-0.0681992,-0.584489,0.636026,-0.395851,-0.817697,1.38222,0.149049,-0.490788,1.0421,-0.29705,-0.744128,0.776925,0.530515,-0.529911,1.51348,0.260486,-0.000268071,0.143508,-0.00023328,-2.15499,2.18262,-0.962757,3.74765,
-17.8421,-7.69543,31.468,-0.716313,9.12954,1.91279,18.8998,0.944438,-13.9215,-5.44225,7.84289,-0.650118,22.0525,2.02647,34.0623,2.02267,-18.816,-9.02812,31.5456,-1.21257,9.02805,3.05812,17.7997,1.09137,-14.8338,-5.68628,5.85053,-0.65341,24.0266,1.9563,35.3083,1.87398,0.0746779,-0.595413,0.595185,-0.0762324,-0.569572,0.599497,0.0743569,-0.604033,0.633924,-0.0694325,-0.580617,0.632383,-0.371478,-0.785821,1.3768,0.151591,-0.519348,1.06952,-0.274245,-0.737974,0.826615,0.481104,-0.528088,1.48228,2.30738e-05,-0.000315643,0.347921,1.73963e-05,-1.4326,1.88856,-0.952316,4.04536,
-16.7512,-6.99414,31.2277,-0.450279,9.37737,0.493851,19.9895,0.752884,-12.9669,-5.28481,10.0921,-0.681993,20.1669,1.767,32.1903,2.06577,-17.828,-7.81505,31.4694,-0.716338,9.15863,1.82555,18.97,0.944529,-13.8728,-5.5354,8.00159,-0.649421,22.1061,1.96218,34.096,2.02266,0.0743996,-0.591552,0.590498,-0.0769565,-0.566412,0.596403,0.0732642,-0.600981,0.62893,-0.0707472,-0.578208,0.630516,-0.34461,-0.76376,1.36741,0.157064,-0.552605,1.09501,-0.251604,-0.731658,0.878804,0.432616,-0.532958,1.43465,0.252345,-0.000611369,0.34542,-0.000115268,-0.648212,1.50516,-1.01857,4.13143,
-15.6243,-5.6248,30.5372,-0.0721004,9.64554,-0.793596,20.9099,0.54497,-12.305,-5.04096,12.3355,-0.638537,18.4017,1.52986,30.043,2.04957,-16.7435,-6.97873,31.2693,-0.357703,9.39195,0.476427,19.9554,0.753004,-12.9278,-5.34694,10.1746,-0.63664,20.2082,1.75407,32.1474,2.06584,0.0741498,-0.589313,0.588062,-0.0774754,-0.564881,0.595805,0.0721974,-0.598968,0.625798,-0.0719422,-0.577097,0.630471,-0.316581,-0.728476,1.35231,0.163414,-0.584368,1.11891,-0.236037,-0.723993,0.932796,0.387453,-0.538583,1.38208,0.306941,-0.000880151,0.251094,0.000124973,0.16274,1.08906,-1.02598,4.09926,
-14.6147,-4.07243,29.7733,0.28993,10.1819,-1.80917,21.2106,0.344492,-11.8193,-4.94716,14.2787,-0.553963,16.7699,1.30951,27.6891,1.97455,-15.6172,-5.59968,30.51,0.00876301,9.65551,-0.775164,20.8454,0.544595,-12.2778,-5.07998,12.3511,-0.581244,18.4271,1.54901,29.9689,2.04958,0.0739631,-0.588998,0.587748,-0.077772,-0.564959,0.597087,0.0714494,-0.5978,0.624575,-0.0727002,-0.577096,0.631632,-0.291578,-0.691679,1.3309,0.176615,-0.610609,1.12893,-0.224564,-0.720649,0.980984,0.346036,-0.544605,1.32516,0.357856,-1.12809e-05,0.133397,7.63832e-05,0.937716,0.688973,-0.974528,3.94917,
-13.8993,-2.54754,28.3729,0.573162,10.7135,-2.5332,21.3775,0.169777,-11.9004,-4.90111,15.7176,-0.427399,15.6191,0.936174,25.539,1.83845,-14.6126,-3.98419,29.5461,0.351239,10.1834,-1.7361,21.0585,0.294007,-11.796,-5.00016,14.2922,-0.552329,16.785,1.3653,27.5418,1.97127,0.0737785,-0.590234,0.589347,-0.0779385,-0.566535,0.60103,0.0707272,-0.596578,0.624486,-0.0733407,-0.577996,0.634577,-0.273746,-0.6546,1.29882,0.189888,-0.631629,1.13933,-0.227082,-0.718657,1.0178,0.316918,-0.555386,1.2752,0.419011,-0.000134453,0.0506127,0.00657164,1.56533,0.33942,-0.804185,3.68347,
-13.4253,-1.47274,27.6203,0.737555,11.4992,-3.00648,20.6265,0.0433513,-12.2675,-4.7401,16.7098,-0.471634,14.9515,0.442777,23.3704,1.60617,-13.8943,-2.35911,28.1003,0.63921,10.707,-2.42314,21.1759,0.133501,-11.8882,-4.85407,15.5886,-0.40221,15.6161,1.04281,25.3093,1.82115,0.0736619,-0.593084,0.592701,-0.0778511,-0.569449,0.60696,0.0703373,-0.596405,0.625768,-0.0735221,-0.579785,0.63876,-0.262052,-0.631411,1.28434,0.209748,-0.646652,1.12665,-0.236428,-0.714665,1.04336,0.300237,-0.569564,1.22478,0.441203,0.00503304,0.179919,0.103704,1.91631,0.0917356,-0.763349,3.31605,
-13.1881,-0.132424,26.8236,0.934389,11.8815,-2.98585,20.3046,-0.00235801,-12.9194,-4.47877,17.5654,-0.411931,14.9236,0.248806,22.4687,1.42846,-13.4115,-1.26052,27.3189,0.749083,11.5019,-2.85087,20.3594,0.00790324,-12.2537,-4.63655,16.4949,-0.381257,14.948,0.589478,23.0884,1.62157,0.0734289,-0.596958,0.597264,-0.0777758,-0.57338,0.614227,0.0700785,-0.597368,0.628094,-0.0734996,-0.582298,0.643691,-0.256496,-0.602263,1.26964,0.219269,-0.650921,1.12722,-0.253164,-0.709556,1.06757,0.299548,-0.577352,1.20755,0.281,-0.000366975,0.176695,0.134658,2.14978,-0.00508299,-0.647168,2.99158,
-13.2121,0.209922,26.0229,0.925447,12.4459,-2.72345,19.4003,0.00682483,-13.3551,-4.50966,17.356,-0.388754,14.9989,0.0154451,21.3322,1.27971,-13.1622,0.068245,26.511,0.988977,11.8934,-2.83726,20.0683,-0.0401885,-12.8982,-4.39341,17.3202,-0.323334,14.9264,0.405501,22.1793,1.47103,0.0729309,-0.601132,0.602555,-0.0779072,-0.577787,0.62194,0.0696548,-0.599134,0.631228,-0.0735749,-0.585299,0.64902,-0.257747,-0.597842,1.25528,0.23312,-0.64896,1.11242,-0.264462,-0.713097,1.06586,0.301268,-0.58641,1.18471,0.286975,0.000905048,0.172652,0.112345,2.13787,0.0145547,-0.604856,2.67176,
-13.4653,0.615044,25.1163,0.96242,12.659,-2.09381,18.9631,0.063662,-13.9137,-4.34895,16.9077,-0.260279,15.6463,-0.0750765,20.7483,1.25243,-13.1771,0.348743,25.82,1.03812,12.466,-2.55471,19.1319,0.00749047,-13.3275,-4.42122,17.2056,-0.360159,15.0116,0.173114,21.0495,1.30087,0.0721547,-0.604936,0.607883,-0.0782528,-0.582179,0.629208,0.0690591,-0.60123,0.634834,-0.0737964,-0.588521,0.654514,-0.264988,-0.592189,1.24,0.237981,-0.636819,1.10676,-0.279196,-0.711328,1.05982,0.317244,-0.591983,1.17565,0.168516,0.0679056,0.0244949,0.00452773,2.09336,0.195229,-0.496064,2.50938,
-13.7285,0.290947,25.2552,0.9184,12.8115,-1.56089,18.4923,0.186588,-14.3914,-4.29748,16.3447,-0.235864,16.3477,-0.105224,20.7657,1.11796,-13.4311,0.716314,24.9925,1.02405,12.6823,-1.93753,18.7265,0.0701856,-13.886,-4.25237,16.7639,-0.255927,15.6581,0.0765432,20.4933,1.25465,0.0712792,-0.608351,0.61281,-0.0787475,-0.586476,0.63595,0.0683384,-0.60359,0.63866,-0.0741171,-0.591735,0.659695,-0.272473,-0.603578,1.24832,0.241243,-0.628157,1.10254,-0.291861,-0.712527,1.0494,0.334307,-0.595903,1.18095,-5.43154e-05,-0.000461704,0.0124694,0.0583405,1.83675,0.372714,-0.459259,2.29426,
-14.0359,-0.0920263,25.3713,0.716713,12.8124,-1.05795,17.9079,0.218467,-14.5602,-4.30986,15.3723,-0.222604,16.9188,0.0566046,20.5365,1.05799,-13.693,0.340792,25.2649,0.895093,12.8332,-1.46053,18.3212,0.186162,-14.367,-4.20282,16.2252,-0.229339,16.3592,0.0350206,20.6124,1.14701,0.070362,-0.611187,0.616411,-0.0792957,-0.590073,0.64109,0.0676817,-0.606077,0.642002,-0.074417,-0.59477,0.664109,-0.281078,-0.615116,1.25262,0.240632,-0.618793,1.09086,-0.296717,-0.715224,1.02812,0.348446,-0.594726,1.18075,-5.74167e-05,0.0475464,-0.000236212,0.0548,1.43337,0.48448,-0.445445,2.17079,
-14.4247,-0.403245,25.3135,0.543349,12.8664,-0.321928,17.3327,0.313721,-14.6339,-4.38267,14.6344,-0.220817,17.3773,0.22235,21.2424,1.00101,-14.0007,-0.00861664,25.29,0.695804,12.8407,-0.99133,17.7826,0.224367,-14.5325,-4.23772,15.2953,-0.223119,16.9354,0.162453,20.4333,1.08538,0.069461,-0.613712,0.619222,-0.0799511,-0.592916,0.645139,0.0669859,-0.608207,0.64456,-0.074798,-0.59725,0.667552,-0.291715,-0.625739,1.25495,0.241326,-0.602687,1.08103,-0.299281,-0.718848,1.01161,0.359286,-0.592578,1.19942,3.33091e-05,-0.000500664,0.00111561,0.0489712,1.08673,0.626942,-0.440518,2.05099,
-14.9201,-1.02441,25.025,0.349763,12.8339,0.0109773,17.0949,0.348967,-14.6075,-4.50478,13.6765,-0.22946,17.8273,0.334623,21.4995,0.961743,-14.3896,-0.348887,25.3554,0.523333,12.8964,-0.271842,17.2798,0.313922,-14.6078,-4.33511,14.6038,-0.220428,17.3977,0.295209,21.1997,1.02544,0.0685352,-0.615492,0.62067,-0.0807029,-0.594813,0.647504,0.0662906,-0.609778,0.646027,-0.0752766,-0.598878,0.66956,-0.304944,-0.641268,1.2484,0.239679,-0.595104,1.07515,-0.299302,-0.723146,0.98845,0.370231,-0.590899,1.20858,8.75338e-06,0.0197289,0.000644736,0.0432268,0.699535,0.717663,-0.458276,1.96671,
-15.2316,-1.47182,25.7285,0.145352,12.8266,0.498952,16.9364,0.374003,-14.5981,-4.51418,13.4139,-0.276361,18.2399,0.379119,22.4652,0.94677,-14.8973,-1.00528,25.1163,0.26878,12.8541,0.0228696,17.0986,0.358505,-14.5938,-4.48409,13.6896,-0.240036,17.8389,0.345647,21.5067,0.963397,0.0679173,-0.616321,0.620786,-0.0812393,-0.595556,0.648155,0.0658293,-0.610539,0.646274,-0.0756189,-0.599583,0.669991,-0.313331,-0.653592,1.26534,0.239053,-0.583713,1.0723,-0.299438,-0.723882,0.981517,0.380039,-0.590778,1.23084,0.0459172,0.0140233,0.0230404,-0.000134283,0.336621,0.762029,-0.529683,1.89341,
-15.4437,-1.71436,25.9897,0.0604002,12.6773,0.809401,16.9976,0.40409,-14.4955,-4.50759,13.0501,-0.268595,18.5112,0.641776,22.9478,0.970554,-15.215,-1.46747,25.8703,0.145057,12.8491,0.48543,16.9955,0.381315,-14.5854,-4.50157,13.4693,-0.279476,18.252,0.344288,22.5192,0.927106,0.0673008,-0.616851,0.619643,-0.0819011,-0.595715,0.647543,0.0653835,-0.611143,0.645511,-0.0759949,-0.5998,0.669424,-0.319097,-0.660534,1.26999,0.234644,-0.575109,1.07113,-0.297201,-0.724053,0.971011,0.386691,-0.584092,1.24329,9.73157e-06,0.00129813,0.0289695,9.48627e-05,0.12081,0.809479,-0.508221,1.9412,
-15.5896,-2.07446,26.8072,-0.08618,12.6055,0.913447,17.154,0.367515,-14.3102,-4.46736,13.1704,-0.335449,18.5079,0.592186,23.8591,0.940473,-15.4379,-1.76438,26.2442,-0.0251051,12.6896,0.789267,17.1013,0.404742,-14.496,-4.51269,13.149,-0.279651,18.5128,0.611153,23.0419,0.970574,0.0669488,-0.616714,0.617253,-0.082347,-0.595119,0.645647,0.0652108,-0.611262,0.643652,-0.0761845,-0.599376,0.667642,-0.32293,-0.669058,1.2857,0.232615,-0.571488,1.07354,-0.292575,-0.722882,0.971493,0.386358,-0.583746,1.26181,0.0484194,-1.11059e-05,0.0513655,0.03516,-0.123941,0.735019,-0.619532,1.91611,
-15.5159,-1.99873,27.2398,-0.106447,12.3711,0.869806,17.5983,0.32029,-14.0847,-4.35135,13.5004,-0.348792,18.4442,0.716655,24.1939,1.00985,-15.5873,-2.13491,26.9562,-0.087152,12.6172,0.877434,17.2986,0.367203,-14.3121,-4.48836,13.2922,-0.324504,18.5108,0.545566,23.9915,0.939743,0.0668106,-0.616139,0.613931,-0.0826868,-0.593947,0.642475,0.0652144,-0.610953,0.640912,-0.0762698,-0.598427,0.664812,-0.321141,-0.666453,1.2945,0.226354,-0.571148,1.07976,-0.286897,-0.719459,0.976633,0.384859,-0.580261,1.26871,5.14231e-05,0.000573214,0.029367,-9.35864e-05,-0.212842,0.641153,-0.668218,2.0196,
-15.3726,-1.96279,27.7219,-0.124244,12.3054,0.803518,17.9822,0.255683,-13.852,-4.28243,14.1102,-0.374616,18.1622,0.88037,24.9337,0.992635,-15.5185,-2.09186,27.5334,-0.192429,12.3772,0.807157,17.7557,0.320642,-14.0894,-4.38557,13.6328,-0.33454,18.4458,0.66331,24.3393,1.00985,0.0667832,-0.615347,0.610169,-0.0829714,-0.5925,0.638794,0.0652699,-0.610269,0.637755,-0.0763536,-0.59719,0.661368,-0.317536,-0.663895,1.3009,0.224462,-0.571719,1.08656,-0.280983,-0.716826,0.988466,0.377572,-0.573945,1.28151,0.0432129,-0.000137119,0.00119537,0.0377114,-0.205275,0.51123,-0.748037,2.02298,
-15.1317,-1.61252,27.9562,-0.0774482,12.2019,0.505614,18.6435,0.159591,-13.594,-4.17551,14.8398,-0.431088,17.7107,0.824748,25.2892,0.996579,-15.3803,-2.01773,27.9443,-0.188521,12.3097,0.740842,18.1964,0.255661,-13.8602,-4.31322,14.2465,-0.374428,18.1546,0.858156,25.0094,1.01156,0.0668667,-0.614576,0.606283,-0.0831676,-0.590858,0.634685,0.0654034,-0.609443,0.634283,-0.076394,-0.595761,0.657494,-0.311359,-0.654445,1.3029,0.221826,-0.577016,1.09892,-0.274346,-0.713387,1.0032,0.366291,-0.573871,1.28638,0.0416441,-9.77946e-05,0.00117296,0.032821,-0.113252,0.319085,-0.861003,2.02598,
-14.8201,-1.15273,28.1595,-0.00707173,12.1103,0.174118,19.1351,0.0620242,-13.3854,-4.01796,15.654,-0.502532,17.3428,0.823453,24.987,1.00078,-15.148,-1.65565,28.1643,-0.138548,12.2011,0.457616,18.8495,0.158721,-13.6095,-4.19299,14.9671,-0.430442,17.6962,0.817411,25.4374,1.01302,0.0671204,-0.61401,0.602596,-0.0832115,-0.589484,0.630634,0.0656756,-0.608832,0.630856,-0.0763055,-0.594486,0.653612,-0.303195,-0.642556,1.3045,0.21961,-0.584667,1.10735,-0.268755,-0.709023,1.02032,0.357293,-0.572804,1.2771,0.0332461,-0.000269816,0.000253508,0.0347011,0.0191027,0.123779,-1.00481,2.03626,
-14.4899,-0.211718,28.1043,0.0856296,12.008,-0.0980427,19.7241,-0.00198541,-13.3489,-3.79571,16.7388,-0.550486,16.9515,1.09965,25.4269,1.00148,-14.844,-1.12815,28.32,0.00955192,12.1015,0.142608,19.3222,0.0589043,-13.4078,-4.02091,15.7587,-0.502365,17.3266,0.791662,25.115,1.01806,0.0675944,-0.613803,0.599447,-0.0830502,-0.588399,0.626971,0.0661258,-0.608557,0.627939,-0.076009,-0.593517,0.650121,-0.294332,-0.618591,1.30158,0.217324,-0.590047,1.11876,-0.267288,-0.703365,1.04474,0.348087,-0.56597,1.28279,0.109971,-3.07981e-05,0.000307513,0.0352969,0.281231,-0.00400163,-1.10067,2.03825,
-14.2485,0.43511,27.7977,0.213193,11.9361,-0.297409,20.2091,-0.0877561,-13.3435,-3.69088,17.3314,-0.644617,16.6084,0.917209,25.082,0.964296,-14.518,-0.194874,28.2856,0.0965857,11.99,-0.108906,19.8832,0.000681917,-13.38,-3.77966,16.8228,-0.550538,16.9267,1.08367,25.4513,1.01903,0.0682152,-0.614003,0.596933,-0.082679,-0.587852,0.623961,0.0667772,-0.608669,0.625415,-0.0755118,-0.592871,0.647051,-0.287576,-0.603879,1.29181,0.216021,-0.59542,1.12836,-0.266373,-0.701131,1.05743,0.339998,-0.569241,1.27144,-4.26904e-05,0.00682872,0.000801008,0.0287765,0.426344,-0.168683,-1.28843,1.95737,
-14.129,1.13581,27.7745,0.261497,12.0308,-0.46046,20.4167,-0.127924,-13.416,-3.4906,18.0419,-0.748418,16.2955,0.928062,25.2101,0.904742,-14.279,0.429925,27.9482,0.17669,11.9138,-0.314807,20.3402,-0.0878272,-13.38,-3.65479,17.3854,-0.644811,16.5698,0.95325,25.083,0.963651,0.0689612,-0.614632,0.595145,-0.0821434,-0.587799,0.621729,0.06761,-0.60929,0.623648,-0.0747807,-0.592646,0.644589,-0.283814,-0.587235,1.28982,0.21898,-0.599769,1.13181,-0.267269,-0.697082,1.0738,0.333018,-0.569005,1.27256,2.85566e-06,-0.0121341,-0.000318629,2.8746e-05,0.522997,-0.267982,-1.49716,1.80951,
-14.0387,1.49062,27.7684,0.195776,11.9714,-0.576268,20.614,-0.166402,-13.526,-3.30478,18.206,-0.880435,16.2684,0.976107,24.8539,0.823763,-14.1542,1.20376,27.7792,0.267187,12.0092,-0.430703,20.4567,-0.137769,-13.4459,-3.40573,18.0118,-0.728481,16.2585,0.984557,25.1815,0.904753,0.0696803,-0.615779,0.594017,-0.0815812,-0.588239,0.620244,0.0684844,-0.61047,0.62256,-0.0739502,-0.592891,0.64281,-0.280862,-0.578683,1.28613,0.217994,-0.602723,1.13413,-0.269094,-0.693416,1.07599,0.333214,-0.568364,1.26232,0.113126,-0.0139642,0.0953869,0.0275668,0.504678,-0.346768,-1.66548,1.67509,
-14.0223,2.15819,27.9508,0.170901,12.0073,-0.481536,20.4971,-0.20091,-13.538,-3.14876,18.6071,-0.98355,16.1737,0.958437,25.1536,0.761251,-14.0548,1.62223,27.6276,0.25829,11.9529,-0.502474,20.6264,-0.176854,-13.5481,-3.18634,18.1566,-0.810038,16.2402,1.00248,24.89,0.825017,0.0702541,-0.617451,0.593689,-0.0810876,-0.589165,0.619511,0.0692772,-0.612128,0.622219,-0.0731675,-0.59349,0.641673,-0.279986,-0.563926,1.29084,0.219312,-0.601511,1.1325,-0.268666,-0.691328,1.0886,0.331661,-0.570338,1.27087,0.108393,-0.0171387,0.091539,-0.000213052,0.450196,-0.418959,-1.87556,1.52229,
-14.1552,2.38298,27.5583,0.0949756,11.9539,-0.09548,20.4615,-0.209018,-13.6038,-2.99559,18.443,-1.0165,16.29,1.06706,25.3773,0.662538,-14.0325,2.30565,27.7825,0.232485,11.9941,-0.418993,20.4835,-0.212419,-13.5547,-3.01342,18.582,-0.937458,16.148,1.00209,25.1661,0.761228,0.0706588,-0.619543,0.594122,-0.0806943,-0.590534,0.619449,0.0699458,-0.614115,0.622368,-0.0724467,-0.594346,0.640918,-0.282987,-0.560643,1.28191,0.218393,-0.594183,1.13037,-0.269725,-0.689715,1.08243,0.335156,-0.56787,1.27413,0.100722,-0.0181588,-0.0539024,0.0253619,0.290673,-0.436196,-2.0869,1.35044,
-14.3317,2.77372,27.5235,0.071779,11.8892,0.0312788,20.2489,-0.23427,-13.5864,-2.88415,18.437,-1.16302,16.4282,1.0631,25.6832,0.615257,-14.1614,2.53395,27.4422,0.155776,11.9459,-0.0540125,20.4263,-0.218514,-13.6212,-2.87792,18.3492,-1.04332,16.2634,1.11758,25.2938,0.663648,0.0709367,-0.621916,0.5952,-0.0803851,-0.592188,0.620049,0.0705003,-0.616409,0.623148,-0.0718174,-0.595546,0.640756,-0.287193,-0.553324,1.28566,0.21704,-0.592805,1.12751,-0.268853,-0.689916,1.08464,0.339201,-0.570129,1.28186,-0.0377866,-0.017616,-3.90359e-05,-0.000219888,0.105772,-0.486156,-2.32607,1.23029,
-14.6014,2.89626,27.3044,-0.0782672,11.8926,0.509671,19.8231,-0.239286,-13.5569,-2.80999,17.9933,-1.26631,16.6328,1.28454,25.7178,0.55997,-14.3331,2.92799,27.4554,0.0792926,11.8847,0.0815316,20.1992,-0.233152,-13.6019,-2.7791,18.381,-1.16319,16.4091,1.11819,25.6244,0.615146,0.0711031,-0.624377,0.596644,-0.08015,-0.594069,0.621062,0.0709795,-0.618957,0.624329,-0.0712841,-0.597088,0.641002,-0.293831,-0.552789,1.27862,0.217318,-0.582854,1.11661,-0.267684,-0.690758,1.07498,0.344839,-0.566011,1.28422,0.0598227,-0.000429251,0.000612342,-7.42991e-05,-0.0967116,-0.479001,-2.53201,1.11986,
-14.9844,2.7373,27.231,-0.204132,11.9131,0.753491,19.4702,-0.244422,-13.5532,-2.77748,17.4237,-1.39287,16.8882,1.32887,25.9812,0.456524,-14.6001,2.99529,27.1053,-0.0749023,11.8892,0.558751,19.7124,-0.239548,-13.5687,-2.70886,17.9326,-1.26601,16.6194,1.35182,25.6942,0.559914,0.0711408,-0.626953,0.598342,-0.0800074,-0.596043,0.62232,0.071339,-0.621562,0.625821,-0.0708523,-0.598825,0.641545,-0.303487,-0.560029,1.27853,0.217839,-0.578682,1.10912,-0.267311,-0.692539,1.0623,0.351603,-0.566619,1.29141,-0.0318206,-0.0182766,0.000263174,-7.11953e-05,-0.440084,-0.50712,-2.78548,0.912977,
-15.2662,2.57982,27.575,-0.382853,11.9073,1.06715,18.8768,-0.300691,-13.4851,-2.72016,16.999,-1.53479,17.2086,1.45499,26.4059,0.3584,-14.9799,2.79649,27.1682,-0.244233,11.9118,0.824378,19.4233,-0.244382,-13.5612,-2.68245,17.3688,-1.39261,16.8777,1.39019,25.9615,0.456536,0.0710516,-0.629334,0.600029,-0.0799832,-0.597946,0.623567,0.0715884,-0.624082,0.627276,-0.0705141,-0.600469,0.642081,-0.310698,-0.566244,1.29034,0.21764,-0.572032,1.09689,-0.265427,-0.693546,1.05309,0.359859,-0.565031,1.30252,-0.0337862,0.00089371,-4.14453e-05,-0.000218435,-0.799492,-0.600488,-3.06962,0.716581,
-15.6426,2.39742,27.2842,-0.594052,11.7834,1.36447,18.6215,-0.393349,-13.4538,-2.80904,16.2445,-1.69613,17.4929,1.57124,26.8417,0.216736,-15.2558,2.62911,27.5154,-0.38165,11.9132,1.15233,18.8895,-0.290274,-13.4876,-2.63349,16.9517,-1.53445,17.2045,1.50734,26.3933,0.35841,0.0708382,-0.631513,0.601674,-0.0800776,-0.599636,0.624744,0.0717063,-0.626454,0.628598,-0.0703234,-0.601932,0.642501,-0.320394,-0.572857,1.28632,0.214463,-0.566189,1.09158,-0.264604,-0.697965,1.03544,0.367066,-0.563458,1.31373,-0.0847341,-0.000780308,-0.000590228,9.06386e-05,-1.27284,-0.787477,-3.39286,0.433563,
-16.0935,2.21888,27.0369,-0.790753,11.7735,1.69592,18.3348,-0.414777,-13.4611,-2.94903,15.4488,-1.81605,17.829,1.68997,27.3002,0.131979,-15.6325,2.46454,27.3749,-0.652641,11.7918,1.41598,18.5946,-0.393421,-13.4518,-2.73701,16.2098,-1.69635,17.4932,1.61283,26.8402,0.216978,0.0705506,-0.633468,0.602917,-0.0802644,-0.601121,0.6256,0.0717069,-0.628471,0.629684,-0.0702716,-0.603149,0.642686,-0.331976,-0.579694,1.27953,0.213904,-0.559766,1.08378,-0.264839,-0.703287,1.01643,0.375458,-0.561548,1.32523,-0.0424165,-0.026185,-8.49292e-05,-0.000125658,-1.62392,-0.855739,-3.63218,0.263832,
-16.5112,1.81375,27.3474,-0.991963,11.7318,1.93677,18.0339,-0.480056,-13.4924,-3.03675,14.9096,-1.96756,18.2769,1.7528,27.852,0.0343576,-16.0835,2.22169,27.0202,-0.769132,11.7771,1.72268,18.2737,-0.414186,-13.461,-2.90516,15.4363,-1.81598,17.8286,1.71593,27.3073,0.131954,0.0702952,-0.634532,0.603624,-0.0804385,-0.60197,0.626049,0.0716868,-0.629744,0.630207,-0.0702679,-0.603925,0.642639,-0.342662,-0.589911,1.28771,0.212678,-0.553914,1.07651,-0.265636,-0.70662,1.00327,0.386654,-0.560641,1.33884,-0.0872202,-0.000703645,-0.000160522,-0.000265046,-2.07115,-0.960815,-3.93528,0.0684502,
-17.2793,0.958639,27.4127,-1.22119,11.5471,2.51952,17.6486,-0.459747,-13.3161,-3.34433,13.9736,-2.18148,19.0269,2.04958,28.4507,-0.0183514,-16.4975,1.81554,27.3455,-0.937179,11.7433,1.96396,18.0385,-0.480827,-13.4899,-2.98596,14.9068,-1.96789,18.2795,1.78034,27.87,0.034352,0.0699713,-0.635207,0.603992,-0.0806971,-0.602861,0.626226,0.0716499,-0.631222,0.630529,-0.0702949,-0.604733,0.642332,-0.362201,-0.611323,1.28937,0.20786,-0.540529,1.06799,-0.261279,-0.715598,0.97993,0.405351,-0.55392,1.35334,-0.198777,-0.0280678,0.000461307,-2.34316e-05,-2.64117,-0.947562,-4.36249,-0.0367263,
-18.1308,-0.163352,27.6331,-1.50891,11.2782,3.07112,17.5084,-0.41216,-13.2862,-3.62927,12.8476,-2.41568,20.0367,2.2757,29.3782,-0.0621903,-17.2563,0.923187,27.437,-1.16918,11.5682,2.50443,17.721,-0.458653,-13.3092,-3.30465,13.9848,-2.17731,19.0341,2.06376,28.4844,-0.0181646,0.0695272,-0.634853,0.603755,-0.0810951,-0.603276,0.625886,0.0715427,-0.632372,0.630448,-0.0704125,-0.605286,0.641705,-0.384065,-0.638457,1.29425,0.200496,-0.526804,1.06384,-0.260692,-0.723746,0.951485,0.430396,-0.548622,1.37566,-0.304482,-0.0586556,-0.00914605,-0.000189009,-3.32231,-0.882976,-4.84051,-0.12457,
-18.7684,-1.29108,28.0772,-1.69291,11.3215,3.52821,16.8864,-0.262648,-13.2737,-3.84474,11.6895,-2.48177,20.7584,2.56911,30.4265,-0.0378416,-18.0915,-0.234792,27.6817,-1.45869,11.318,3.0417,17.5892,-0.372716,-13.2752,-3.60866,12.867,-2.37306,20.0492,2.27365,29.4328,-0.0620953,0.0687535,-0.63353,0.602869,-0.0818759,-0.602988,0.625164,0.0713113,-0.633214,0.630076,-0.0706845,-0.605465,0.640568,-0.400997,-0.664815,1.30411,0.200657,-0.514195,1.04738,-0.260674,-0.729665,0.922039,0.448108,-0.541236,1.40046,-0.406384,-0.118759,-0.0973273,-0.000222646,-3.7922,-0.644055,-5.06087,-0.0759059,
-19.3004,-2.28487,28.6287,-1.83715,11.3991,4.30322,16.3334,-0.0469599,-13.3327,-3.98274,10.7184,-2.44384,21.4103,2.92798,31.6293,0.0648581,-18.726,-1.37374,28.1511,-1.67543,11.3681,3.48327,16.9752,-0.239247,-13.2707,-3.84053,11.7153,-2.44242,20.7636,2.55111,30.487,-0.0213526,0.0677563,-0.631668,0.601368,-0.0828811,-0.602111,0.624184,0.0711509,-0.633546,0.629525,-0.0708944,-0.605244,0.639173,-0.415366,-0.687538,1.31601,0.201519,-0.49405,1.03238,-0.262206,-0.733209,0.897092,0.464289,-0.531804,1.42898,-0.442388,-0.177561,-0.17793,-0.0334506,-4.1167,-0.271481,-5.0656,0.0962656,
-19.5959,-3.04997,29.3679,-1.95531,11.5159,4.79929,15.9736,0.123975,-13.4601,-3.93211,9.97956,-2.37254,21.7964,3.16246,32.7501,0.177137,-19.2578,-2.37056,28.7284,-1.8495,11.4423,4.24317,16.3877,-0.0367949,-13.3384,-3.98004,10.7521,-2.43277,21.4073,2.89542,31.7007,0.0866732,0.0666988,-0.629516,0.599176,-0.0839818,-0.600765,0.622901,0.0711765,-0.633656,0.628768,-0.0709326,-0.604639,0.637469,-0.423826,-0.704468,1.33192,0.203195,-0.479731,1.02091,-0.265261,-0.732003,0.877751,0.474004,-0.525101,1.45517,-0.417493,-0.193236,-0.199984,-0.0779494,-4.3281,0.0547141,-4.94507,0.276325,
-19.8194,-3.61467,29.9157,-2.05843,11.6827,5.27089,15.4738,0.247882,-13.433,-3.90109,9.45515,-2.33037,21.9587,3.42063,33.5931,0.275556,-19.5553,-3.12662,29.4745,-1.98451,11.5574,4.75671,16.0306,0.121037,-13.4691,-3.92618,10.0209,-2.38229,21.7904,3.11927,32.8232,0.192621,0.0656466,-0.627438,0.596633,-0.0850483,-0.599332,0.621525,0.0713419,-0.633765,0.627821,-0.0708377,-0.603688,0.635673,-0.430471,-0.716624,1.34289,0.206455,-0.46648,1.00791,-0.264331,-0.731369,0.863573,0.478234,-0.517535,1.47438,-0.358139,-0.17818,-0.179507,-0.109659,-4.475,0.317583,-4.84024,0.441452,
-20.0326,-4.03994,30.3813,-2.15323,11.7943,5.65115,15.2601,0.352021,-13.3956,-3.83646,9.14806,-2.32862,22.0926,3.59636,34.304,0.351337,-19.7905,-3.66442,30.0059,-2.08717,11.7172,5.22523,15.5595,0.236207,-13.4421,-3.89343,9.49304,-2.34911,21.952,3.38105,33.6525,0.285784,0.0648506,-0.626018,0.594398,-0.0858287,-0.598142,0.62035,0.0715504,-0.633903,0.626949,-0.0706914,-0.602773,0.634193,-0.436525,-0.725972,1.35219,0.208532,-0.456079,1.00129,-0.26314,-0.729939,0.85491,0.481771,-0.512124,1.49062,-0.299311,-0.181513,-0.14262,-0.130493,-4.60578,0.522528,-4.79986,0.57218,
-20.2544,-4.35788,30.7465,-2.25424,11.8554,5.84411,15.2567,0.399849,-13.3439,-3.79606,9.03739,-2.36757,22.1954,3.71635,34.906,0.42296,-20.0025,-4.09317,30.4936,-2.19154,11.8239,5.58751,15.3193,0.342463,-13.4121,-3.82605,9.20605,-2.35018,22.0798,3.54169,34.3831,0.362791,0.0639874,-0.624448,0.591533,-0.0867191,-0.596681,0.618702,0.0719276,-0.63414,0.625589,-0.0704058,-0.601466,0.632189,-0.44282,-0.732559,1.35845,0.209118,-0.449901,0.998677,-0.261405,-0.729182,0.85065,0.484686,-0.507717,1.50364,-0.221608,-0.138002,-0.0990396,-0.153461,-4.73008,0.661695,-4.83418,0.692459,
-20.4249,-4.5411,30.972,-2.33872,11.8433,5.97405,15.2534,0.434199,-13.2847,-3.78097,9.03772,-2.41498,22.2811,3.81262,35.3945,0.485674,-20.2283,-4.39668,30.8547,-2.28474,11.8797,5.78453,15.312,0.396905,-13.3603,-3.78781,9.0958,-2.37523,22.1828,3.65981,34.9815,0.429918,0.0632768,-0.623236,0.588675,-0.0874045,-0.595364,0.617215,0.0723632,-0.634364,0.624125,-0.0700674,-0.600033,0.630211,-0.447728,-0.736147,1.36133,0.208381,-0.445394,0.998045,-0.259485,-0.729004,0.849168,0.48717,-0.503858,1.51393,-0.159548,-0.104498,-0.0830781,-0.167434,-4.83699,0.7639,-4.91305,0.803915,
-20.5397,-4.60944,31.1195,-2.39787,11.8371,6.03952,15.369,0.455842,-13.2317,-3.78288,9.10878,-2.45369,22.3172,3.88711,35.7795,0.536702,-20.4,-4.56749,31.07,-2.35812,11.8736,5.92926,15.3328,0.439852,-13.2986,-3.77617,9.09316,-2.40714,22.2704,3.76086,35.4623,0.488608,0.0626382,-0.622359,0.585994,-0.0880245,-0.594282,0.615844,0.0727719,-0.634522,0.622631,-0.0697509,-0.59864,0.628346,-0.451212,-0.737187,1.3625,0.207644,-0.442873,0.999789,-0.257783,-0.729162,0.849522,0.488365,-0.500669,1.52182,-0.120386,-0.0861637,-0.0986137,-0.173856,-4.91613,0.82552,-5.006,0.899549,
-20.7812,-4.71952,31.1011,-2.48467,11.7939,6.13035,15.6039,0.473955,-13.145,-3.90844,9.08454,-2.53101,22.5011,4.02607,36.0391,0.581282,-20.5149,-4.62416,31.1993,-2.40614,11.8599,6.00371,15.4092,0.459707,-13.2439,-3.78174,9.15031,-2.43459,22.3075,3.84488,35.831,0.536966,0.0620005,-0.621823,0.583716,-0.0886251,-0.593483,0.614699,0.0731235,-0.6346,0.621389,-0.0694771,-0.59742,0.626818,-0.457904,-0.739564,1.35999,0.205799,-0.439949,1.00386,-0.255321,-0.732342,0.847851,0.493193,-0.496113,1.527,-0.102966,-0.0635265,-0.137479,-0.174219,-5.0723,0.884383,-5.19951,0.988345,
-20.1492,-4.44048,31.5489,-2.49285,12.2245,5.79684,15.3976,0.276933,-13.3211,-3.6975,9.27179,-2.51618,21.6333,3.67501,35.9862,0.375296,-20.7552,-4.72798,31.1651,-2.47874,11.8098,6.10938,15.5862,0.472365,-13.1564,-3.91019,9.10929,-2.50064,22.4909,3.99147,36.0731,0.584343,0.0613674,-0.6215,0.58186,-0.0892076,-0.592996,0.613999,0.0734208,-0.634596,0.620499,-0.0692288,-0.596407,0.625708,-0.442749,-0.732372,1.36957,0.215966,-0.448015,0.99819,-0.259412,-0.727013,0.85191,0.471777,-0.504011,1.52481,-0.11535,-0.086506,-0.198663,-0.180628,-5.10105,0.46736,-5.23102,0.569964,
-19.4349,-4.20169,31.8675,-2.72761,12.6126,4.80352,15.7033,-0.333231,-13.4346,-3.74235,9.28334,-2.73955,20.4682,3.00203,35.161,-0.206065,-20.1282,-4.45472,31.5921,-2.45933,12.2321,5.78439,15.3944,0.296536,-13.3282,-3.71327,9.27839,-2.47151,21.6262,3.64507,35.9917,0.415753,0.060749,-0.621203,0.580405,-0.0897024,-0.592673,0.613764,0.0736779,-0.634392,0.620069,-0.0689907,-0.595579,0.625133,-0.425448,-0.726039,1.37642,0.225279,-0.472302,1.00679,-0.262087,-0.72774,0.852028,0.442813,-0.520077,1.50405,-0.183223,-0.154147,-0.290028,-0.263818,-5.63844,-0.820609,-5.76913,-0.675948,
-19.5333,-5.16192,31.6148,-3.38199,12.7124,3.35095,16.3944,-1.17643,-13.2935,-4.4667,8.63375,-3.3657,20.062,2.08587,33.2997,-0.984716,-19.4301,-4.24337,31.7818,-2.53848,12.6082,4.7651,15.6831,-0.225151,-13.4321,-3.78929,9.27663,-2.65779,20.4682,2.95202,35.1331,-0.0847327,0.060472,-0.620673,0.57987,-0.0899088,-0.592161,0.613964,0.0737582,-0.633752,0.620041,-0.0689028,-0.594729,0.62534,-0.428049,-0.749917,1.36801,0.227691,-0.507933,1.02378,-0.258571,-0.744627,0.83596,0.432618,-0.541675,1.45825,-0.248492,-0.381972,-0.457634,-0.514159,-7.01248,-2.73484,-7.18903,-2.48359,
-19.955,-6.80102,30.4415,-3.91499,12.7929,1.50426,16.6205,-1.79985,-13.2908,-5.45894,7.66154,-3.92564,20.3403,0.943947,31.0116,-1.50369,-19.516,-5.29005,31.3947,-2.99184,12.7241,3.19279,16.2747,-0.883729,-13.2672,-4.62375,8.59457,-3.13148,20.0848,1.91208,33.2128,-0.664631,0.0601148,-0.618436,0.580326,-0.0901487,-0.589875,0.615316,0.0734216,-0.631119,0.62057,-0.0691773,-0.591798,0.626752,-0.438991,-0.785772,1.33994,0.229595,-0.550431,1.0315,-0.259221,-0.765399,0.812663,0.439045,-0.565772,1.4033,-0.696801,-1.0129,-0.935327,-1.16718,-8.52678,-4.61261,-8.78661,-4.17455,
-19.2874,-8.37694,30.2066,-3.62302,13.4254,-0.826819,15.7141,-1.72904,-13.5722,-5.83064,7.27056,-3.49963,20.0796,-0.604062,28.5833,-1.23205,-19.9267,-7.01373,30.1845,-3.47859,12.8146,1.23387,16.4934,-1.46453,-13.2512,-5.72219,7.57088,-3.6034,20.3765,0.651364,30.8483,-1.11557,0.0595279,-0.614193,0.581973,-0.0905758,-0.585002,0.617909,0.0726342,-0.625889,0.622141,-0.0698733,-0.585992,0.629854,-0.423076,-0.820549,1.3363,0.244696,-0.602249,1.01323,-0.267216,-0.767946,0.805222,0.431659,-0.596958,1.34679,-1.21832,-1.76429,-1.59246,-1.95948,-8.46435,-5.22237,-8.59171,-4.42357,
-18.9175,-9.17698,29.5852,-3.06929,13.3344,-2.16184,15.6236,-1.35648,-13.8037,-6.02285,7.25365,-2.84176,20.3758,-1.23837,26.5481,-0.600358,-19.2886,-8.57711,30.0857,-3.54437,13.4178,-1.10276,15.6082,-1.60434,-13.5421,-5.99865,7.13089,-3.32471,20.1005,-0.861394,28.3512,-1.03571,0.0591866,-0.609474,0.584368,-0.0907511,-0.578609,0.62146,0.0717665,-0.621725,0.624989,-0.0705549,-0.579238,0.634672,-0.41376,-0.836866,1.32706,0.242745,-0.629071,1.01488,-0.273777,-0.76837,0.808388,0.438523,-0.606215,1.30188,-1.67089,-2.09911,-1.94954,-2.3601,-7.80947,-4.81208,-7.63305,-3.56081,
-18.896,-9.41461,29.4991,-3.0397,12.8526,-3.00411,16.1113,-1.21565,-13.9277,-6.43839,7.20089,-2.56895,20.7867,-1.50341,24.8153,-0.171893,-18.9425,-9.31247,29.6129,-3.32107,13.3095,-2.3595,15.5209,-1.39927,-13.7872,-6.28126,7.08336,-2.87831,20.3809,-1.39587,26.268,-0.640264,0.0594739,-0.606082,0.5869,-0.0903226,-0.573037,0.625298,0.0711702,-0.613949,0.628879,-0.0708936,-0.573709,0.64118,-0.412617,-0.840812,1.32745,0.231456,-0.645622,1.03095,-0.277302,-0.772197,0.811435,0.448677,-0.608861,1.26574,-1.44665,-1.93315,-1.87314,-2.27845,-7.52605,-4.36444,-7.01104,-2.62224,
-19.2983,-10.0154,28.2287,-3.16819,12.4633,-3.45661,16.4044,-1.15226,-14.0222,-6.97181,6.1897,-2.63289,21.2947,-1.48155,23.1738,-0.0954943,-18.908,-9.44762,29.5103,-3.29824,12.8397,-3.07697,15.957,-1.31704,-13.8978,-6.49532,7.01947,-2.70924,20.8032,-1.5304,24.5465,-0.369977,0.0599049,-0.605192,0.589634,-0.0897432,-0.569628,0.629183,0.0705659,-0.610851,0.63333,-0.0711712,-0.57124,0.648159,-0.422408,-0.856466,1.29866,0.222138,-0.654521,1.04092,-0.280428,-0.784079,0.790799,0.46094,-0.607671,1.23157,-1.20703,-1.64426,-1.58765,-1.8744,-7.54341,-3.94877,-6.85343,-2.06539,
-19.3987,-10.7287,27.5629,-3.50304,12.7317,-4.45871,16.2628,-1.4127,-14.3172,-7.24669,5.32502,-2.95618,21.462,-1.99243,21.6387,-0.399521,-19.2691,-9.9268,28.172,-3.38301,12.4849,-3.40808,16.2138,-1.28691,-13.9716,-6.92629,6.01944,-2.80223,21.3343,-1.42251,22.9581,-0.323409,0.0596808,-0.606843,0.59272,-0.0897788,-0.568848,0.632853,0.0695455,-0.610476,0.637897,-0.0718963,-0.571447,0.654495,-0.425683,-0.877625,1.28564,0.228187,-0.680219,1.04088,-0.289139,-0.792136,0.773534,0.46407,-0.621965,1.19869,-0.98826,-1.28642,-1.24149,-1.40919,-7.99434,-4.11182,-7.15385,-2.20823,
-19.1001,-10.8244,27.6635,-4.01671,13.1454,-4.80095,15.6572,-1.77904,-14.8293,-7.22341,4.89065,-3.20938,21.7875,-2.17803,20.9569,-0.843182,-19.3437,-10.5853,27.5332,-3.57899,12.7748,-4.32509,16.0843,-1.52958,-14.2604,-7.14714,5.19563,-3.05677,21.51,-1.87897,21.5034,-0.592448,0.0586581,-0.610535,0.595711,-0.0905997,-0.570354,0.636218,0.0681799,-0.612172,0.641707,-0.0730022,-0.57348,0.659005,-0.419643,-0.88476,1.29109,0.23732,-0.691562,1.02889,-0.303431,-0.794115,0.765978,0.470941,-0.629514,1.18508,-0.467045,-0.950584,-1.0383,-1.01564,-8.50047,-4.50866,-7.45706,-2.702,
-19.2283,-11.181,26.8099,-4.38122,13.6586,-5.24205,14.7583,-2.15066,-15.146,-7.53579,3.92686,-3.48189,21.7119,-2.25499,20.4027,-1.35013,-19.0616,-10.7095,27.6623,-4.01327,13.1763,-4.67963,15.5646,-1.79562,-14.7973,-7.15161,4.82324,-3.23099,21.8147,-2.08623,20.8957,-0.90984,0.0576376,-0.614287,0.597996,-0.0914463,-0.572831,0.638707,0.0671633,-0.613939,0.643985,-0.0738627,-0.575663,0.661288,-0.423802,-0.897721,1.27202,0.24945,-0.706354,1.01017,-0.312169,-0.803786,0.743602,0.46835,-0.633797,1.17279,-0.612026,-0.808732,-0.993783,-0.879614,-9.37447,-5.11005,-7.95756,-3.57987,
-19.3947,-12.6674,27.42,-4.62019,14.0293,-5.319,13.9525,-2.43291,-15.4531,-7.54551,3.54075,-3.67512,22.2669,-2.39408,20.2591,-1.63053,-19.195,-11.0937,26.8956,-4.2918,13.6828,-5.08055,14.6685,-2.11399,-15.1258,-7.45561,3.89186,-3.45458,21.7292,-2.17659,20.3668,-1.29079,0.0565744,-0.618785,0.600395,-0.0922894,-0.576658,0.641381,0.066309,-0.616217,0.645687,-0.0745864,-0.578216,0.663054,-0.428837,-0.937995,1.28718,0.257987,-0.711815,0.991029,-0.320364,-0.806021,0.734857,0.482024,-0.639887,1.17148,-1.05084,-0.764908,-1.04879,-1.07198,-10.2912,-5.63073,-8.39904,-4.33305,
-19.688,-13.5686,27.4183,-4.81577,14.1183,-4.16924,12.9491,-2.31977,-15.686,-7.41237,3.05129,-3.58274,22.9893,-2.10761,21.1915,-1.68342,-19.3772,-12.4699,27.2901,-4.72995,14.042,-5.15227,13.8333,-2.38948,-15.4487,-7.49834,3.54649,-3.59464,22.2801,-2.40066,20.2639,-1.48255,0.055885,-0.623116,0.602372,-0.0928079,-0.580926,0.643524,0.065933,-0.617808,0.646182,-0.0749031,-0.579515,0.663491,-0.436589,-0.96407,1.28726,0.260017,-0.687903,0.967757,-0.326284,-0.803922,0.722429,0.499993,-0.633184,1.19178,-1.18218,-0.975108,-1.21453,-1.19812,-10.8137,-5.61464,-8.38002,-4.56497,
-20.8122,-13.4204,26.521,-5.27372,13.8836,-2.66067,12.3843,-2.12465,-15.5722,-7.48179,2.47709,-3.58352,23.9698,-1.74717,22.2757,-1.36882,-19.6812,-13.4064,27.3944,-4.7697,14.1187,-4.05587,12.9196,-2.23941,-15.6958,-7.36792,3.08911,-3.52047,22.9921,-2.17016,21.1699,-1.47715,0.0555307,-0.627249,0.603609,-0.093012,-0.584738,0.644857,0.0659602,-0.61906,0.645716,-0.0748867,-0.57936,0.66303,-0.464863,-0.966037,1.26866,0.253958,-0.653598,0.955424,-0.323227,-0.806792,0.707086,0.524489,-0.622584,1.21938,-0.911628,-1.03124,-1.34115,-1.61731,-11.4591,-5.28053,-8.50819,-4.35496,
-22.2682,-13.8848,27.2288,-5.37615,13.201,-0.852718,12.2765,-1.52369,-15.4833,-7.3649,2.29572,-3.54358,26.0245,-1.4337,24.0338,-0.778164,-20.8052,-13.362,26.7121,-5.19074,13.8867,-2.57673,12.4244,-1.97306,-15.5955,-7.42858,2.54829,-3.53633,23.9533,-1.82108,22.36,-1.24477,0.0553712,-0.630982,0.603452,-0.0930651,-0.587582,0.644795,0.0663437,-0.620286,0.644384,-0.0745919,-0.578054,0.661535,-0.501425,-0.980021,1.28361,0.236976,-0.610119,0.950757,-0.32044,-0.80525,0.700725,0.576246,-0.61284,1.26115,-1.22363,-1.25123,-1.43647,-1.87044,-11.9759,-4.29861,-8.52363,-3.42676,
-23.4045,-13.0799,27.3617,-4.94779,12.6189,2.20501,11.7839,-0.304166,-15.7407,-6.68533,2.09222,-2.89854,28.0482,-0.569418,27.0807,0.273958,-22.2474,-13.7813,27.4212,-5.35239,13.223,-0.772923,12.3414,-1.43666,-15.5108,-7.27851,2.38281,-3.49978,26.0035,-1.49394,24.1725,-0.78553,0.0550273,-0.634058,0.60168,-0.0933932,-0.589601,0.643139,0.0669511,-0.622057,0.642392,-0.0741296,-0.576362,0.658777,-0.530415,-0.96366,1.28418,0.221653,-0.535322,0.935843,-0.326173,-0.790495,0.693412,0.627373,-0.589687,1.33375,-1.42091,-1.36529,-1.52545,-1.85516,-11.3165,-1.97362,-7.32253,-1.30725,
-23.7598,-10.1478,29.2693,-4.23384,12.3603,6.22852,11.5349,0.885296,-16.6392,-5.31224,2.72391,-2.14869,29.3784,0.781148,31.7955,1.10642,-23.3669,-12.9752,27.6989,-4.93465,12.6636,2.35939,12.0864,-0.432966,-15.8295,-6.3861,2.27757,-3.03437,27.9715,-0.479225,27.4256,-0.0419954,0.0541252,-0.637815,0.595142,-0.0943907,-0.592912,0.637127,0.0686525,-0.627815,0.638316,-0.0727047,-0.576721,0.651574,-0.540233,-0.89304,1.32328,0.214259,-0.438937,0.922688,-0.346347,-0.763786,0.704476,0.662606,-0.558247,1.44283,-1.4475,-1.11551,-1.25173,-1.21524,-9.91518,0.655084,-5.54912,0.997594,
-22.9281,-6.73326,32.0377,-3.23596,12.7972,9.10564,10.6109,1.89766,-17.4064,-3.50684,3.421,-1.20256,28.724,2.08113,36.5443,1.81072,-23.7501,-10.1086,29.4336,-4.22398,12.3818,6.30027,11.7082,0.796795,-16.6814,-5.15869,2.80966,-2.26359,29.3416,0.866169,31.9517,0.934336,0.0538201,-0.639025,0.591505,-0.0947716,-0.594513,0.633969,0.0695898,-0.630986,0.63644,-0.0718902,-0.578003,0.648092,-0.519665,-0.8087,1.38817,0.224888,-0.368749,0.895691,-0.364394,-0.722675,0.719642,0.647236,-0.527997,1.55745,-1.46868,-0.876557,-1.01018,-0.853775,-7.94059,2.91876,-3.4153,2.76766,
-22.0763,-4.18682,34.2131,-2.19563,13.2286,10.9845,10.4529,2.39852,-17.3611,-1.74167,4.7819,-0.65574,27.1353,3.78989,40.6789,2.06133,-22.9423,-6.69561,32.2695,-3.2291,12.7874,9.26068,10.8845,1.71699,-17.4752,-3.22351,3.59319,-1.47791,28.666,2.30243,36.8042,1.50175,0.0537503,-0.640443,0.586024,-0.0949807,-0.597459,0.62839,0.0712156,-0.637025,0.632879,-0.0704908,-0.58186,0.642138,-0.497968,-0.745998,1.43654,0.235611,-0.325763,0.885129,-0.361459,-0.685855,0.749194,0.609038,-0.491015,1.6541,-1.48289,-0.400277,-0.443337,-0.217188,-5.87415,4.39676,-1.75482,3.90547,
-22.5846,-2.6676,34.9284,-2.00369,12.9256,12.5223,11.625,2.1693,-16.6857,-0.302602,6.82744,-1.1178,26.3671,6.02478,44.321,1.867,-22.1478,-4.13537,34.5474,-2.28684,13.1673,11.2751,10.8299,2.23776,-17.4506,-1.36365,5.08249,-0.877228,27.0654,4.09012,41.0346,1.95284,0.0547969,-0.641822,0.577577,-0.0941731,-0.603723,0.619739,0.0735278,-0.646548,0.62635,-0.0685978,-0.589038,0.633344,-0.508802,-0.709341,1.44589,0.229962,-0.294692,0.905186,-0.342259,-0.659492,0.792608,0.591644,-0.442826,1.73604,-1.29666,0.000380604,-0.00101644,-0.000614651,-5.30405,4.33899,-2.23661,3.73338,
-23.0023,-1.6358,34.7001,-1.97263,12.4371,13.232,13.2334,1.86068,-15.4497,0.181825,9.4728,-1.73746,25.5709,7.79736,46.7059,1.60062,-22.6673,-2.63352,35.2133,-2.04492,12.8687,12.761,11.9905,2.2279,-16.7359,-0.048192,7.18338,-1.11838,26.341,6.29282,44.6857,1.86695,0.0567243,-0.642985,0.569648,-0.0925656,-0.610253,0.610727,0.0753675,-0.654516,0.618022,-0.0673079,-0.596289,0.624104,-0.517097,-0.684409,1.43289,0.219557,-0.283133,0.936458,-0.310062,-0.653881,0.849626,0.572418,-0.405356,1.78633,-1.21276,-0.000468758,-0.000583645,-0.000635881,-5.15802,3.7209,-3.47551,3.2006,
-22.6311,-0.461343,33.9238,-1.80889,11.8575,13.3929,15.2719,1.56928,-14.1161,0.439091,12.7212,-2.25391,24.4478,8.9875,48.0438,1.3653,-23.0699,-1.63457,34.9097,-1.95767,12.38,13.4113,13.539,2.02542,-15.4548,0.314697,9.8229,-1.63219,25.5919,8.0015,47.0272,1.68208,0.0586528,-0.643459,0.563399,-0.0909369,-0.615678,0.602167,0.0761573,-0.659524,0.609146,-0.0671626,-0.602301,0.615506,-0.506065,-0.655069,1.40815,0.206208,-0.283679,0.979052,-0.276631,-0.650809,0.921878,0.543765,-0.380815,1.81155,-1.24362,-0.20915,-0.214404,-0.166195,-4.8614,2.92941,-4.72223,2.5644,
-21.4975,1.28977,32.969,-1.3603,11.3572,12.8148,17.2315,1.5107,-12.8643,0.695876,16.8622,-2.43127,22.5068,9.85579,48.2606,1.31199,-22.7171,-0.495425,34.0848,-1.76584,11.7682,13.4777,15.4866,1.79723,-14.1314,0.437692,13.0347,-2.01477,24.4552,9.11834,48.3006,1.55611,0.0607453,-0.643073,0.558447,-0.089121,-0.619193,0.595624,0.0765553,-0.661557,0.600659,-0.0673725,-0.60676,0.607877,-0.475511,-0.610414,1.38019,0.195709,-0.300324,1.02317,-0.24498,-0.644332,1.01738,0.495056,-0.362434,1.81042,-1.33198,-0.798266,-0.705717,-0.556396,-4.05258,2.22314,-5.56826,2.06759,
-19.4218,3.7941,32.0761,-0.627582,10.9263,11.5855,19.4899,1.39987,-11.6183,1.02818,21.3412,-2.18351,20.0735,10.0557,46.7794,1.51929,-21.554,1.24838,33.0686,-1.31044,11.2982,12.8314,17.3573,1.72934,-12.8549,0.575443,17.0752,-2.08614,22.5319,9.90609,48.3955,1.58523,0.0625102,-0.642161,0.55498,-0.0875998,-0.620684,0.590831,0.0765198,-0.660205,0.593671,-0.0678968,-0.609205,0.602628,-0.422206,-0.546751,1.35532,0.186209,-0.331259,1.07545,-0.214101,-0.632935,1.12395,0.433556,-0.358715,1.76998,-1.43277,-1.14377,-1.41016,-1.11345,-2.68794,1.65598,-5.77718,1.92513,
-16.9738,6.44687,31.5307,0.182932,10.6976,9.92889,21.3663,1.3674,-10.8573,1.44023,25.4691,-1.71678,17.6115,9.817,43.759,1.7733,-19.469,3.7664,32.1107,-0.593213,10.8786,11.5671,19.4813,1.55893,-11.619,0.844286,21.411,-1.88207,20.0764,10.0799,46.7613,1.72501,0.0638167,-0.641318,0.55317,-0.0863558,-0.62071,0.588579,0.0763855,-0.656493,0.589915,-0.0682779,-0.610261,0.600905,-0.359821,-0.47973,1.34081,0.18187,-0.372399,1.12173,-0.195041,-0.61791,1.22541,0.371953,-0.365305,1.69497,-1.50232,-1.55688,-2.02551,-1.53274,-1.13646,1.17792,-5.45906,2.01386,
-14.9489,8.43888,30.8902,0.83176,10.9214,8.55835,22.3748,1.14962,-10.7521,1.83161,28.405,-1.20681,15.6821,9.23677,39.9529,1.86418,-17.0142,6.44326,31.4895,0.202343,10.6544,9.9185,21.24,1.41994,-10.8806,1.26606,25.3474,-1.55747,17.5861,9.85995,43.6058,1.86288,0.0649678,-0.640889,0.553094,-0.0852156,-0.620519,0.589098,0.0766886,-0.651861,0.589744,-0.0680144,-0.611182,0.602828,-0.308142,-0.42984,1.32587,0.188447,-0.406697,1.14907,-0.191813,-0.602785,1.29977,0.324397,-0.380906,1.60377,-1.54216,-1.59863,-2.49129,-1.71513,0.121362,0.70061,-4.90491,2.01323,
-13.4752,9.68836,30.5126,1.25363,11.5098,7.49268,22.4567,0.983282,-11.221,2.18066,29.96,-0.749725,14.4826,8.24195,36.1427,1.77621,-14.967,8.45425,30.801,0.831609,10.889,8.5771,22.1872,1.16077,-10.7764,1.69274,28.2752,-1.19427,15.6519,9.28584,39.7789,1.85469,0.0656083,-0.640987,0.554412,-0.0843971,-0.620685,0.59143,0.0771935,-0.648334,0.591908,-0.0674398,-0.61217,0.606213,-0.270863,-0.399001,1.31874,0.203885,-0.433442,1.15465,-0.202863,-0.591453,1.34448,0.29517,-0.407058,1.51304,-1.54212,-1.66245,-2.65976,-1.69558,0.965141,0.304115,-4.15921,1.85684,
-12.504,10.3635,29.7415,1.44235,12.0979,6.7994,22.1856,0.829982,-12.0937,2.0475,30.1958,-0.428804,14.0755,7.29939,33.0974,1.51798,-13.4735,9.73306,30.3233,1.23775,11.4898,7.54465,22.1587,0.942786,-11.2401,1.98374,29.813,-0.747482,14.449,8.33354,35.8819,1.68195,0.06596,-0.641724,0.557945,-0.0836927,-0.621347,0.596424,0.07784,-0.644028,0.596875,-0.0665414,-0.6141,0.61211,-0.246609,-0.383281,1.30433,0.218982,-0.45168,1.15415,-0.224142,-0.590792,1.35682,0.285874,-0.43296,1.44362,-1.50965,-1.60852,-2.53795,-1.5032,1.37504,0.0514401,-3.39556,1.53277,
-12.1126,10.3409,28.5018,1.40471,12.8676,6.23159,21.0251,0.714118,-12.8978,1.47265,28.9158,-0.252185,13.9453,6.43826,30.3241,1.17359,-12.47,10.4472,29.312,1.41339,12.1004,6.87196,21.7083,0.774099,-12.107,1.90024,29.7791,-0.479866,14.0405,7.43285,32.7107,1.37938,0.0655366,-0.643239,0.565806,-0.0834351,-0.622662,0.605964,0.0783886,-0.639496,0.606225,-0.0655451,-0.617261,0.621488,-0.237695,-0.384926,1.28117,0.238268,-0.467289,1.13594,-0.24385,-0.600383,1.33287,0.283519,-0.457867,1.38415,-1.38999,-1.51516,-2.31756,-1.22234,1.41943,-0.0869255,-2.82193,1.12485,
-12.129,9.78906,27.7192,1.32161,13.3717,5.92479,20.0066,0.720627,-13.7129,0.904975,26.7855,-0.136281,14.2606,5.66408,28.6544,0.942591,-12.086,10.4123,28.1276,1.42259,12.8756,6.26237,20.7469,0.668831,-12.9065,1.45789,28.5307,-0.331035,13.9202,6.51971,30.0935,1.09449,0.0649424,-0.644147,0.571877,-0.0834856,-0.623488,0.612824,0.0786385,-0.637487,0.613279,-0.0649151,-0.619393,0.627495,-0.238716,-0.399513,1.2682,0.250834,-0.476149,1.11889,-0.263973,-0.613207,1.28701,0.2921,-0.479313,1.34835,-1.37218,-1.40299,-2.05176,-1.05946,1.27104,0.0382649,-2.32433,0.825719,
-12.5819,8.67074,27.5895,1.08466,13.4368,5.69203,18.9922,0.688309,-14.121,0.322889,24.78,-0.322325,14.9924,4.89636,27.8206,0.651536,-12.1045,9.80838,27.3846,1.28644,13.3672,5.96035,19.663,0.622624,-13.7316,0.882395,26.4726,-0.399114,14.2243,5.74802,28.3924,0.834871,0.0642173,-0.644955,0.580287,-0.0834844,-0.62447,0.6218,0.0790126,-0.636273,0.622097,-0.0640418,-0.621818,0.634763,-0.250714,-0.428522,1.27495,0.252401,-0.482512,1.10117,-0.27379,-0.627875,1.24651,0.311289,-0.500649,1.33419,-1.39888,-1.22402,-1.62652,-0.839958,0.770433,0.152603,-2.27118,0.463115,
-13.3263,7.26275,27.2368,0.720127,13.3609,5.7439,17.6036,0.61402,-14.1536,-0.565053,22.0467,-0.598122,15.7537,4.50643,27.468,0.420668,-12.5561,8.66718,27.2647,1.04064,13.4363,5.72247,18.6858,0.57763,-14.1308,0.350141,24.4875,-0.548521,14.9668,4.95061,27.6132,0.563124,0.0635641,-0.645209,0.58876,-0.0834307,-0.625326,0.630171,0.0793514,-0.636359,0.630164,-0.0632514,-0.623612,0.64083,-0.270005,-0.4641,1.27598,0.25066,-0.482313,1.07534,-0.274387,-0.651412,1.18729,0.330963,-0.511774,1.33068,-1.28317,-0.97486,-1.22346,-0.660253,0.15708,0.25318,-2.4197,0.181083,
-14.4089,5.68642,26.9023,0.315585,13.1034,6.175,16.7089,0.644988,-14.2793,-1.34758,18.9463,-0.870966,16.8844,4.2285,28.0321,0.309139,-13.3006,7.22669,27.0041,0.682391,13.3664,5.74085,17.4531,0.543636,-14.1517,-0.541375,21.9227,-0.796619,15.7462,4.51813,27.3526,0.375849,0.0629766,-0.645015,0.595033,-0.0835042,-0.625768,0.635839,0.0794256,-0.637125,0.635526,-0.0628695,-0.624399,0.644567,-0.297659,-0.503103,1.27055,0.243894,-0.471759,1.05785,-0.277536,-0.671606,1.11302,0.359469,-0.519024,1.34774,-1.11134,-0.803534,-0.81865,-0.568153,-0.480173,0.486442,-2.56058,0.0501247,
-18.8435,2.1162,25.2608,-0.615449,11.2973,8.01747,16.6375,1.22392,-13.4095,-3.41689,14.4274,-1.76827,21.5189,5.23163,30.1405,0.742455,-14.3783,5.62138,26.4953,0.291943,13.1023,6.13503,16.5568,0.545138,-14.277,-1.25652,18.7269,-1.1019,16.8769,4.188,27.9424,0.262687,0.0621482,-0.64384,0.60322,-0.0836889,-0.62562,0.642061,0.079391,-0.639116,0.642236,-0.0625693,-0.624205,0.648073,-0.409253,-0.589534,1.23667,0.198604,-0.424939,1.06087,-0.255839,-0.725687,1.00561,0.475526,-0.492883,1.40271,-1.07369,-0.630352,-0.349471,-0.47342,-2.30459,1.81749,-3.88601,1.01149,
-30.0914,-6.30043,22.1154,-2.90455,7.79013,12.8197,17.6458,2.97818,-12.1211,-7.91197,6.32699,-3.90782,34.0865,8.92261,35.7746,2.15329,-18.7938,2.09077,25.1061,-0.686211,11.3377,7.96425,16.6179,1.14336,-13.4077,-3.3316,14.3278,-1.86857,21.5169,5.16638,30.1552,0.687149,0.0613612,-0.642746,0.606802,-0.084189,-0.624882,0.644491,0.0793264,-0.640853,0.64533,-0.0625015,-0.623121,0.648779,-0.691718,-0.799264,1.16197,0.110037,-0.303745,1.08749,-0.22365,-0.840263,0.805648,0.789794,-0.398909,1.54317,-0.928848,-0.404809,-0.143153,-0.359101,-6.73795,5.55154,-7.95879,3.94749,
-44.4926,-18.7009,20.2772,-6.29012,7.44431,19.8251,14.442,5.71444,-14.3748,-11.1911,-2.56691,-6.54114,52.0359,15.3442,43.3269,4.0794,-29.9249,-6.34707,22.1706,-3.02007,7.95468,12.7657,17.6359,2.77577,-12.1894,-7.74168,6.18916,-3.81817,34.0106,8.77544,35.9148,1.9919,0.0587342,-0.641342,0.608175,-0.0865752,-0.623754,0.646261,0.0800961,-0.644143,0.648947,-0.0615343,-0.620435,0.647172,-1.05605,-1.10808,1.11454,0.0972253,-0.127355,1.00852,-0.278382,-0.926078,0.58766,1.24051,-0.234578,1.72835,-0.693071,-0.0945505,-0.501461,-0.0290916,-13.2733,11.3343,-13.5837,8.1297,
-41.7382,-22.2416,24.0708,-7.7089,12.4194,19.1336,5.00535,7.47708,-17.8323,-7.45832,-3.78234,-6.52119,58.6178,16.2474,45.674,5.55436,-35.9571,-18.67,20.5607,-6.4113,8.44253,19.3673,14.6759,5.60397,-13.9753,-11.0364,-2.96979,-5.86217,37.5928,14.7268,43.9586,4.06566,0.0414624,-0.640942,0.603697,-0.102325,-0.616768,0.644112,0.0756676,-0.648752,0.657072,-0.0653663,-0.609786,0.636549,-1.01525,-1.19742,1.20211,0.195977,-0.132908,0.766593,-0.375406,-0.837037,0.567964,1.39534,-0.196204,1.77086,-0.44708,0.126583,-2.12723,-0.00184247,-15.8649,15.0807,-15.1696,11.1069,
-34.4437,-18.512,27.37,-7.54455,13.0666,16.1487,2.51449,5.69047,-18.1311,-5.83198,-5.68828,-4.77487,59.6248,14.5107,49.1263,6.78012,-34.9991,-22.2369,24.2829,-7.65284,12.5991,18.1648,5.86382,4.79212,-17.3246,-7.60575,-4.02383,-5.74964,38.0266,15.7112,46.2415,5.55372,0.0219297,-0.641341,0.598901,-0.113801,-0.602944,0.633719,0.0665823,-0.648541,0.663533,-0.0733124,-0.59854,0.624857,-0.856923,-1.10428,1.2791,0.207762,-0.182248,0.682077,-0.395893,-0.792369,0.526441,1.40959,-0.225769,1.84251,-0.56285,5.6855,-3.92969,-0.000483559,-15.652,17.0664,-13.4794,13.5598,
-26.0945,-13.6338,27.7532,-6.27006,8.16616,8.73743,7.92678,2.85277,-15.9736,-4.54853,-5.01909,-2.61501,59.2924,12.5951,52.1931,6.92817,-33.1315,-18.7042,27.7148,-7.22343,12.2024,13.98,4.54465,3.38194,-17.0348,-6.20401,-5.65036,-3.60475,38.6022,13.9206,49.9488,6.41415,-0.0103494,-0.63916,0.591216,-0.107839,-0.560826,0.595733,0.0451218,-0.642115,0.667807,-0.0871983,-0.58261,0.605727,-0.681766,-0.977367,1.27983,0.107725,-0.311823,0.765248,-0.369707,-0.750638,0.54214,1.38697,-0.258537,1.89806,-1.21754,10.413,-6.20264,0.746896,-13.7577,16.1185,-11.4327,14.6032,
-20.4034,-12.0527,28.9016,-5.20842,2.82166,1.04888,16.7914,2.53962,-13.0735,-3.47048,-2.36631,-1.6769,53.6454,12.9876,52.4881,6.13896,-25.381,-14.0779,28.359,-5.98109,7.18004,7.19077,9.35266,3.62702,-15.1684,-4.9134,-4.53451,-2.22172,38.577,12.3183,52.9058,6.47257,-0.0358184,-0.631537,0.579483,-0.0859866,-0.514303,0.552531,0.0207646,-0.632993,0.661678,-0.0943437,-0.570983,0.585886,-0.557641,-0.926392,1.2929,-0.0012044,-0.464563,0.95005,-0.317996,-0.714399,0.595971,1.2469,-0.241721,1.88722,-1.80741,8.61788,-7.04641,1.67748,-12.2242,13.6971,-10.4002,13.9554,
-19.1015,-14.3434,34.6398,-4.70795,4.28252,0.89816,18.7881,4.58029,-12.1463,-4.08841,0.843389,-2.15748,41.1221,14.385,49.3354,5.55218,-20.4241,-12.6277,29.7298,-4.99319,2.99452,1.55526,16.7807,5.50919,-13.2943,-3.79455,-1.77598,-2.1859,37.6514,12.9202,52.9751,5.96321,-0.0463001,-0.618454,0.560493,-0.0759129,-0.499725,0.533682,0.0127745,-0.624323,0.648402,-0.0833576,-0.566125,0.570296,-0.524262,-0.967292,1.41162,0.0311737,-0.481956,1.00172,-0.288248,-0.721581,0.661161,0.957682,-0.205112,1.79597,-1.85332,2.68029,-5.87708,2.03458,-11.2692,11.8409,-10.192,13.1389,
-19.4086,-16.2041,40.5937,-4.20429,6.16005,6.13899,13.5555,2.81326,-14.9243,-7.34989,1.74226,-3.2688,26.8396,12.8367,46.4624,5.6686,-19.8803,-14.8384,35.5203,-4.91596,3.47171,1.81625,18.441,3.68211,-13.9355,-4.54122,1.04844,-3.34056,35.7968,14.1846,49.7152,5.62172,-0.0368286,-0.603562,0.537947,-0.0658158,-0.51485,0.535796,0.0364186,-0.614526,0.638411,-0.0495615,-0.562605,0.559001,-0.511697,-0.999298,1.5421,0.0990498,-0.374148,0.878673,-0.312137,-0.791404,0.678664,0.647315,-0.238609,1.71445,-1.85021,4.45505,-3.39573,1.89283,-10.2588,10.0816,-9.93333,13.23,
-16.1522,-13.0224,39.9609,-3.90213,6.99799,11.2744,11.2729,2.26794,-15.7823,-9.7186,4.44088,-2.92099,18.1812,10.9027,47.0301,5.50941,-19.6173,-16.4191,41.2594,-4.75241,5.87176,7.05959,13.0412,2.7253,-16.2783,-7.72691,1.69733,-3.32311,25.5088,12.467,47.1146,5.39548,-0.0246279,-0.593388,0.520804,-0.051961,-0.537651,0.546238,0.0756303,-0.603907,0.635803,-0.00967921,-0.555795,0.546738,-0.424888,-0.916498,1.5142,0.127036,-0.269255,0.835503,-0.299578,-0.841279,0.746486,0.464781,-0.278743,1.71544,-1.19568,4.55572,-3.42875,2.41355,-8.99994,9.09159,-9.27074,13.4324,
-10.5716,-8.39127,34.7371,-4.04221,8.39835,11.6609,16.1832,1.91716,-15.086,-10.993,6.03955,-3.75951,14.8423,9.38871,48.3829,5.03775,-15.5039,-12.964,40.2066,-4.25334,7.58552,11.8439,10.9332,2.70709,-16.1771,-9.74933,4.05076,-3.10085,17.7725,10.6463,47.7147,5.24065,-0.0292142,-0.591458,0.511836,-0.0551568,-0.556339,0.55668,0.0976474,-0.598322,0.640005,0.0127923,-0.548122,0.530746,-0.302166,-0.802317,1.37747,0.146983,-0.274141,0.967399,-0.2719,-0.871982,0.795655,0.391745,-0.308619,1.72791,-0.48527,3.73167,-2.89791,2.95473,-8.5697,7.566,-10.4169,13.0302,
-4.83354,-4.78422,28.1099,-3.80327,10.4299,9.44611,23.6754,1.70842,-15.1382,-12.9042,6.66018,-4.89272,11.3371,9.67278,47.8764,4.37911,-9.69163,-8.23205,34.7712,-3.92648,9.25617,12.0205,15.7635,2.60281,-15.2568,-10.7774,5.39904,-3.79521,14.6321,9.38484,48.8278,4.81627,-0.0481296,-0.594486,0.509007,-0.0733786,-0.569088,0.566772,0.10608,-0.600158,0.652413,0.0219857,-0.544314,0.513541,-0.181256,-0.716232,1.21094,0.175624,-0.338846,1.16392,-0.269136,-0.925779,0.828412,0.309195,-0.303033,1.69982,-0.720586,2.39411,-3.00595,3.38017,-8.32713,5.81095,-12.7914,12.1384,
0.205568,-2.83711,24.099,-3.09158,12.3989,6.1759,30.0016,1.753,-15.4794,-15.6569,9.11728,-5.64386,3.85494,11.7215,41.2578,4.16344,-4.32512,-4.76166,28.2002,-3.51911,10.8624,9.68038,23.0493,2.32143,-15.6663,-12.6254,5.88324,-4.67414,10.7765,9.98221,47.9395,4.38962,-0.0656238,-0.596799,0.50735,-0.0890292,-0.576972,0.578937,0.115294,-0.606119,0.67008,0.0321058,-0.547847,0.50308,-0.0677807,-0.669086,1.11048,0.213933,-0.426124,1.33677,-0.263786,-1.00119,0.908843,0.136987,-0.258316,1.52879,-1.5158,1.13008,-3.22566,3.40119,-7.69895,4.63607,-14.5134,11.7281,
7.60013,0.292824,19.7781,-1.89825,15.4699,2.7894,36.656,1.84897,-15.3565,-17.6413,16.4373,-5.28854,-9.99527,15.2939,29.5985,4.57945,0.445964,-2.96796,24.2969,-2.98134,12.5781,6.36079,29.2576,2.12549,-16.256,-15.3984,8.28316,-5.41586,3.05254,12.1835,41.0876,4.32788,-0.0748972,-0.596289,0.505259,-0.0973659,-0.582568,0.59546,0.131478,-0.61273,0.690044,0.0490024,-0.556623,0.500086,0.111445,-0.588588,0.999889,0.286131,-0.516372,1.52447,-0.240974,-1.05818,1.11454,-0.18915,-0.179646,1.23841,-1.9608,0.321878,-3.96664,3.06483,-5.75731,4.01982,-14.5437,12.2237,
20.0554,6.94717,9.62249,0.0263923,20.2499,-2.33756,49.3411,1.34121,-15.1647,-18.8455,29.1418,-4.75954,-29.4234,16.5524,12.8203,4.91372,7.98664,0.207392,19.7216,-1.81515,15.791,2.97754,35.6467,2.01027,-16.0704,-17.3947,15.4684,-5.24791,-10.714,15.5691,29.5381,4.80946,-0.0825841,-0.594417,0.505967,-0.103977,-0.587533,0.617904,0.15078,-0.619632,0.713819,0.0687747,-0.564911,0.50064,0.413406,-0.41923,0.749347,0.397439,-0.648127,1.86438,-0.21794,-1.09457,1.45701,-0.655831,-0.154529,0.822435,-2.25628,0.0701393,-4.05619,2.69806,-2.2035,2.75256,-13.5753,12.5255,
32.3147,13.0299,-4.33237,1.85479,25.9941,-6.77853,60.745,1.22773,-19.2924,-21.3822,39.8712,-3.81808,-43.809,13.3955,-2.95163,4.09286,20.4992,6.87869,9.36351,0.1122,20.6436,-2.17898,48.472,1.37642,-15.5116,-18.7345,28.4574,-4.72949,-29.3027,16.5365,12.7184,4.42896,-0.090959,-0.592834,0.510776,-0.111486,-0.590983,0.636608,0.162324,-0.623638,0.731483,0.0760509,-0.567713,0.502595,0.708903,-0.265769,0.408183,0.530833,-0.763211,2.17192,-0.312231,-1.16079,1.7429,-1.0177,-0.233196,0.431699,-2.41358,0.000698836,-4.11762,3.79301,1.29599,2.45615,-11.7538,11.9787,
27.2068,12.0324,-3.62664,0.596103,27.2729,-8.89244,54.3843,2.96553,-27.2631,-19.6574,36.5099,-2.4552,-35.63,6.8284,-3.4883,1.14273,31.3156,12.5717,-4.88963,0.647944,26.3105,-6.53255,56.3692,1.11553,-20.0177,-21.2532,39.05,-4.09032,-36.2943,13.1576,-3.68283,2.36843,-0.087558,-0.586213,0.522062,-0.122559,-0.596571,0.667629,0.177777,-0.62754,0.755101,0.0581891,-0.565191,0.513437,0.607358,-0.278867,0.440225,0.554794,-0.822351,2.04554,-0.492842,-1.12095,1.67982,-0.854829,-0.39119,0.437224,8.27181e-05,0.228301,-3.56256,7.29208,1.19229,6.15936,-8.47297,9.57753,
10.8623,12.9301,1.86656,-0.709072,28.6041,-9.71478,43.2096,4.16645,-34.4703,-12.0732,29.9585,-1.1944,-10.5851,0.951617,1.46838,-0.400649,25.3311,11.4023,-4.62868,0.596266,27.9088,-8.38402,53.3395,2.1523,-27.6114,-19.3133,35.7922,-3.01725,-31.9178,6.82722,-5.2173,1.2566,-0.0514937,-0.572718,0.541819,-0.134017,-0.605815,0.696546,0.191846,-0.633394,0.774364,-0.00651133,-0.562199,0.543679,0.246973,-0.240251,0.603315,0.571691,-0.855979,1.79289,-0.664186,-0.940217,1.5344,-0.324261,-0.538124,0.605682,0.000216052,1.88879,-2.41488,7.06084,-1.41793,10.2217,-4.80367,6.25954,
-15.5512,3.74101,11.5196,-3.02214,30.9513,-0.0218792,23.8802,4.88564,-44.095,-6.82676,4.61834,-0.285892,26.0976,-5.34456,21.5176,-1.22188,8.79595,12.1098,0.362715,-0.665722,29.3763,-8.68321,42.2816,2.81202,-34.741,-11.4465,29.221,-1.77995,-6.49188,1.47965,-1.68359,0.741318,-0.00201319,-0.554498,0.573713,-0.152345,-0.624898,0.722285,0.19992,-0.645198,0.792559,-0.10592,-0.56837,0.605109,-0.360382,-0.448895,0.883201,0.610682,-0.640177,1.33342,-0.897367,-0.823567,0.916275,0.488243,-0.709175,1.18785,-0.0846282,4.65078,-1.44735,4.75025,-6.12891,14.4221,-2.01913,2.30648,
-35.4532,-19.9593,19.4745,-4.4494,29.9698,22.084,-5.05525,5.72446,-49.911,-13.664,-23.4788,-1.28967,60.3557,0.675986,26.8931,0.720366,-17.0567,3.47843,9.16745,-1.58423,31.1871,1.19417,23.1733,3.92426,-43.5651,-6.16632,4.23201,-0.967799,28.0329,-3.49811,15.97,0.64087,0.039298,-0.541912,0.617154,-0.163567,-0.650212,0.740627,0.209681,-0.658695,0.80404,-0.174867,-0.594293,0.702572,-0.819352,-1.03473,1.14289,0.580564,-0.119501,0.626491,-1.02905,-1.0116,0.223866,1.29545,-0.606601,1.46576,-3.01504,6.59581,-0.0145018,0.956578,-11.9138,18.0447,-2.59384,2.39731,
-35.7774,-20.4938,7.6678,-0.220763,19.4438,22.6362,3.27858,2.75172,-42.1786,-12.6945,-16.7522,-0.601979,60.5415,13.3675,41.7681,3.22225,-35.4071,-20.0721,17.3127,-2.71974,29.1328,22.3726,-3.45321,2.59559,-42.0328,-13.1891,-21.4771,-1.29656,40.9018,-1.31181,30.6914,1.15748,0.0763433,-0.548178,0.714295,-0.158347,-0.680013,0.739129,0.208784,-0.679963,0.793004,-0.156316,-0.58041,0.70174,-0.829721,-1.04555,0.90324,0.339243,-0.112006,0.792355,-0.876265,-0.998892,0.339297,1.36017,-0.238195,1.73969,-6.62435,12.969,-0.000697092,0.209171,-7.06588,18.4725,-1.20466,6.65366,
-22.3143,-21.685,17.8861,1.10314,14.9072,15.565,13.1811,-0.165095,-20.4557,-2.67983,3.05338,-0.137753,54.7869,8.93795,40.5853,5.14046,-34.078,-20.9405,8.41322,-2.00783,18.2012,20.893,6.99667,1.7131,-36.2903,-12.7033,-12.3814,-0.531529,41.7327,12.8975,42.0936,3.35498,0.045119,-0.529351,0.702112,-0.133388,-0.656542,0.665685,0.112863,-0.680025,0.707518,-0.163893,-0.568281,0.692158,-0.537422,-1.06468,1.1381,0.257776,-0.243835,0.944764,-0.478404,-0.74847,0.722304,1.19497,-0.338064,1.69864,-3.14272,15.0609,-0.0792332,-0.122133,-0.936449,14.7307,-0.35474,10.1588,
-20.4402,-21.1221,25.5963,-0.283176,6.02081,8.39702,18.2481,-1.11006,-5.92326,8.36526,7.80896,-1.03287,39.7682,4.41693,39.8813,5.38078,-21.9712,-21.6901,19.2864,-0.66872,11.4497,14.1311,14.3611,1.28859,-16.405,-1.56711,5.79184,-0.00740529,41.155,8.66437,40.7875,4.97966,0.0190371,-0.524018,0.675942,-0.0755156,-0.618166,0.606057,-0.00989062,-0.694301,0.620219,-0.166137,-0.558465,0.683916,-0.498919,-1.0519,1.29767,0.124675,-0.386472,1.04194,-0.218702,-0.501131,0.771575,0.836845,-0.442873,1.67907,0.692629,12.1102,-0.310933,0.168031,0.126277,9.89007,-2.37667,10.9296,
-22.0175,-18.461,33.5036,-0.538984,6.42559,6.8242,12.469,2.56326,-0.644993,16.2072,19.9653,-2.12657,18.1425,5.8149,34.7034,5.62984,-21.3152,-21.2,27.6311,-1.17807,5.8492,8.47821,18.5343,3.84728,-4.83778,9.89099,9.5802,-0.353958,37.6742,4.41588,39.9477,4.93274,0.0226961,-0.523096,0.63488,-0.0380675,-0.599678,0.579817,-0.0782678,-0.728724,0.55966,-0.133702,-0.554033,0.679935,-0.515566,-0.985266,1.44685,0.138726,-0.428359,0.89038,-0.113154,-0.343873,1.03002,0.349634,-0.406527,1.54464,2.22073,1.885,-1.56484,1.06489,1.14276,7.01152,-5.81798,12.3246,
-19.1949,-12.3015,37.9972,-0.916363,5.08204,4.64952,6.84135,1.6851,3.47803,15.656,32.7627,-4.73347,6.88661,2.82514,24.2407,4.52548,-22.5094,-18.339,34.5498,-0.8155,6.16015,6.99679,12.0195,2.99787,-1.49697,16.6285,20.3282,-2.89115,16.787,5.5789,35.0218,5.21151,0.0367771,-0.523961,0.60443,-0.024427,-0.601635,0.584395,-0.0838604,-0.747963,0.53553,-0.0983914,-0.55088,0.67614,-0.432544,-0.832462,1.52805,0.112095,-0.487259,0.761868,0.0114375,-0.368612,1.3415,0.103197,-0.476249,1.27752,3.10614,1.08285,-0.235725,1.99158,1.27341,4.45305,-9.70267,11.0425,
-11.6952,-4.43297,34.049,-1.40324,5.51876,1.61234,11.2783,-0.0568359,1.70874,12.0843,40.2355,-5.58221,5.33334,-2.50124,22.5666,2.39912,-18.6155,-11.9158,38.9457,-0.755184,5.6966,4.46919,6.60963,1.69111,2.30096,15.182,32.7084,-3.46684,6.15466,2.27644,25.2866,3.84354,0.0399912,-0.530342,0.570959,-0.0228045,-0.600889,0.592882,-0.0553309,-0.752848,0.527366,-0.062033,-0.539646,0.657732,-0.260121,-0.647746,1.40953,0.106611,-0.558254,0.877739,-0.00300582,-0.446565,1.53252,0.0827933,-0.594534,1.20682,2.47521,1.08232,-2.61599,3.34278,-0.331261,0.968647,-13.7804,8.14101,
-2.33908,2.37591,27.1686,-0.623913,7.32714,-3.92969,23.5603,-0.650847,-1.34569,8.35025,40.8068,-4.11871,5.11791,-2.44909,21.4019,1.48393,-10.4357,-4.20359,34.6259,-0.666144,6.80364,1.26217,11.1758,0.246199,1.79747,11.1129,39.9711,-3.73893,5.32026,-2.65855,23.5027,2.03879,0.0171248,-0.53902,0.550943,-0.0465774,-0.594639,0.596587,-0.048409,-0.736343,0.528242,-0.0520109,-0.530683,0.633399,-0.0588748,-0.485074,1.21932,0.118879,-0.688187,1.18626,-0.0823574,-0.513582,1.54987,0.0774718,-0.5883,1.15591,1.22011,0.394157,-6.04992,4.025,-0.027715,-0.907536,-14.2873,6.99285,
3.47874,4.42163,22.574,1.01698,9.42283,-5.33457,32.8411,-0.121465,-6.26352,4.69541,36.8515,-1.75338,1.35367,0.581453,18.3607,1.78618,-1.55668,2.43146,27.66,-0.0135246,8.13168,-4.14482,23.3104,-0.453581,-1.73266,7.10969,40.1761,-3.09444,4.65219,-2.24186,21.9031,1.42427,-0.00828492,-0.543771,0.536145,-0.0728319,-0.587264,0.6009,-0.0444868,-0.709097,0.536667,-0.0454638,-0.530308,0.614894,0.0666893,-0.435436,1.09183,0.150942,-0.716863,1.42694,-0.195786,-0.573964,1.46217,-0.00469151,-0.518859,1.06526,-0.000762108,0.120663,-8.30478,4.07615,2.03319,-0.122267,-11.8115,7.64852,
6.8392,5.65419,19.3335,1.99441,11.4468,-4.25048,37.0186,0.780254,-11.3921,-0.191908,35.7968,0.0472283,-6.40877,3.82806,13.9696,2.27923,3.70703,4.57709,23.0873,1.01708,9.61712,-5.28703,32.1869,-0.147398,-7.22308,3.46643,36.23,-1.54877,0.331762,0.967961,18.5488,1.78896,-0.021774,-0.547654,0.52199,-0.0855517,-0.58438,0.612057,-0.0278969,-0.678442,0.549042,-0.0269289,-0.537611,0.605885,0.144978,-0.408607,0.997713,0.196899,-0.689513,1.54497,-0.299319,-0.664683,1.45169,-0.17268,-0.446995,0.952144,-0.000796944,0.000860989,-8.72254,4.09251,3.98803,1.56137,-8.62808,8.65096,
11.2484,7.4797,14.4288,2.58677,13.5572,-3.81296,39.3244,1.66269,-15.1927,-3.72976,38.5939,0.568602,-14.2348,5.67272,9.53039,2.43325,7.14275,5.86972,19.5993,1.99446,11.683,-4.18826,36.1202,0.761939,-12.2778,-1.10505,35.1836,-0.520199,-7.41038,4.14351,14.1993,2.26239,-0.0288934,-0.552326,0.511925,-0.0914216,-0.584529,0.630177,-0.00501668,-0.650894,0.563319,-0.0010873,-0.546376,0.600045,0.247397,-0.368501,0.868356,0.243577,-0.680157,1.62565,-0.371684,-0.729832,1.53737,-0.343135,-0.409398,0.834413,-0.000771135,0.0330657,-7.56437,4.14443,5.17276,3.35844,-6.42717,9.01093,
18.1268,9.23603,7.56085,2.62708,16.6099,-5.22625,42.3368,2.1277,-17.1248,-5.80215,42.188,-0.173483,-20.1427,5.41601,5.09243,2.07597,11.8588,7.74103,14.4567,2.57199,14.1244,-3.76377,38.5459,1.53205,-15.6151,-4.12871,37.9524,-0.228191,-14.654,5.79508,9.8363,2.31226,-0.0397451,-0.557684,0.508353,-0.100963,-0.585358,0.649273,0.0107929,-0.63454,0.578207,0.0155401,-0.551734,0.593766,0.403102,-0.330748,0.697042,0.30517,-0.716748,1.72098,-0.409294,-0.771458,1.6437,-0.479228,-0.419273,0.716454,0.00343568,0.300133,-5.93264,4.41613,5.25761,4.55553,-6.2796,8.56807,
24.6566,10.1332,2.89666,2.12524,20.7051,-6.7174,44.3205,2.28263,-17.822,-8.36642,43.3749,-1.58744,-24.4419,6.26181,1.32978,1.84134,19.0957,9.67522,7.28835,2.62811,17.7455,-4.97476,41.0958,1.76798,-17.5231,-6.00843,41.2627,-1.22338,-20.4279,5.68102,5.5785,2.19363,-0.0644315,-0.568278,0.511893,-0.126688,-0.589598,0.680552,0.0245708,-0.623781,0.603516,0.0279463,-0.558254,0.581761,0.542103,-0.319679,0.588089,0.378626,-0.760442,1.80212,-0.416452,-0.832196,1.70119,-0.579999,-0.405212,0.610794,0.0496634,1.02957,-4.06082,4.21197,4.30014,5.59482,-7.2357,7.89464,
23.892,9.94586,2.85899,1.18276,24.4125,-6.98644,43.1881,2.59417,-16.5792,-11.0054,43.4666,-2.34501,-25.5202,7.3476,-0.563155,1.566,24.44,10.3159,2.41357,2.0816,21.1533,-6.43823,43.6739,1.98588,-18.153,-8.33601,43.0599,-2.04213,-24.2453,6.61372,1.17178,1.96761,-0.0700058,-0.573699,0.519495,-0.140874,-0.594728,0.697332,0.0313944,-0.622877,0.617294,0.028528,-0.564349,0.579858,0.52907,-0.329152,0.599192,0.459772,-0.774399,1.79051,-0.376579,-0.896927,1.71639,-0.61222,-0.38723,0.567718,0.164633,1.63784,-3.44033,3.95572,2.53016,6.82618,-8.13035,7.08773,
11.9722,8.81174,7.5844,-0.111973,26.9467,-5.55361,35.3822,3.11474,-15.744,-11.2705,39.7132,-2.55331,-19.1062,7.46607,0.283127,0.728661,22.5866,10.1109,1.87905,1.26499,24.7017,-6.44098,42.3274,2.11508,-17.2662,-10.9412,42.96,-2.65557,-24.4819,8.02986,-1.56743,1.51632,-0.0528841,-0.579128,0.538419,-0.152751,-0.605698,0.719722,0.0452048,-0.623749,0.632127,0.0138562,-0.578539,0.593298,0.264985,-0.3618,0.742805,0.515805,-0.752595,1.61739,-0.338299,-0.907397,1.63059,-0.478728,-0.401764,0.614859,0.000159166,2.61688,-2.45395,4.06365,-0.223787,8.84636,-7.56058,5.52097,
-5.19254,5.68846,16.1113,-1.86901,28.211,-1.44009,23.4743,3.97944,-14.1599,-8.81306,28.7053,-1.79184,-6.13253,3.51938,6.75466,0.0790092,11.0031,8.85168,6.69961,0.333331,27.374,-4.83303,34.6658,2.39847,-16.3804,-11.1606,39.2184,-2.87644,-17.5377,7.97593,-0.990689,1.36183,-0.0238861,-0.582304,0.56286,-0.162457,-0.622195,0.741178,0.0621918,-0.626854,0.645402,-0.0184154,-0.593808,0.621654,-0.139085,-0.44106,0.979179,0.536672,-0.669764,1.34153,-0.282135,-0.850856,1.37249,-0.194709,-0.513442,0.80943,-0.851086,3.95447,-2.12557,2.79823,-4.58911,11.9133,-5.70926,2.95625,
-24.9797,-12.817,35.728,-3.60676,31.7581,17.4948,-0.88257,6.50831,-11.3491,-3.77811,10.6292,-0.960468,14.7156,-2.60669,25.6255,1.34712,-4.10526,5.03164,16.5427,-0.738417,28.8254,-0.520912,22.8416,3.13291,-14.6277,-8.43337,28.3473,-2.17378,-5.47967,3.73027,6.25187,1.40435,-0.0266988,-0.574561,0.568301,-0.175494,-0.642797,0.759459,0.0758844,-0.633807,0.657996,-0.0471742,-0.603196,0.645143,-0.661164,-0.886473,1.45979,0.610085,-0.219297,0.74689,-0.199984,-0.733392,0.932963,0.309551,-0.670931,1.29213,-3.152,5.66854,-1.11779,0.299024,-10.3655,18.6852,-3.03873,2.99327,
-38.2877,-27.0237,42.9085,-4.89065,27.3512,23.0407,-9.7903,3.87856,-17.5899,-3.64069,-12.2427,-0.35635,30.8609,2.27874,43.5471,0.834389,-24.6009,-13.3441,35.8617,-3.76039,29.9684,16.9331,0.892128,3.2027,-12.0763,-3.06138,10.0916,-1.2109,13.4422,-3.10568,26.3579,0.417918,-0.0398043,-0.561027,0.563565,-0.161555,-0.649209,0.747752,0.0923137,-0.647906,0.672431,-0.0365363,-0.59725,0.638335,-1.00348,-1.23006,1.63183,0.546314,-0.0657976,0.478165,-0.337685,-0.748619,0.375806,0.74542,-0.535001,1.71905,-3.19363,12.4088,-0.530611,2.31034,-12.9749,20.1659,-1.24331,3.97912,
-28.44,-25.8725,31.5821,-3.80247,5.1288,8.68988,1.47079,-1.02603,-24.5421,-5.43311,-13.3482,-1.09146,43.0257,7.0927,41.6339,3.17202,-32.5764,-27.2929,42.9672,-5.86229,21.7912,19.2147,-3.15484,1.49698,-16.1958,-3.82641,-10.4607,-0.621248,30.1378,1.75722,44.0116,1.30814,-0.0510231,-0.551177,0.560635,-0.0646716,-0.589551,0.631889,0.084549,-0.655043,0.657912,-0.0159853,-0.585289,0.624771,-0.766953,-1.19723,1.35282,0.133398,-0.326569,0.590147,-0.547722,-0.788502,0.302245,1.06802,-0.402449,1.66202,-1.77916,17.0309,-0.000798286,1.17771,-9.3841,14.9789,-2.18372,7.52174,
-15.8136,-19.2592,26.4319,-2.70802,-11.9085,-1.66438,13.9656,-3.05591,-17.3461,-0.277942,1.26763,-2.17541,45.1996,7.74946,41.5,4.4773,-27.9404,-25.7848,31.6942,-4.32675,2.62408,7.23379,3.86,-0.0806048,-22.8011,-5.69586,-11.929,-1.0916,35.2382,6.78818,42.0278,3.22809,-0.0574893,-0.551324,0.561245,-0.000981506,-0.552016,0.563957,0.0599784,-0.651351,0.632888,-0.012174,-0.57951,0.618822,-0.464683,-1.03641,1.22556,-0.227225,-0.547279,0.840414,-0.414043,-0.652722,0.630288,1.1187,-0.378078,1.64841,-0.253528,15.0455,-0.000504199,1.0631,-5.66957,8.93365,-4.35132,10.0177,
0.610044,-7.01811,21.7781,-2.58499,-24.9299,-6.74344,23.178,-0.963211,0.359792,6.11902,12.2737,-2.11517,41.1757,6.41102,43.1936,2.36221,-14.2654,-18.6632,26.2383,-2.99616,-14.7092,-2.46551,13.9395,0.487044,-12.6549,-0.154188,2.63665,-1.20964,35.8572,7.26141,42.0781,4.19149,-0.0873926,-0.561437,0.565174,0.0989522,-0.499021,0.49834,-0.0348723,-0.647285,0.583805,-0.0192977,-0.566778,0.603983,-0.0935274,-0.743962,1.11075,-0.481855,-0.654577,1.07278,-0.0916858,-0.496154,0.870853,1.00295,-0.399806,1.67262,0.723321,7.87306,-1.96114,1.69346,-4.44666,5.94664,-6.19148,6.41787,
3.12698,-3.21195,27.6546,-1.99931,-19.2797,-5.29299,11.537,1.21572,4.53542,10.1625,15.6419,-3.4876,24.1467,-0.0473888,38.8422,2.25464,0.866685,-6.86646,22.1715,-2.21748,-23.6456,-5.72797,22.2055,1.47554,0.535787,6.45518,12.2773,-2.5234,34.856,5.83731,43.5253,2.81713,-0.111477,-0.569642,0.562817,0.115098,-0.503911,0.51341,-0.103027,-0.654612,0.568781,-0.0152089,-0.553575,0.591815,-0.0372529,-0.651389,1.24989,-0.371113,-0.645584,0.809214,0.00879315,-0.403719,0.954605,0.604134,-0.545158,1.55892,0.152223,2.90373,-1.01013,0.854259,-3.8464,5.33517,-7.98533,5.36353,
3.85048,-3.04802,33.354,-0.775924,-16.8401,-0.952112,6.76364,-0.167399,-2.02196,7.53931,17.664,-2.73748,7.84712,-0.712819,31.619,3.91824,2.27536,-3.32416,28.3056,-1.92996,-20.0723,-4.32649,10.822,0.767464,1.96826,9.84781,15.3394,-2.30513,21.8503,-0.429655,38.8809,2.30176,-0.103666,-0.569863,0.549601,0.121787,-0.523284,0.527847,-0.0687245,-0.654083,0.570058,0.0279206,-0.540894,0.586058,0.00342869,-0.645893,1.37272,-0.288883,-0.561202,0.70692,-0.0892611,-0.460538,1.01382,0.255449,-0.553617,1.37391,-0.140749,3.89606,-3.34751,0.882069,-1.6926,3.56126,-8.82247,8.71855,
12.0327,2.0414,28.8425,0.551215,-14.2851,0.737551,13.6086,-0.76884,-4.05754,2.68735,25.3828,-1.68288,-4.52867,1.23671,24.7352,4.73901,3.8768,-2.96399,33.5816,-0.795679,-16.7754,-0.177077,6.22491,-0.0141522,-3.24394,6.87039,17.3134,-1.73916,6.63442,-0.825041,31.8488,3.21204,-0.0935324,-0.56987,0.536836,0.131008,-0.546019,0.544172,-0.0258525,-0.641589,0.575454,0.071284,-0.534422,0.582752,0.206243,-0.519243,1.25059,-0.227573,-0.539239,0.892682,-0.109327,-0.565084,1.21475,-0.0228929,-0.500793,1.19874,0.0590214,3.50436,-5.45365,2.27928,1.16145,1.96668,-8.81941,11.7573,
26.3522,9.12623,13.0249,1.60966,-8.79279,-2.27692,30.9839,-1.70611,-5.32276,-3.2794,32.0476,-1.66874,-16.4395,5.22184,16.1262,3.93083,13.1147,2.33258,28.7429,0.561611,-13.1639,0.996222,13.3897,-0.307571,-4.10419,2.08623,24.6139,-1.30977,-4.61496,1.45016,25.3274,3.76317,-0.107574,-0.57444,0.531574,0.116134,-0.55957,0.553757,-0.00905914,-0.625611,0.589314,0.0892189,-0.534621,0.572204,0.535441,-0.350854,0.854924,-0.119828,-0.621823,1.33131,-0.140001,-0.69895,1.40111,-0.319231,-0.40575,0.966112,-0.0114753,2.45731,-6.21173,4.28558,3.20784,-0.954922,-9.5492,12.1472,
40.4343,12.0492,-2.11822,2.83834,1.26393,-4.48696,50.3894,-1.85975,-8.13237,-8.76963,36.3313,-1.55949,-29.7723,7.84242,3.52129,2.94718,27.5732,9.38622,12.8882,1.6237,-7.49663,-2.33569,30.7983,-1.04271,-5.23813,-3.76806,31.2459,-1.73661,-16.3999,5.62641,16.6676,3.48512,-0.13763,-0.581395,0.531588,0.0855145,-0.563022,0.559699,-0.00866026,-0.611768,0.608541,0.0904542,-0.541411,0.556994,0.85525,-0.283837,0.478331,0.0992515,-0.673854,1.82463,-0.212352,-0.823762,1.5287,-0.654184,-0.351209,0.635619,1.29009e-05,0.855191,-6.07174,5.25487,5.67669,-2.86432,-9.19071,11.1492,
38.6184,10.2108,-5.04931,2.37917,11.1401,-7.39875,62.303,-0.966688,-9.52502,-15.4389,38.4787,-1.38441,-36.6515,8.03331,-4.83659,2.52365,39.3807,12.1983,-2.67454,2.1247,1.66334,-4.61862,50.0614,-1.35608,-8.59683,-9.13676,35.9182,-2.06624,-29.6522,8.41203,3.52415,3.11031,-0.140752,-0.585758,0.536943,0.0675841,-0.560228,0.565184,-0.00437696,-0.602321,0.621277,0.0893328,-0.551651,0.550152,0.837716,-0.333622,0.419638,0.336893,-0.740638,2.12546,-0.23548,-0.979078,1.58881,-0.829737,-0.361365,0.427179,1.46168,0.110387,-5.30713,5.01323,6.22002,-1.82299,-8.07596,10.0605,
16.732,8.11761,-1.22364,0.359542,15.8126,-8.66934,54.0042,1.11034,-12.3303,-17.3757,39.93,-1.68704,-26.8159,7.67797,-4.67199,0.838676,33.9248,10.4064,-6.72657,1.5677,11.0296,-7.54738,60.3202,-0.986615,-10.8657,-16.0519,38.478,-2.49661,-34.5286,9.10311,-5.74901,1.6175,-0.0634531,-0.591525,0.568641,0.0600766,-0.555245,0.581019,0.021415,-0.586015,0.629084,0.058897,-0.577039,0.560491,0.410756,-0.390915,0.55819,0.455805,-0.771701,1.94354,-0.270918,-1.01409,1.62969,-0.638492,-0.397466,0.454759,3.1006,-0.169736,-2.70725,6.84157,3.81968,2.05093,-6.08133,8.51892,
-5.28278,10.9061,2.33855,-0.724752,17.419,-11.6144,41.4263,2.03253,-16.7478,-9.8449,42.3406,-1.35056,-6.42302,2.85728,2.90148,-0.42571,13.8609,8.41072,-2.88517,0.874619,16.0641,-8.8115,53.8261,0.85774,-12.8072,-17.4365,40.1273,-2.43478,-24.3332,8.16033,-5.54035,1.04843,0.00991999,-0.596318,0.601428,0.0583709,-0.553661,0.592507,0.0387406,-0.579628,0.62893,0.0122798,-0.591898,0.578131,-0.0656789,-0.328805,0.690245,0.489901,-0.844424,1.6398,-0.368729,-0.822065,1.68995,-0.193025,-0.530312,0.666551,2.04835,0.673573,-1.51583,6.41168,0.598849,4.73864,-4.21695,5.56026,
-22.9284,13.5283,1.19442,-0.671224,21.7977,-11.2258,29.8774,1.54146,-22.4135,-0.27191,30.6986,-1.59895,17.1306,-1.31737,15.2334,-0.673676,-7.31934,11.1549,-0.0263189,0.299321,18.5837,-11.3545,41.1192,1.20583,-16.7468,-9.41513,42.1476,-1.86663,-2.72755,3.78235,0.547975,0.821356,0.0844414,-0.604286,0.657962,0.0406555,-0.556062,0.604186,0.0485563,-0.582497,0.633511,-0.0718663,-0.611897,0.620843,-0.455114,-0.269511,0.722045,0.569676,-0.839387,1.35434,-0.510303,-0.596001,1.40869,0.301136,-0.65839,1.03534,0.000206556,2.61963,-0.757314,3.88617,-1.34224,5.70256,-3.95521,2.53882,
-28.1946,3.49799,8.4321,-2.13619,22.8747,-5.96818,15.2192,1.19723,-27.7077,-4.76864,8.49897,-1.55988,34.7616,-0.331034,19.2591,-0.0326827,-23.3308,12.7724,0.231776,-0.671093,22.9189,-10.4984,29.5052,0.652538,-22.6476,0.184271,30.3167,-1.40668,19.8164,0.645517,13.176,0.279893,0.119695,-0.598783,0.701801,0.0126455,-0.567355,0.611538,0.0511428,-0.594097,0.644913,-0.154368,-0.646384,0.708558,-0.574495,-0.501227,0.927104,0.570115,-0.726162,0.994432,-0.635821,-0.723893,0.868395,0.711258,-0.650713,1.19031,-0.00030633,4.20482,-1.35052,1.83443,-4.27268,6.59928,-4.47028,1.76906,
-29.348,-11.3365,21.1295,-3.6247,16.3033,5.71831,6.48922,1.1492,-28.0682,-8.291,-11.293,-2.03198,40.2826,0.143481,32.5719,-1.83034,-27.8885,2.84768,7.0628,-1.22014,23.4082,-5.00321,15.0342,0.619753,-28.4805,-3.93564,8.05447,-1.84472,33.6809,-0.888675,20.156,-0.0247019,0.125487,-0.581404,0.730349,-0.00664766,-0.587763,0.616331,0.0652479,-0.613784,0.660099,-0.141465,-0.635421,0.69517,-0.611459,-0.855454,1.27974,0.39194,-0.458316,0.779642,-0.625589,-0.833531,0.385483,0.877475,-0.625353,1.50207,-1.85553,5.47343,-0.84963,1.67261,-9.10494,7.77184,-4.91358,-1.98806,
-24.5079,-26.5897,29.5711,0.128303,8.68174,13.1787,4.35906,2.10712,-20.5837,-3.76271,-7.17624,-1.95698,39.316,4.33197,35.3704,0.372421,-28.9159,-12.5979,22.3331,-1.59719,16.7539,6.49309,6.73874,1.37916,-26.9676,-7.90556,-10.0418,-2.21611,39.2514,-0.419618,32.9923,-1.02807,0.116344,-0.56037,0.739546,-0.01993,-0.609258,0.614688,0.0623899,-0.629734,0.652178,-0.122137,-0.622903,0.68384,-0.501234,-1.20572,1.4625,0.190319,-0.291627,0.720234,-0.467045,-0.730009,0.455918,0.872663,-0.507536,1.56433,-6.05704,5.00319,-0.399301,-0.0927294,-5.80044,9.21743,-4.31325,0.652113,
-23.8064,-31.1526,31.615,0.693387,5.59584,15.7443,7.71405,2.68729,-10.5881,-0.531227,-2.17977,-1.64199,31.161,6.50649,36.3523,2.45481,-24.2066,-27.3589,30.9392,-1.52901,8.80746,13.5396,4.93943,2.56123,-18.2315,-3.87343,-5.19115,-2.13127,38.4863,3.80283,35.8623,0.397702,0.10818,-0.533127,0.707939,-0.0278096,-0.624283,0.604606,0.0195837,-0.633932,0.612388,-0.102921,-0.610422,0.674795,-0.491434,-1.30027,1.47852,0.11021,-0.236714,0.789279,-0.277817,-0.646185,0.529979,0.686727,-0.440788,1.5793,-2.67579,3.98144,0.00990087,-0.0595625,-1.28902,9.35603,-3.27408,4.85006,
-24.2847,-28.2584,35.1217,-0.226855,6.68552,15.8299,8.44182,3.02465,1.10102,1.74105,5.32546,-1.76207,19.9283,3.5208,39.4057,4.06367,-23.3714,-31.1442,33.0734,-1.13226,5.95587,15.7713,8.164,3.34391,-8.51507,-1.14788,-0.471599,-1.64931,30.5289,5.77692,36.994,2.40573,0.0988866,-0.523144,0.671662,-0.0336109,-0.629915,0.59148,-0.0356744,-0.625224,0.565889,-0.0859148,-0.594917,0.661805,-0.514524,-1.22823,1.52888,0.128394,-0.235069,0.795868,-0.0384709,-0.573632,0.674068,0.421704,-0.495452,1.63616,1.02987,2.76452,-0.0182464,-6.17032e-06,0.576161,8.81382,-3.5424,8.12733,
-26.1053,-22.6972,37.7044,-1.86563,10.1057,13.4584,7.13969,3.47404,10.0367,3.26721,10.5403,-1.26769,11.7304,-1.14645,38.9347,4.48203,-23.8118,-27.793,36.2695,-1.1023,7.23226,15.6308,8.6708,3.57818,1.54956,1.55397,5.88366,-1.28782,19.2973,2.80969,40.2497,3.7008,0.0875483,-0.526861,0.63847,-0.0448295,-0.62824,0.582935,-0.0685655,-0.615517,0.536295,-0.0700253,-0.576046,0.643329,-0.57225,-1.0987,1.55911,0.20015,-0.289083,0.757639,0.173388,-0.530879,0.790192,0.232937,-0.592446,1.60624,3.20123,1.50483,-1.01284,0.791707,-0.530037,8.45291,-3.54821,9.75576,
-27.2414,-16.5004,34.7648,-3.10236,13.9093,12.5209,9.18302,3.12824,7.81624,3.2523,11.9783,-1.06087,10.0432,-2.61872,39.0043,3.72005,-25.7925,-22.0848,38.6188,-2.1159,10.4715,13.2109,7.4076,3.65464,8.89974,3.52627,10.1463,-0.831366,11.0242,-1.58838,39.7862,3.7342,0.078887,-0.539271,0.613129,-0.0558797,-0.623324,0.576545,-0.0589966,-0.617044,0.534792,-0.0524635,-0.560342,0.622093,-0.608635,-0.961958,1.46698,0.286186,-0.306006,0.802017,0.146344,-0.53818,0.837054,0.209059,-0.619752,1.5824,3.31017,1.26228,-1.92257,2.39002,-2.89454,7.51877,-4.04432,9.83011,
-28.1578,-14.8146,34.0295,-4.07196,15.9067,11.646,13.2223,2.92361,4.61476,1.88818,11.2284,-1.71093,11.4015,-0.670835,38.9482,2.65184,-26.7478,-16.084,36.1172,-2.67577,14.3712,12.1836,9.37541,3.38128,7.13006,3.45288,11.6209,-0.840942,9.37818,-2.55967,39.5828,3.12634,0.0659138,-0.553407,0.580706,-0.0663504,-0.614581,0.570466,-0.0417324,-0.621362,0.540995,-0.0351622,-0.554809,0.601714,-0.644086,-0.932582,1.41847,0.324679,-0.319156,0.897854,0.0835776,-0.576658,0.825679,0.260401,-0.570972,1.56228,2.83839,0.855466,-2.28199,3.70434,-5.30553,6.70268,-5.70384,9.00802,
-28.5578,-15.5727,35.0143,-4.34658,16.6616,11.0626,15.4801,3.13086,1.04918,0.34069,9.01901,-2.21241,13.0326,0.574567,38.6602,2.12968,-27.8429,-14.6063,35.0143,-3.41965,16.2719,11.3166,13.337,3.15463,3.88173,2.04955,10.7203,-1.42597,10.6649,-0.357317,39.4094,2.46843,0.0567145,-0.56374,0.557348,-0.0766483,-0.606963,0.566287,-0.024079,-0.625502,0.550571,-0.0168998,-0.55808,0.584319,-0.662129,-0.957725,1.42001,0.334616,-0.325475,0.95189,0.0130414,-0.618691,0.781691,0.32038,-0.546223,1.5395,1.37745,0.273324,-2.92145,3.9638,-7.31571,6.53504,-7.34627,8.22316,
-28.6854,-16.0061,35.3691,-4.14438,16.9295,12.2633,15.6762,3.86365,-3.47221,-0.832335,7.0095,-2.34569,15.7979,2.74972,41.4144,2.1833,-28.3215,-15.4866,35.4836,-3.88091,16.9329,10.772,15.5094,3.26746,0.524064,0.373344,8.58258,-1.98503,12.4893,0.823256,38.9349,2.16147,0.0506441,-0.568198,0.543108,-0.0834536,-0.600006,0.56483,-0.0104975,-0.627355,0.55961,-0.00283427,-0.56259,0.572698,-0.67151,-0.972111,1.41942,0.334745,-0.288025,0.956684,-0.0864029,-0.649209,0.742206,0.403233,-0.496685,1.59759,0.0776368,0.0764265,-3.32846,4.02126,-8.21112,7.80373,-8.01984,8.38786,
-28.0269,-15.7352,36.0011,-4.35455,17.6799,13.1459,14.9557,4.6024,-7.90966,-2.45174,4.06632,-2.38436,18.0593,4.93129,46.3259,2.62294,-28.0202,-15.8233,36.1248,-4.1056,17.5855,11.7909,15.5524,3.84546,-4.35788,-0.938524,6.16867,-2.09835,14.8622,2.99146,42.1259,2.34994,0.0356392,-0.573867,0.522401,-0.098263,-0.58735,0.566535,0.0141365,-0.626856,0.579874,0.0229973,-0.568738,0.550592,-0.672015,-0.971352,1.41878,0.337196,-0.253965,0.942441,-0.17498,-0.68723,0.69064,0.483718,-0.44667,1.69852,-0.269002,0.00741709,-3.9127,3.56269,-8.9781,9.21221,-8.68142,8.80857,
-27.6321,-15.6821,35.5074,-4.63019,18.396,14.1859,13.8845,5.12454,-11.1211,-4.02452,1.25953,-2.66163,20.5399,7.22403,50.2685,3.00575,-27.7825,-15.6725,36.2387,-4.47218,17.9078,13.0277,14.8708,4.56207,-8.14696,-2.47682,3.72386,-2.28084,17.7945,4.97492,46.5666,2.73496,0.0295986,-0.576473,0.517743,-0.104028,-0.583491,0.568439,0.0211607,-0.626022,0.587771,0.0304411,-0.570291,0.543891,-0.668597,-0.973026,1.40293,0.348696,-0.22481,0.918346,-0.248695,-0.725426,0.628515,0.552431,-0.392135,1.79484,-0.321006,0.23997,-3.96133,3.4488,-9.58139,10.489,-9.28459,9.46031,
-27.4244,-15.5825,35.2731,-4.86788,19.1662,15.2166,12.8655,5.56415,-14.1195,-5.37013,-1.91079,-2.9175,22.0508,9.23473,53.4873,3.78736,-27.1782,-15.4717,35.7365,-4.77217,18.7747,14.0728,13.6612,4.91177,-11.6298,-4.04479,0.509506,-2.52052,19.9473,7.29273,50.8139,3.27498,0.0173776,-0.582565,0.510369,-0.115026,-0.578619,0.57331,0.034575,-0.624792,0.605082,0.0451159,-0.572518,0.532442,-0.674988,-0.977219,1.38617,0.357794,-0.196286,0.898214,-0.30998,-0.758712,0.56795,0.605135,-0.341915,1.86581,-0.3398,0.509269,-4.06186,2.79112,-10.0756,11.6376,-9.89686,10.3658,
-27.4134,-15.4858,34.7426,-5.19624,19.6597,16.4064,11.488,5.83717,-16.7595,-6.5172,-4.63772,-3.16852,23.221,11.3262,55.8197,4.59255,-27.0498,-15.3442,35.3374,-5.03757,19.4613,15.2206,12.5911,5.19794,-14.6469,-5.36165,-2.69285,-2.81451,21.4222,9.28445,53.9407,3.94766,0.00699411,-0.589466,0.505297,-0.124187,-0.576981,0.579583,0.048502,-0.624489,0.624028,0.0605002,-0.574095,0.523847,-0.684265,-0.980911,1.37118,0.3622,-0.166851,0.870767,-0.361549,-0.787489,0.519687,0.650279,-0.29263,1.91716,0.000110716,1.14072,-4.06608,2.37397,-10.3924,12.8151,-10.4031,11.5591,
-26.9262,-15.2654,34.4226,-5.29329,19.6131,16.7296,10.5373,5.04875,-18.2292,-7.85152,-6.84704,-3.61103,23.6552,12.5346,57.408,5.32106,-26.941,-15.109,34.8828,-5.19599,19.8303,16.2479,11.2878,4.73362,-17.0641,-6.63946,-5.39134,-3.34799,22.4742,11.3322,56.0713,4.72841,-0.00525994,-0.598852,0.500774,-0.131357,-0.574964,0.586167,0.0615294,-0.623093,0.645969,0.0796833,-0.575896,0.51596,-0.684162,-0.98502,1.35961,0.356669,-0.154679,0.852072,-0.390258,-0.81777,0.483581,0.679939,-0.264357,1.94585,-0.000155482,3.37104,-3.82307,2.15878,-10.5867,13.4685,-11.0451,12.8009,
-25.1252,-14.672,33.583,-5.17513,19.0079,15.6273,11.3998,4.47608,-17.7378,-8.96957,-6.73962,-3.73042,22.159,13.444,57.0275,5.91543,-26.6478,-15.0419,34.482,-5.29333,19.5781,16.4523,10.537,4.50348,-18.087,-8.01558,-7.04508,-3.52237,23.2393,12.5576,57.3003,5.34275,-0.0124027,-0.604529,0.498848,-0.13271,-0.570469,0.588051,0.0630401,-0.620164,0.654642,0.0909042,-0.577681,0.512631,-0.64632,-0.975953,1.3371,0.34249,-0.175041,0.873604,-0.382108,-0.841366,0.491276,0.653595,-0.243563,1.93311,-0.000281402,4.48596,-4.12499,2.22548,-10.3505,13.4381,-11.5858,14.0564,
-20.3903,-12.9523,32.3068,-4.77085,18.8557,13.0393,15.4438,3.91027,-15.4793,-10.0966,-3.30891,-4.00194,15.7193,14.8993,54.8624,6.37216,-24.7601,-14.3156,33.6119,-5.01203,19.0008,15.2683,11.3209,4.42737,-17.3899,-9.21327,-6.85137,-3.66598,21.5794,13.74,57.1264,5.76027,-0.022126,-0.612603,0.496354,-0.132668,-0.561888,0.589528,0.0574766,-0.614447,0.660468,0.105627,-0.582371,0.509297,-0.537318,-0.94032,1.30069,0.338839,-0.230561,0.976785,-0.33419,-0.863414,0.579839,0.507274,-0.212565,1.8793,0.0615096,4.5868,-4.38635,2.3572,-9.48019,12.4073,-12.3902,15.1015,
-11.6284,-8.2257,26.4345,-3.93226,20.7081,8.99999,24.7295,4.43647,-13.2588,-12.6254,4.29327,-5.20688,2.3832,17.2782,46.4576,6.66412,-20.137,-12.6459,32.2365,-4.5912,19.0427,13.1591,15.0894,5.48639,-15.8469,-10.1805,-3.98559,-4.29629,15.0328,15.2634,55.0305,6.11876,-0.0299416,-0.62043,0.494088,-0.134659,-0.558359,0.594973,0.0574956,-0.610208,0.670278,0.121542,-0.590134,0.507055,-0.324852,-0.831643,1.15211,0.38086,-0.334542,1.2184,-0.268369,-0.924661,0.78738,0.191047,-0.164029,1.66935,0.057174,1.63916,-3.66617,2.88758,-7.80735,10.5121,-14.0799,16.2158,
3.29199,2.42868,13.8997,-2.45334,25.0425,-1.36573,45.7617,1.81431,-10.2097,-17.8038,19.5566,-5.22095,-20.9496,20.1392,25.057,6.37832,-11.3858,-7.94135,26.3389,-3.86107,20.882,9.2514,24.296,4.42926,-14.1368,-12.5929,3.24069,-4.74106,1.6969,17.6074,46.5442,6.50422,-0.0364565,-0.628526,0.493347,-0.138752,-0.562758,0.605138,0.0746615,-0.610354,0.692992,0.138804,-0.599237,0.504941,0.0419166,-0.572583,0.841212,0.485065,-0.600479,1.75665,-0.169996,-1.05536,1.19662,-0.374059,-0.102205,1.12855,-0.0877027,1.7599,-4.82076,3.2981,-4.99438,5.38852,-15.2627,16.0547,
22.6887,11.7858,1.52539,0.146101,29.4016,-12.1022,66.4724,-0.0427604,-8.56065,-25.8805,33.3726,-3.96922,-46.0526,20.4085,-1.29081,5.47411,3.54103,2.48419,13.6676,-1.96582,25.1849,-1.18828,44.9682,2.14141,-11.0034,-18.0394,18.6303,-5.03902,-21.7267,20.3211,25.0406,6.36408,-0.0426025,-0.633344,0.496275,-0.142274,-0.568059,0.620813,0.0937448,-0.607439,0.716831,0.157854,-0.606889,0.503115,0.520463,-0.340043,0.537863,0.590418,-0.873441,2.29487,-0.108406,-1.25124,1.5658,-0.982627,-0.0996957,0.468752,-1.08317,1.09276,-5.19797,3.11478,-0.790967,1.00724,-13.1364,14.063,
28.28,11.8472,-3.71015,1.24022,26.3538,-13.4061,64.5171,1.07099,-15.9074,-30.2969,28.7976,-1.99332,-48.7287,14.8039,-2.53344,2.10217,22.2622,11.6574,0.909775,0.0695855,29.3733,-12.0153,57.5821,0.188671,-9.30293,-26.167,32.8386,-4.25402,-41.0002,20.059,-1.47293,3.45368,-0.041511,-0.633039,0.505111,-0.143706,-0.571147,0.639255,0.110647,-0.601988,0.73397,0.16149,-0.605931,0.503213,0.671564,-0.335161,0.423158,0.514961,-0.90826,2.26854,-0.272887,-1.35422,1.46512,-1.0642,-0.230563,0.442541,-0.902386,0.616062,-4.60987,7.25315,1.57806,2.75804,-8.59652,11.4575,
17.2193,11.7451,-1.65343,0.248074,25.4758,-15.8856,52.6574,2.87503,-24.5622,-25.1159,28.3704,-2.11235,-35.541,10.1764,-0.0619169,0.513901,26.5278,11.396,-4.72723,0.789055,26.2815,-13.1801,56.3637,0.926899,-16.9348,-30.2637,28.4068,-3.2959,-38.3138,14.1906,-3.70248,1.72383,-0.014719,-0.626163,0.52712,-0.142918,-0.575621,0.668207,0.135659,-0.59768,0.748435,0.122889,-0.593912,0.519485,0.440222,-0.326061,0.500664,0.494868,-0.97605,2.00248,-0.462925,-1.22563,1.46438,-0.802816,-0.330465,0.534546,-7.05782e-05,0.909937,-1.95004,8.01782,0.496078,6.65999,-6.17474,9.04562,
0.34883,13.8047,3.68768,-1.44339,28.0672,-16.675,39.2324,3.46152,-29.9527,-14.568,25.092,-2.26808,-7.53591,-0.247247,2.60224,-0.366811,16.0459,11.0984,-3.03441,0.247956,26.367,-15.3851,51.6917,1.92057,-24.6927,-24.6632,27.9327,-3.02446,-30.1957,9.7448,-2.69707,1.22495,0.0210337,-0.612607,0.557158,-0.152783,-0.58462,0.695721,0.151129,-0.603229,0.759717,0.0237484,-0.580552,0.565978,0.0484143,-0.257949,0.669601,0.536613,-1.00865,1.69155,-0.594538,-0.973627,1.39362,-0.240031,-0.580047,0.668999,0.000149147,2.85827,-0.0877749,6.57939,-2.88662,9.78132,-4.62393,5.84577,
-21.5984,3.79649,11.3879,-3.32184,32.6777,-5.72031,19.5227,3.71929,-39.5756,-8.96478,2.75795,-1.63064,29.1867,-9.15351,14.7045,-0.460624,-0.340669,12.7649,2.05187,-0.931375,29.1155,-15.6153,38.4018,2.03782,-29.9342,-13.9829,24.5557,-2.2382,-2.4946,0.205735,-1.92051,0.785654,0.0460692,-0.591475,0.595675,-0.176481,-0.603968,0.719209,0.1532,-0.615508,0.771257,-0.10404,-0.580131,0.656047,-0.482736,-0.481431,0.903962,0.625078,-0.762046,1.22005,-0.83517,-0.846989,0.845975,0.549171,-0.814482,1.0876,-1.03428,5.76392,0.0501007,4.25012,-7.67797,13.2025,-3.21117,3.32888,
-36.263,-18.1078,26.0196,-3.86319,34.0509,19.1647,-4.85496,4.96976,-43.8698,-14.561,-19.6918,-1.06188,53.8079,-5.21334,25.8927,2.23715,-22.1408,3.26474,8.84126,-1.5697,32.923,-4.15391,18.7873,2.58381,-40.4348,-8.07355,2.20891,-1.60569,29.254,-9.41588,13.398,1.6642,0.062125,-0.571533,0.64703,-0.193748,-0.635628,0.738683,0.163538,-0.632778,0.783001,-0.180714,-0.588144,0.742966,-0.835597,-1.01551,1.33519,0.65284,-0.179588,0.627823,-0.921209,-1.00985,0.298611,1.1647,-0.709442,1.40043,-4.58582,8.04604,0.0876498,0.000452499,-12.3122,17.9856,-2.03611,4.47476,
-31.7576,-28.6288,27.4976,-0.223992,23.6049,19.4479,-1.71462,2.58201,-37.4655,-11.5266,-15.1764,0.513109,54.7033,5.60048,33.3796,4.10497,-35.4239,-19.4136,26.8134,-2.73093,32.4002,18.8137,-2.29036,2.09238,-39.7743,-14.3981,-17.5225,-1.01772,41.1562,-5.85216,26.8541,1.88153,0.0579039,-0.548144,0.669557,-0.178951,-0.653119,0.71851,0.151038,-0.646536,0.765329,-0.165281,-0.570864,0.735901,-0.744605,-1.24691,1.35548,0.434646,-0.162958,0.639804,-0.814352,-0.938032,0.355059,1.2094,-0.424099,1.5659,-7.09341,13.886,-0.000556066,0.636495,-7.54139,19.05,1.02566,8.84644,
-23.1868,-25.6489,22.7683,1.31812,10.6199,13.9477,13.698,-0.141711,-19.4225,-5.73268,0.765421,1.19612,49.8069,6.82908,34.8858,6.25777,-30.3238,-29.0149,28.0052,-2.55703,19.556,17.077,3.77368,1.43216,-30.8612,-11.4765,-10.2555,0.192713,41.5485,5.14545,34.0121,3.95255,0.0298665,-0.526567,0.66166,-0.101366,-0.616506,0.605738,0.0343218,-0.649094,0.665575,-0.16417,-0.557553,0.721452,-0.566907,-1.16489,1.22837,0.213758,-0.239784,0.885239,-0.532589,-0.794657,0.628221,1.07679,-0.380783,1.5848,-2.67561,16.1906,0.619503,0.958593,-0.0393805,15.9071,3.01175,13.4741,
-14.6215,-19.1381,20.4187,1.85908,-1.8046,3.82002,31.0125,-2.55032,-1.21111,4.60279,13.0927,-0.396722,38.1394,4.10864,34.7611,6.06281,-22.8845,-25.5182,23.0999,-0.0379774,8.43381,13.1375,14.7287,0.729094,-16.809,-5.36188,2.19827,0.562979,41.4493,6.72856,35.1375,5.94203,0.0177409,-0.525916,0.656534,-0.0547304,-0.593313,0.561806,-0.0373748,-0.65341,0.619311,-0.166244,-0.55352,0.715097,-0.36059,-1.00741,1.15771,-0.0393185,-0.471837,1.29152,-0.145908,-0.546249,0.899317,0.788269,-0.447132,1.57766,-0.00182414,14.3683,2.05578,1.52052,3.71633,9.26763,1.26234,13.6461,
