FengTian-Bit/rl_sar_bitter/src/rl_sar/models/w1/csv_data/csv_standup.csv
joint_tau_cal_0,joint_tau_cal_1,joint_tau_cal_2,joint_tau_cal_3,joint_tau_cal_4,joint_tau_cal_5,joint_tau_cal_6,joint_tau_cal_7,joint_tau_cal_8,joint_tau_cal_9,joint_tau_cal_10,joint_tau_cal_11,joint_tau_cal_12,joint_tau_cal_13,joint_tau_cal_14,joint_tau_cal_15,joint_tau_est_0,joint_tau_est_1,joint_tau_est_2,joint_tau_est_3,joint_tau_est_4,joint_tau_est_5,joint_tau_est_6,joint_tau_est_7,joint_tau_est_8,joint_tau_est_9,joint_tau_est_10,joint_tau_est_11,joint_tau_est_12,joint_tau_est_13,joint_tau_est_14,joint_tau_est_15,joint_pos_0,joint_pos_1,joint_pos_2,joint_pos_4,joint_pos_5,joint_pos_6,joint_pos_8,joint_pos_9,joint_pos_10,joint_pos_12,joint_pos_13,joint_pos_14,joint_pos_target_0,joint_pos_target_1,joint_pos_target_2,joint_pos_target_4,joint_pos_target_5,joint_pos_target_6,joint_pos_target_8,joint_pos_target_9,joint_pos_target_10,joint_pos_target_12,joint_pos_target_13,joint_pos_target_14,joint_vel_3,joint_vel_7,joint_vel_11,joint_vel_15,joint_vel_target_3,joint_vel_target_7,joint_vel_target_11,joint_vel_target_15,
-0.143758,-0.936413,0.35232,0,0.150178,-0.926153,0.35034,0,-0.157978,-0.924053,0.3504,0,0.115559,-0.963172,0.35214,0,0.03,-0,-0,-0,-0,0,0,0,0.03,-0,-0,-0.01257,0,0,-0.03,-0.01257,0.2396,0.9607,0.0128,-0.2503,0.9436,0.0161,0.2633,0.9401,0.016,-0.1926,1.0053,0.0131,0.23936,0.959139,0.0133872,-0.25005,0.942057,0.0166839,0.263037,0.93856,0.016584,-0.192407,1.00369,0.0136869,-0,0,-0,0,0,0,0,0,
-0.907557,-3.75851,1.12392,-0.045,0.841085,-3.56192,1.78705,-0.045,-0.902877,-3.60936,1.42739,0,0.633348,-3.96414,1.58784,-0.09,-0.42,-2.28,0.66,-0.01257,0.39,-2.19,1.14,-0.01257,-0.45,-2.34,0.99,-0.01257,0.33,-2.52,0.96,-0.05028,0.2396,0.9585,0.0137,-0.2502,0.9411,0.0164,0.2633,0.938,0.0166,-0.1925,1.0031,0.0136,0.238162,0.951336,0.0163232,-0.248798,0.934339,0.0196034,0.26172,0.930859,0.019504,-0.191444,0.995668,0.0166214,0.01,0.01,-0,0.02,0,0,0,0,
-2.00136,-5.99559,0.260515,0,1.53197,-5.34275,2.15874,-0.135,-1.73778,-5.75466,1.5744,0.135,1.93114,-5.48,2.58354,0,-1.44,-4.5,-0,-0,1.11,-4.02,1.68,-0.05028,-1.26,-4.29,1.02,0.03771,1.41,-4.17,1.83,-0.01257,0.24,0.9548,0.0177,-0.2501,0.9371,0.0181,0.2633,0.9338,0.0192,-0.1931,0.9985,0.0151,0.236964,0.943532,0.0192592,-0.247547,0.926621,0.0225229,0.260404,0.923159,0.022424,-0.190481,0.987642,0.0195559,-0,0.03,-0.03,0,0,0,0,0,
-3.24516,-8.66774,1.43711,0,2.40288,-8.08351,0.700451,0,-2.63267,-7.82498,0.251405,0,3.15396,-7.01098,1.32924,0.225,-2.73,-7.17,0.99,-0,1.95,-6.57,0.24,-0.03771,-2.13,-6.54,0.06,-0.01257,2.58,-5.58,1.2,0.17598,0.2411,0.951,0.0192,-0.2503,0.9332,0.023,0.2634,0.9297,0.0235,-0.1944,0.9928,0.0184,0.235766,0.935729,0.0221952,-0.246295,0.918903,0.0254424,0.259087,0.915458,0.025344,-0.189518,0.979615,0.0224904,-0,0,-0,-0.05,0,0,0,0,
-4.14396,-12.0599,1.66872,0,3.54378,-9.8944,1.11714,0,-3.70758,-10.2103,1.1034,0.315,4.91677,-8.93192,1.49994,0.36,-3.63,-10.44,1.2,0.03771,3.03,-8.55,0.75,0.01257,-3.15,-8.73,0.54,0.20112,4.47,-7.59,0.72,0.23883,0.2414,0.9487,0.0216,-0.2508,0.9294,0.0253,0.2638,0.9259,0.0262,-0.1966,0.9879,0.0227,0.234568,0.927925,0.0251312,-0.245044,0.911185,0.0283619,0.257771,0.907758,0.028264,-0.188555,0.971588,0.0254249,-0,0,-0.07,-0.08,0,0,0,0,
-6.18278,-13.592,2.48531,0.045,4.77469,-12.6352,1.08385,0.81,-5.72747,-11.6356,1.8954,0,5.46454,-12.3677,1.11564,0.27,-5.46,-12.09,2.04,0.03771,4.17,-10.95,0.54,0.5028,-5.13,-10.11,1.35,-0.01257,4.98,-10.62,0.48,0.31425,0.243,0.9445,0.0231,-0.2516,0.9252,0.0288,0.2657,0.9208,0.0275,-0.1967,0.985,0.0256,0.23337,0.920122,0.0280672,-0.243792,0.903467,0.0312814,0.256454,0.900057,0.031184,-0.187592,0.963562,0.0283594,-0.01,-0.18,-0,-0.06,0,0,0,0,
-8.14656,-15.514,1.51692,0.72,5.54058,-15.0909,1.77054,0.135,-6.35238,-12.7609,1.3374,-0.09,5.99734,-11.8887,0.866342,0.54,-7.44,-13.83,1.05,0.64107,5.04,-13.65,1.32,0.11313,-5.82,-11.58,0.93,-0.02514,5.55,-10.68,0.54,0.33939,0.2453,0.9393,0.0275,-0.2517,0.9224,0.0305,0.2658,0.9158,0.0309,-0.1967,0.9779,0.0285,0.232172,0.912318,0.0310032,-0.242541,0.895749,0.0342009,0.255138,0.892357,0.034104,-0.186629,0.955535,0.0312939,-0.16,-0.03,0.02,-0.12,0,0,0,0,
-9.12037,-17.1061,1.80851,0.54,7.35649,-15.7617,2.17225,0.54,-6.70728,-10.7962,1.4244,0,6.18516,-11.7246,0.812037,0.675,-8.49,-15.54,1.32,0.49023,6.66,-14.19,1.62,0.35196,-6.27,-9.78,0.96,-0.01257,5.79,-10.38,0.24,0.54051,0.2461,0.9343,0.0301,-0.2531,0.9158,0.0329,0.2653,0.9058,0.0339,-0.1962,0.9693,0.0322,0.230974,0.904515,0.0339392,-0.241289,0.888031,0.0371204,0.253821,0.884656,0.037024,-0.185666,0.947509,0.0342284,-0.12,-0.12,-0,-0.15,0,0,0,0,
-9.79416,-20.3182,1.9351,0.765,8.46739,-17.5726,0.863936,0.36,-5.38218,-10.6465,0.326397,-0.045,5.18797,-10.0004,0.502739,0.09,-9.18,-18.51,1.35,0.69135,7.86,-15.96,0.54,0.28911,-5.16,-9.54,0.15,-0.03771,5.01,-8.94,0.09,0.07542,0.2461,0.9314,0.0332,-0.254,0.9108,0.0371,0.2626,0.8971,0.0379,-0.1941,0.9593,0.0352,0.229776,0.896711,0.0368752,-0.240038,0.880313,0.0400399,0.252505,0.876956,0.039944,-0.184703,0.939483,0.0371629,-0.17,-0.08,0.01,-0.02,0,0,0,0,
-10.7229,-21.0553,1.65671,0.72,9.18828,-21.1233,-0.0693697,0.315,-4.88208,-9.86676,0.443395,0,4.64074,-10.8413,-0.436565,0.18,-10.05,-19.44,1.32,0.6285,8.58,-19.23,-0.24,0.26397,-4.56,-8.85,0.09,-0.01257,4.32,-9.45,-0.57,0.13827,0.2463,0.9258,0.036,-0.2541,0.9084,0.0418,0.2597,0.8884,0.0413,-0.192,0.9514,0.0397,0.228578,0.888908,0.0398112,-0.238786,0.872595,0.0429594,0.251188,0.869255,0.042864,-0.18374,0.931456,0.0400974,-0.16,-0.07,-0,-0.04,0,0,0,0,
-11.4718,-24.4175,2.36831,0.72,10.2092,-21.2841,0.587329,0.27,-4.84697,-9.94206,1.49038,-0.045,4.25856,-9.92729,-0.835874,0,-10.83,-22.47,1.71,0.74163,9.57,-19.77,0.09,0.13827,-4.53,-8.88,0.93,-0.02514,3.9,-8.76,-0.78,0,0.2465,0.9224,0.0385,-0.2544,0.9026,0.0443,0.2584,0.8806,0.043,-0.1901,0.9426,0.043,0.22738,0.881104,0.0427472,-0.237535,0.864877,0.0458789,0.249872,0.861555,0.045784,-0.182777,0.92343,0.0430319,-0.16,-0.06,0.01,0,0,0,0,0,
-12.5056,-25.6945,1.1299,0.72,12.8051,-23.1249,1.58903,0.405,-5.33687,-9.56734,0.977389,0,4.25134,-11.2781,-0.680177,0,-11.73,-23.97,0.84,0.65364,11.82,-21.3,1.02,0.36453,-4.89,-8.37,0.69,-0.01257,3.96,-9.81,-1.02,0.02514,0.2468,0.9177,0.0423,-0.2565,0.8972,0.0457,0.2576,0.8722,0.0458,-0.1892,0.936,0.0465,0.226182,0.873301,0.0456832,-0.236283,0.857159,0.0487984,0.248555,0.853854,0.048704,-0.181814,0.915403,0.0459664,-0.16,-0.09,-0,0,0,0,0,0,
-13.5993,-28.1416,1.31649,0.945,14.351,-25.6707,2.03573,0.72,-4.31177,-10.1826,1.46939,0,4.30413,-11.054,-1.21448,0.045,-12.84,-26.22,0.81,0.98046,13.59,-23.73,1.47,0.72906,-4.08,-9,0.9,-0.01257,3.9,-9.75,-1.23,0,0.2475,0.9136,0.0456,-0.2588,0.8929,0.0478,0.2554,0.8653,0.0488,-0.1881,0.9282,0.0498,0.224984,0.865497,0.0486192,-0.235032,0.849441,0.0517179,0.247239,0.846154,0.051624,-0.180851,0.907377,0.0489009,-0.21,-0.16,-0,-0.01,0,0,0,0,
-14.5132,-29.1637,0.198104,1.125,15.4319,-26.7915,1.53743,0.81,-3.97667,-9.64296,1.34638,0,4.41694,-11.4748,-0.983772,-0.045,-13.74,-27.21,0.06,1.0056,14.64,-25.17,1.26,0.74163,-3.6,-8.55,0.93,-0.01257,4.11,-10.17,-1.29,-0.01257,0.2479,0.9075,0.0498,-0.2592,0.8884,0.0505,0.253,0.857,0.0514,-0.1877,0.9205,0.0528,0.223786,0.857694,0.0515552,-0.23378,0.841723,0.0546374,0.245922,0.838453,0.054544,-0.179888,0.89935,0.0518354,-0.25,-0.18,-0,0.01,0,0,0,0,
-15.3969,-30.6058,1.52471,1.035,16.1828,-29.1123,0.499129,0.855,-4.28657,-9.01322,-0.201613,0,3.56976,-11.0709,-1.27807,-0.315,-14.64,-28.95,1.02,1.08102,15.45,-27.09,0.03,0.86733,-3.84,-8.07,-0.39,-0.01257,3.3,-9.84,-1.35,-0.28911,0.2481,0.9027,0.0518,-0.2595,0.8835,0.0556,0.2519,0.8487,0.0566,-0.1854,0.9124,0.0557,0.222588,0.84989,0.0544912,-0.232529,0.834005,0.0575569,0.244606,0.830753,0.057464,-0.178925,0.891324,0.0547699,-0.23,-0.19,-0,0.07,0,0,0,0,
-16.5658,-33.8779,1.68131,1.17,17.0387,-30.5481,-0.419166,0.945,-4.65647,-8.62354,1.2804,0,3.18754,-11.4767,-2.24737,0,-15.81,-31.53,1.29,1.19415,16.23,-28.62,-0.57,0.82962,-4.17,-7.38,0.78,-0.01257,2.94,-10.11,-2.52,0.01257,0.249,0.899,0.0538,-0.2596,0.8784,0.0599,0.2512,0.8396,0.0578,-0.1838,0.9046,0.0604,0.22139,0.842087,0.0574272,-0.231277,0.826287,0.0604764,0.243289,0.823052,0.060384,-0.177962,0.883297,0.0577044,-0.26,-0.21,-0,0,0,0,0,0,
-17.3896,-34.345,1.1929,1.125,17.7446,-35.0589,1.19753,0.99,-3.40638,-8.92387,0.0923957,-0.135,3.63036,-10.9675,-2.94666,-0.405,-16.56,-32.46,0.9,1.05588,17.01,-32.91,0.48,1.0056,-3.24,-7.89,-0,-0.07542,3.12,-9.75,-3.09,-0.31425,0.2491,0.8934,0.0571,-0.2596,0.8773,0.0614,0.2487,0.8327,0.0618,-0.1829,0.8961,0.0645,0.220192,0.834283,0.0603632,-0.230026,0.818569,0.0633959,0.241973,0.815352,0.063304,-0.176999,0.875271,0.0606389,-0.25,-0.22,0.03,0.09,0,0,0,0,
-18.0634,-35.7721,-0.105482,1.125,18.8105,-34.7398,1.25425,1.125,-3.05628,-8.32414,-0.465599,-0.27,3.42816,-12.3935,-3.22596,-0.765,-17.34,-33.87,-0.24,1.14387,17.91,-33.15,0.81,1.18158,-2.73,-7.05,-0.6,-0.26397,3.15,-11.01,-3.24,-0.67878,0.2491,0.8879,0.0622,-0.2599,0.8713,0.0634,0.2462,0.8237,0.0661,-0.1822,0.8897,0.0679,0.218994,0.82648,0.0632992,-0.228774,0.810851,0.0663154,0.240656,0.807651,0.066224,-0.176036,0.867244,0.0635734,-0.25,-0.25,0.06,0.17,0,0,0,0,
-18.7822,-38.2492,-1.41889,1.08,19.4264,-36.0556,-1.08905,0.585,-2.94618,-9.20949,-1.5186,-0.27,3.55595,-11.2994,-3.44526,-1.35,-18,-35.85,-1.56,1.03074,18.57,-34.11,-1.23,0.56565,-2.61,-8.07,-1.56,-0.27654,3.15,-10.2,-3.57,-1.24443,0.2491,0.8831,0.0677,-0.2599,0.8651,0.0694,0.2447,0.8174,0.0704,-0.181,0.8809,0.0712,0.217796,0.818676,0.0662352,-0.227523,0.803133,0.0692349,0.23934,0.799951,0.069144,-0.175073,0.859217,0.0665079,-0.24,-0.13,0.06,0.3,0,0,0,0,
-19.501,-38.0114,-2.13227,-0.045,20.0723,-38.1963,-1.61736,0.45,-3.30109,-9.07481,-1.71659,-0.63,3.92377,-12.1104,-2.53956,-1.35,-18.69,-36.24,-2.07,-0.06285,19.2,-35.88,-1.8,0.42738,-3,-7.89,-1.89,-0.55308,3.57,-10.77,-2.94,-1.29471,0.2491,0.8764,0.0713,-0.2598,0.8596,0.0738,0.2439,0.8097,0.0741,-0.1808,0.8734,0.0736,0.216598,0.810873,0.0691712,-0.226271,0.795415,0.0721544,0.238023,0.79225,0.072064,-0.17411,0.851191,0.0694424,0.01,-0.1,0.14,0.3,0,0,0,0,
-20.1598,-38.7784,-2.66567,0,20.7482,-37.6672,-2.25066,0.18,-3.551,-9.03006,-1.26959,-1.26,4.20155,-11.7363,-2.87885,-1.53,-19.38,-37.05,-2.82,0.01257,19.89,-35.82,-2.22,0.07542,-3.18,-7.83,-1.47,-1.11873,3.84,-10.56,-3.18,-1.43298,0.249,0.8701,0.0755,-0.2596,0.8528,0.0774,0.2427,0.802,0.0765,-0.1803,0.8655,0.0762,0.2154,0.803069,0.0721072,-0.22502,0.787697,0.0750739,0.236707,0.78455,0.074984,-0.173147,0.843164,0.0723769,-0,-0.04,0.28,0.34,0,0,0,0,
-20.7286,-40.2506,-2.88407,-0.18,21.3941,-38.218,-1.96895,-0.09,-3.8909,-8.80542,-1.10759,-1.035,4.44936,-11.3772,-3.24815,-0.99,-19.95,-38.19,-3.09,-0.07542,20.55,-36.24,-2.25,-0.06285,-3.51,-7.56,-1.35,-1.05588,4.17,-10.08,-3.51,-1.0056,0.2489,0.8643,0.0791,-0.2595,0.8454,0.0806,0.2421,0.7937,0.0793,-0.1799,0.8565,0.0799,0.214202,0.795266,0.0750432,-0.223768,0.779978,0.0779934,0.23539,0.776849,0.077904,-0.172184,0.835138,0.0753114,0.04,0.02,0.23,0.22,0,0,0,0,
-20.9224,-40.2827,-3.20746,0.045,21.65,-39.0537,-1.67224,-0.18,-2.55079,-9.19568,-0.660585,-0.585,4.56216,-10.6281,-3.31744,-0.63,-20.1,-38.22,-3.12,0.07542,20.76,-37.26,-2.04,-0.06285,-2.37,-8.01,-0.9,-0.51537,4.23,-9.42,-3.45,-0.56565,0.2481,0.8567,0.0828,-0.2586,0.8399,0.0831,0.2393,0.7868,0.0814,-0.1789,0.8476,0.0828,0.213004,0.787462,0.0779792,-0.222517,0.77226,0.0809129,0.234074,0.769149,0.080824,-0.171221,0.827111,0.0782459,-0.01,0.04,0.13,0.14,0,0,0,0,
-21.1162,-40.9898,-2.70587,-0.135,22.3409,-38.1646,-2.95054,0.27,-3.1907,-8.71599,-1.15858,-0.18,4.26997,-10.9589,-2.45674,-0.81,-20.25,-38.91,-2.82,-0.10056,21.45,-36.54,-3.06,0.17598,-2.61,-7.5,-1.26,-0.18855,4.02,-9.75,-2.73,-0.81705,0.2473,0.8497,0.0849,-0.2585,0.8307,0.0874,0.238,0.7783,0.0844,-0.1779,0.8396,0.0849,0.211806,0.779659,0.0809152,-0.221265,0.764542,0.0838325,0.232757,0.761448,0.083744,-0.170258,0.819085,0.0811804,0.03,-0.06,0.04,0.18,0,0,0,0,
-20.5,-41.8469,-1.90426,-0.09,22.6268,-37.9954,-2.57884,-0.18,-3.03559,-9.03135,-0.951577,0,4.53275,-10.0899,-2.03104,-0.855,-19.74,-39.54,-2.19,-0.10056,21.78,-36.39,-2.79,-0.10056,-2.58,-7.8,-1.11,-0,4.17,-8.85,-2.25,-0.8799,0.245,0.8428,0.0865,-0.2578,0.823,0.0903,0.2368,0.7709,0.0875,-0.177,0.8305,0.0869,0.210608,0.771855,0.0838512,-0.220014,0.756824,0.086752,0.231441,0.753748,0.086664,-0.169295,0.811058,0.0841149,0.02,0.04,-0,0.19,0,0,0,0,
-21.0238,-40.499,-2.31766,0,21.4727,-37.7362,-2.29713,-0.135,-3.7655,-8.31165,-0.549571,-0.135,3.37057,-10.8408,-1.47033,-0.585,-20.25,-38.55,-2.4,0.01257,20.85,-35.85,-2.58,-0.05028,-3.24,-7.11,-0.78,-0.05028,3.18,-9.51,-1.77,-0.52794,0.2446,0.8344,0.0896,-0.2556,0.8144,0.0929,0.2364,0.7623,0.0899,-0.1747,0.8232,0.0892,0.20941,0.764052,0.0867873,-0.218762,0.749106,0.0896715,0.230124,0.746047,0.0895841,-0.168332,0.803032,0.0870494,-0,0.03,0.03,0.13,0,0,0,0,
-21.1576,-40.4111,-2.40105,0.135,18.8936,-38.8421,-1.26543,-0.225,-3.6854,-9.12195,-0.0125711,-0.27,2.85338,-10.0317,-0.984626,-0.675,-20.49,-38.43,-2.55,0.18855,18.18,-37.02,-1.65,-0.11313,-3.36,-7.86,-0.24,-0.20112,2.58,-8.79,-1.17,-0.59079,0.244,0.8257,0.0929,-0.2496,0.8086,0.0944,0.2354,0.7555,0.092,-0.1725,0.8142,0.0908,0.208212,0.756248,0.0897233,-0.217511,0.741388,0.092591,0.228808,0.738347,0.0925041,-0.167369,0.795005,0.089984,-0.03,0.05,0.06,0.15,0,0,0,0,
-20.9314,-39.4982,-1.79445,0,19.9895,-37.2179,-0.788724,-0.225,-3.50031,-8.16224,0.0144341,0,2.50118,-10.1076,-0.0489232,-0.315,-20.1,-37.59,-2.04,-0.01257,19.2,-35.49,-1.08,-0.13827,-3.09,-7.05,-0.15,-0.03771,2.28,-8.94,-0.48,-0.27654,0.2422,0.8169,0.0949,-0.2498,0.7984,0.096,0.2337,0.7468,0.0945,-0.1711,0.8063,0.0927,0.207014,0.748445,0.0926593,-0.216259,0.73367,0.0955105,0.227491,0.730646,0.0954241,-0.166406,0.786979,0.0929185,-0,0.05,-0,0.07,0,0,0,0,
-19.1902,-38.9753,-1.89285,0,19.6604,-36.8387,-0.477026,0,-2.5352,-8.38756,0.41644,-0.045,2.44897,-9.65852,0.36178,-0.405,-18.66,-36.87,-1.98,-0,18.96,-35.37,-0.69,0,-2.34,-7.2,0.06,-0.01257,2.19,-8.4,-0.03,-0.36453,0.239,0.8077,0.098,-0.2483,0.7905,0.0984,0.2313,0.7391,0.0969,-0.1699,0.7976,0.0945,0.205816,0.740641,0.0955953,-0.215008,0.725952,0.09843,0.226175,0.722946,0.0983441,-0.165443,0.778952,0.095853,-0,0,0.01,0.09,0,0,0,0,
-19.549,-38.5724,-0.836235,0,18.3113,-36.9994,-0.435318,0.18,-2.9651,-7.6679,0.803448,0,2.15679,-9.9745,0.667485,-0.225,-18.72,-36.63,-0.96,-0,17.76,-35.1,-0.87,0.08799,-2.46,-6.54,0.33,-0,1.86,-8.7,0.09,-0.18855,0.2372,0.7996,0.0997,-0.2454,0.782,0.1014,0.2298,0.7305,0.0991,-0.1686,0.7901,0.097,0.204618,0.732838,0.0985313,-0.213756,0.718234,0.101349,0.224858,0.715245,0.101264,-0.16448,0.770926,0.0987875,-0,-0.04,-0,0.05,0,0,0,0,
-19.9228,-37.7346,-0.199638,0.045,18.4772,-36.2152,-0.273613,-0.135,-2.84001,-8.04319,-0.0845483,0.045,2.37457,-8.80534,0.43319,-0.225,-19.11,-36.06,-0.45,-0,17.67,-34.59,-0.48,-0.03771,-2.55,-6.93,-0.33,0.05028,2.04,-7.65,-0.09,-0.18855,0.2367,0.7907,0.1012,-0.2433,0.7741,0.1039,0.2288,0.7232,0.1035,-0.1677,0.7802,0.1004,0.20342,0.725034,0.101467,-0.212505,0.710516,0.104269,0.223542,0.707545,0.104184,-0.163517,0.762899,0.101722,-0.01,0.03,-0.01,0.05,0,0,0,0,
-19.6816,-37.0917,0.0619616,-0.09,18.8831,-35.6411,-0.59191,0.18,-3.1199,-7.80347,1.06745,0.045,2.05236,-9.72128,0.75389,-0.27,-19.08,-35.31,-0.12,-0.03771,18.15,-33.72,-0.93,0.06285,-2.79,-6.6,0.6,-0,1.68,-8.37,0.24,-0.16341,0.2357,0.7816,0.1034,-0.2431,0.7643,0.1075,0.2278,0.7151,0.1048,-0.1662,0.7734,0.1025,0.202222,0.717231,0.104403,-0.211253,0.702798,0.107189,0.222225,0.699844,0.107104,-0.162554,0.754873,0.104656,0.02,-0.04,-0.01,0.06,0,0,0,0,
-19.7404,-36.9288,0.0535786,0.045,19.574,-35.3519,0.439799,-0.045,-3.12981,-8.34378,1.31946,-0.09,2.64518,-9.36217,0.969592,-0.315,-18.9,-35.43,-0.24,-0,18.69,-33.63,0.03,-0.03771,-2.79,-7.17,0.81,-0,2.28,-8.16,0.48,-0.22626,0.234,0.7739,0.1065,-0.2427,0.7564,0.1087,0.2265,0.708,0.1073,-0.166,0.7647,0.1053,0.201024,0.709427,0.107339,-0.210002,0.69508,0.110108,0.220909,0.692144,0.110024,-0.161591,0.746846,0.107591,-0.01,0.01,0.02,0.07,0,0,0,0,
-20.3842,-36.7209,0.270172,-0.045,20.1449,-36.3076,1.2165,0.045,-2.5697,-8.32912,0.641462,0.09,2.92296,-10.1131,0.570301,-0.135,-19.59,-35.07,-0.06,-0.03771,19.29,-34.2,0.63,0.01257,-2.28,-7.14,0.36,0.03771,2.46,-8.82,0.33,-0.03771,0.2338,0.7656,0.1093,-0.2424,0.7493,0.1107,0.2244,0.7005,0.1106,-0.1655,0.758,0.1083,0.199826,0.701624,0.110275,-0.20875,0.687362,0.113028,0.219592,0.684443,0.112944,-0.160628,0.73882,0.110525,0.01,-0.01,-0.02,0.03,0,0,0,0,
-19.978,-37.428,0.396771,-0.045,20.6408,-36.3036,2.0232,0,-2.23461,-8.62945,1.34346,0,3.45577,-9.51397,1.251,0,-19.26,-35.79,0.09,-0,19.77,-34.83,1.38,0,-1.95,-7.47,0.75,-0,3.03,-8.19,0.69,-0.01257,0.2323,0.7586,0.1115,-0.2419,0.7433,0.1122,0.2226,0.6933,0.1131,-0.1655,0.7492,0.1107,0.198628,0.69382,0.113211,-0.207499,0.679644,0.115947,0.218276,0.676743,0.115864,-0.159665,0.730793,0.11346,0.01,0,-0,0,0,0,0,0,
-20.2018,-39.0951,0.328383,0,21.3317,-36.4343,0.744908,0,-2.67952,-8.28475,1.52047,0.045,3.02858,-9.73991,1.67671,-0.27,-19.5,-37.14,-0.06,0.05028,20.46,-34.89,0.48,0,-2.28,-7.11,1.23,-0,2.79,-8.55,1.05,-0.11313,0.2314,0.7529,0.115,-0.2418,0.7352,0.1159,0.2215,0.6854,0.1152,-0.1642,0.7417,0.113,0.19743,0.686017,0.116147,-0.206247,0.671926,0.118867,0.216959,0.669042,0.118784,-0.158702,0.722767,0.116395,-0,0,-0.01,0.06,0,0,0,0,
-19.3906,-40.2072,1.72999,0,20.3276,-37.9151,0.486603,-0.135,-2.76442,-8.13501,-0.192533,0.045,3.59138,-9.06578,0.797406,-0.045,-18.66,-37.92,1.2,0.01257,19.77,-36.15,0,-0.06285,-2.37,-6.93,-0.42,0.02514,3.3,-7.83,0.36,0.01257,0.229,0.7462,0.1159,-0.24,0.7295,0.1203,0.2204,0.677,0.1209,-0.1638,0.7321,0.1168,0.196232,0.678213,0.119083,-0.204996,0.664208,0.121786,0.215643,0.661342,0.121704,-0.157739,0.71474,0.119329,-0,0.03,-0.01,0.01,0,0,0,0,
-20.0944,-39.3843,1.85659,0,19.0385,-37.4609,-0.296687,0,-3.49432,-7.89535,1.40947,0,2.71417,-9.45674,0.848112,-0.135,-19.32,-37.65,1.38,-0,18.54,-35.55,-0.45,-0.01257,-3.12,-6.78,0.87,-0.01257,2.61,-8.28,0.21,-0.06285,0.2286,0.7389,0.1184,-0.2366,0.7211,0.124,0.2203,0.6692,0.1219,-0.1619,0.7251,0.1201,0.195034,0.670409,0.122019,-0.203744,0.65649,0.124706,0.214326,0.653641,0.124624,-0.156776,0.706714,0.122264,-0,0,-0,0.03,0,0,0,0,
-20.3932,-39.3264,1.23318,0,18.8744,-38.8368,1.33502,0,-3.45922,-8.91564,1.81147,0.045,3.29198,-8.84265,0.38882,0,-19.68,-37.59,1.02,-0.03771,18.18,-36.69,0.6,0,-3.15,-7.62,1.44,-0,2.88,-7.56,0.09,0.01257,0.2282,0.7307,0.1214,-0.2344,0.715,0.1254,0.2193,0.6626,0.1237,-0.1613,0.7159,0.1232,0.193836,0.662606,0.124955,-0.202493,0.648772,0.127625,0.21301,0.645941,0.127544,-0.155813,0.698687,0.125198,-0,0,-0.01,0,0,0,0,0,
-19.807,-38.5936,0.309789,-0.045,19.6103,-36.4326,1.88672,0.09,-2.49412,-8.69099,0.413481,-0.09,2.98478,-9.66852,0.904517,-0.18,-19.08,-36.75,-0,-0.1257,18.81,-34.8,1.2,0,-2.25,-7.59,0.12,-0.02514,2.73,-8.37,0.21,-0.06285,0.2261,0.7219,0.1264,-0.234,0.705,0.1271,0.2166,0.6552,0.1285,-0.1602,0.7091,0.1261,0.192638,0.654802,0.127891,-0.201241,0.641054,0.130545,0.211693,0.63824,0.130464,-0.15485,0.690661,0.128133,0.01,-0.02,0.02,0.04,0,0,0,0,
-18.3808,-38.7756,0.256406,-0.135,19.1012,-38.4083,2.81342,-0.045,-2.33902,-8.40624,1.53548,0.09,3.32258,-8.97944,1.21023,-0.18,-17.97,-36.78,-0.03,-0.07542,18.63,-36.27,2.13,-0.01257,-2.04,-7.26,1.05,0.02514,2.97,-7.77,0.45,-0.08799,0.2235,0.7135,0.1295,-0.2328,0.6987,0.1284,0.2148,0.6468,0.1303,-0.1595,0.7,0.1289,0.19144,0.646999,0.130827,-0.19999,0.633336,0.133464,0.210377,0.63054,0.133384,-0.153887,0.682634,0.131067,0.03,0.01,-0.02,0.04,0,0,0,0,
-18.6796,-38.5977,1.163,-0.045,17.9171,-37.4291,0.905126,-0.18,-2.13892,-8.01658,0.482486,-0.045,2.80536,-9.28033,1.23093,-0.225,-17.85,-36.66,0.54,-0.13827,17.4,-35.43,0.72,-0.15084,-1.83,-6.93,0.3,-0.02514,2.58,-8.01,0.78,-0.15084,0.2213,0.7057,0.1316,-0.2295,0.6901,0.133,0.213,0.6386,0.134,-0.1582,0.6927,0.1309,0.190242,0.639195,0.133763,-0.198738,0.625618,0.136384,0.20906,0.622839,0.136304,-0.152924,0.674608,0.134002,0.01,0.04,0.01,0.05,0,0,0,0,
-19.0234,-38.8099,1.51461,-0.225,17.993,-38.115,0.796836,0,-2.82383,-8.24191,0.449492,0.09,2.55819,-8.89128,0.831626,-0.09,-18.27,-36.75,1.05,-0.16341,17.34,-36,0.18,-0.06285,-2.4,-6.93,-0.09,0.01257,2.31,-7.62,0.54,-0.02514,0.2209,0.6978,0.1335,-0.228,0.683,0.1376,0.2126,0.6306,0.1381,-0.1563,0.6835,0.1342,0.189044,0.631392,0.136699,-0.197487,0.6179,0.139303,0.207744,0.615138,0.139224,-0.151961,0.666581,0.136936,0.05,0,-0.02,0.02,0,0,0,0,
-19.2772,-38.602,1.86621,0,18.4739,-37.0008,0.823536,-0.18,-2.95372,-8.36217,1.7515,-0.09,1.96598,-9.3272,0.252328,-0.045,-18.57,-36.66,1.44,-0.13827,17.7,-35.04,0.39,-0.15084,-2.52,-7.23,1.23,-0.05028,1.74,-8.16,-0.21,0,0.2202,0.6901,0.1357,-0.2271,0.6741,0.1398,0.2115,0.6237,0.139,-0.1548,0.6765,0.1387,0.187846,0.623588,0.139635,-0.196235,0.610182,0.142223,0.206427,0.607438,0.142144,-0.150998,0.658555,0.139871,-0,0.04,0.02,0.01,0,0,0,0,
-19.126,-39.4741,0.702811,-0.135,18.7898,-37.9416,2.15524,-0.045,-3.35363,-8.01751,1.2235,-0.135,1.67377,-9.38809,1.14303,0,-18.42,-37.29,0.33,-0.17598,18.03,-35.85,1.53,-0.01257,-3.03,-6.9,0.84,-0.08799,1.29,-8.16,0.66,0.01257,0.2189,0.683,0.1402,-0.2266,0.6672,0.1414,0.211,0.6155,0.1419,-0.1529,0.6685,0.1403,0.186648,0.615785,0.142571,-0.194984,0.602464,0.145142,0.205111,0.599737,0.145064,-0.150035,0.650528,0.142805,0.03,0.01,0.03,0,0,0,0,0,
-19.3648,-39.1162,2.26942,-0.45,19.4207,-37.2774,2.46694,0,-2.14854,-8.27284,1.1905,-0.27,1.6666,-9.76404,0.743748,-0.09,-18.54,-37.23,1.74,-0.20112,18.57,-35.43,2.01,-0.05028,-1.98,-7.23,0.66,-0.20112,1.32,-8.58,0.27,-0.01257,0.2178,0.6758,0.1412,-0.2261,0.6592,0.1429,0.2082,0.6083,0.1454,-0.152,0.6614,0.1436,0.18545,0.607981,0.145507,-0.193732,0.594746,0.148062,0.203794,0.592037,0.147984,-0.149072,0.642502,0.14574,0.1,0,0.06,0.02,0,0,0,0,
-19.4986,-38.6383,2.63601,0,19.7666,-38.5632,3.70864,0.09,-2.15843,-7.79315,1.5625,-0.135,1.85439,-8.93993,0.359437,0,-18.81,-36.9,2.1,-0.01257,19.02,-36.33,3.06,0.01257,-1.74,-6.66,1.14,-0.07542,1.47,-7.8,0.09,0.01257,0.2172,0.6672,0.1433,-0.2258,0.6525,0.1445,0.2063,0.5998,0.1474,-0.1512,0.652,0.1468,0.184252,0.600178,0.148443,-0.192481,0.587028,0.150981,0.202478,0.584336,0.150904,-0.148109,0.634475,0.148674,-0,-0.02,0.03,0,0,0,0,0,
-18.8524,-38.9104,3.58762,0,20.0825,-37.374,4.02035,-0.135,-2.09334,-7.56845,1.21451,0.09,2.2072,-9.43583,1.46016,-0.09,-18.18,-37.02,2.94,-0.01257,19.38,-35.73,3.51,-0.10056,-1.65,-6.45,0.66,0.03771,1.83,-8.25,0.75,-0.03771,0.215,0.6597,0.1451,-0.225,0.6449,0.1463,0.2048,0.5918,0.1512,-0.1509,0.6448,0.1488,0.183054,0.592374,0.151379,-0.191229,0.57931,0.153901,0.201161,0.576636,0.153824,-0.147146,0.626449,0.151609,-0,0.03,-0.02,0.02,0,0,0,0,
-18.9862,-39.3925,4.19423,-0.045,19.5884,-37.6998,3.80706,0.09,-2.74823,-7.92877,1.45151,0,2.25999,-8.88168,1.70585,0,-18.18,-37.56,3.57,-0.03771,18.96,-35.76,3.21,0.01257,-2.34,-6.72,0.99,-0,1.95,-7.68,1.14,0.01257,0.2135,0.6524,0.1468,-0.2233,0.6363,0.1498,0.2045,0.5841,0.1535,-0.1501,0.6357,0.1511,0.181856,0.584571,0.154315,-0.189978,0.571592,0.15682,0.199845,0.568935,0.156744,-0.146183,0.618422,0.154543,0.01,-0.02,-0,0,0,0,0,0,
-18.97,-38.4946,4.57584,-0.225,17.6243,-37.1406,4.28375,-0.27,-2.84814,-8.73902,2.70852,-0.045,2.40278,-9.55761,1.27655,-0.09,-18.3,-36.78,3.96,-0.15084,16.95,-35.43,3.75,-0.23883,-2.46,-7.56,2.04,-0.02514,2.01,-8.34,0.99,-0.02514,0.2125,0.6437,0.1491,-0.2187,0.6284,0.1517,0.2035,0.5779,0.155,-0.1493,0.6288,0.154,0.180658,0.576767,0.157251,-0.188726,0.563874,0.15974,0.198528,0.561235,0.159664,-0.14522,0.610396,0.157478,0.05,0.06,0.01,0.02,0,0,0,0,
-18.7138,-37.8667,4.46243,-0.135,17.8052,-36.2814,3.62045,0.135,-3.48803,-8.55934,2.27051,0.09,2.47058,-8.94352,0.367258,0,-18.18,-36.15,4.05,-0.1257,17.19,-34.47,3.03,0.06285,-3.06,-7.41,1.8,0.02514,2.19,-7.68,-0.09,0,0.2114,0.6347,0.1517,-0.2179,0.6191,0.1558,0.2031,0.5702,0.1579,-0.1486,0.6196,0.1589,0.17946,0.568964,0.160187,-0.187475,0.556156,0.162659,0.197212,0.553534,0.162584,-0.144257,0.602369,0.160412,0.03,-0.03,-0.02,0,0,0,0,0,
-17.0626,-37.1038,4.439,-0.27,18.3461,-36.1122,4.54714,-0.045,-2.32793,-8.69463,2.77749,0,2.94337,-9.61935,1.01793,-0.135,-16.59,-35.28,4.05,-0.20112,17.64,-34.11,3.81,-0.08799,-2.19,-7.53,2.16,-0,2.58,-8.4,0.66,-0.07542,0.2079,0.6257,0.1546,-0.2171,0.6105,0.1577,0.2009,0.5625,0.1605,-0.1482,0.6127,0.1606,0.178262,0.56116,0.163123,-0.186223,0.548438,0.165579,0.195895,0.545834,0.165504,-0.143294,0.594343,0.163347,0.06,0.01,-0,0.03,0,0,0,0,
-16.8664,-36.6858,5.00059,-0.09,17.747,-36.5729,5.53381,0.045,-1.7828,-7.94478,2.54947,0.09,3.46119,-9.26021,1.2186,-0.135,-16.14,-34.77,4.38,-0.10056,17.13,-34.62,4.74,0,-1.47,-6.87,2.16,0.02514,3.03,-8.07,0.69,-0.05028,0.2054,0.6169,0.1572,-0.2153,0.6034,0.1592,0.198,0.554,0.1632,-0.1481,0.604,0.1635,0.177064,0.553357,0.166059,-0.184972,0.54072,0.168498,0.194579,0.538134,0.168424,-0.142331,0.586316,0.166281,0.02,-0.01,-0.02,0.03,0,0,0,0,
-17.3752,-36.0279,5.42716,0,16.8479,-35.7137,5.77048,-0.135,-2.2127,-8.51509,2.77145,0.135,2.59899,-9.20105,1.43429,0,-16.62,-34.11,4.86,-0.05028,16.29,-33.81,5.22,-0.16341,-1.8,-7.17,2.13,0.07542,2.43,-8.04,0.78,0,0.2049,0.608,0.1592,-0.2124,0.595,0.1609,0.1971,0.5465,0.1662,-0.1463,0.5964,0.1663,0.175866,0.545554,0.168995,-0.18372,0.533002,0.171417,0.193262,0.530433,0.171344,-0.141368,0.57829,0.169215,-0,0.03,-0.03,0,0,0,0,0,
-17.809,-36.1349,6.03374,0.09,17.2688,-36.2344,6.11216,0.135,-2.68759,-7.67531,2.87343,0,2.42674,-8.88685,1.36496,0,-17.13,-34.26,5.31,0.02514,16.65,-33.96,5.34,0.08799,-2.28,-6.51,2.31,-0.01257,2.1,-7.5,0.75,-0.01257,0.2045,0.6003,0.1615,-0.2117,0.5871,0.1637,0.1965,0.538,0.1688,-0.1446,0.5871,0.1692,0.174668,0.53775,0.171931,-0.182469,0.525284,0.174337,0.191946,0.522733,0.174264,-0.140405,0.570263,0.17215,-0.02,-0.03,-0,0,0,0,0,0,
-17.6278,-35.5069,6.19031,0,17.8097,-35.4352,6.52883,-0.045,-2.39749,-8.3506,3.5154,-0.09,2.46456,-9.42775,2.24063,-0.09,-17.07,-33.57,5.55,0.01257,17.01,-33.39,5.76,-0.03771,-2.13,-7.17,3,-0.02514,2.19,-8.22,1.62,-0.02514,0.2033,0.5913,0.1641,-0.2109,0.5785,0.166,0.195,0.5309,0.1708,-0.1437,0.5802,0.1709,0.17347,0.529947,0.174867,-0.181217,0.517567,0.177256,0.190629,0.515032,0.177184,-0.139442,0.562237,0.175084,-0,0.01,0.02,0.02,0,0,0,0,
-17.5216,-36.244,7.5019,-0.135,17.7506,-36.1808,6.90052,0.09,-2.55737,-7.9158,3.58738,0,2.71235,-9.51854,1.79632,0,-16.86,-34.26,6.66,-0.06285,17.13,-34.05,6.21,0.03771,-2.19,-6.78,3.12,-0,2.34,-8.13,1.26,0,0.202,0.5845,0.1653,-0.21,0.5715,0.168,0.1938,0.523,0.1733,-0.143,0.5721,0.1742,0.172272,0.522143,0.177803,-0.179966,0.509849,0.180176,0.189313,0.507332,0.180104,-0.138479,0.554211,0.178019,0.03,-0.02,-0,0,0,0,0,0,
-17.0403,-36.066,8.07847,-0.135,18.5465,-35.3366,6.3272,0,-2.56727,-8.14102,3.62935,0.045,2.64515,-9.71442,1.90699,-0.09,-16.41,-34.08,7.38,-0.10056,17.76,-33.48,5.91,0,-2.19,-6.96,3.15,0.01257,2.4,-8.58,1.32,-0.01257,0.2,0.5764,0.1669,-0.2097,0.5632,0.1712,0.1925,0.5153,0.1763,-0.1423,0.565,0.1771,0.171074,0.51434,0.180739,-0.178714,0.502131,0.183095,0.187996,0.499632,0.183024,-0.137516,0.546184,0.180953,0.03,0,-0.01,0.02,0,0,0,0,
-16.8891,-36.683,8.53506,-0.045,18.5774,-36.0674,7.10387,0,-2.30715,-7.24123,3.92633,0,2.90792,-9.5202,1.16266,0,-16.35,-34.71,7.74,-0.03771,17.97,-34.05,6.39,0,-1.95,-6.27,3.3,-0,2.49,-8.28,0.84,0,0.1987,0.5694,0.169,-0.2091,0.5561,0.1738,0.1909,0.5067,0.1788,-0.1414,0.5562,0.1806,0.169876,0.506537,0.183675,-0.177463,0.494413,0.186015,0.18668,0.491931,0.185944,-0.136553,0.538158,0.183888,0.01,0,-0,0,0,0,0,0,
-16.8879,-36.2651,8.36163,-0.225,18.0083,-35.2531,8.10554,-0.63,-2.19704,-7.99149,3.66832,0.09,2.52573,-9.47611,1.30335,-0.18,-16.14,-34.41,7.77,-0.17598,17.34,-33.69,7.35,-0.49023,-1.89,-6.78,3.21,0.03771,2.22,-8.4,0.9,-0.06285,0.1969,0.5615,0.1717,-0.2066,0.5483,0.1749,0.1894,0.4995,0.1817,-0.1401,0.5487,0.1836,0.168678,0.498733,0.186611,-0.176211,0.486695,0.188934,0.185363,0.484231,0.188864,-0.13559,0.530131,0.186822,0.05,0.14,-0.02,0.04,0,0,0,0,
-17.3217,-37.0921,8.7582,-0.045,16.2841,-36.1788,7.93721,-0.09,-2.73193,-7.61671,3.18529,0,1.9635,-9.16188,1.15902,-0.045,-16.65,-34.89,7.98,-0.02514,15.9,-34.14,7.38,0,-2.25,-6.48,2.64,-0,1.71,-7.86,0.57,-0.02514,0.1965,0.5541,0.1745,-0.2033,0.541,0.1775,0.1886,0.4917,0.1855,-0.1385,0.5397,0.187,0.16748,0.49093,0.189547,-0.17496,0.478977,0.191854,0.184047,0.47653,0.191784,-0.134627,0.522105,0.189757,0.01,0.02,-0,0.01,0,0,0,0,
-17.8005,-35.9992,8.25477,0,16.735,-34.1346,6.86891,-0.225,-2.63683,-8.65202,4.17227,0,1.14632,-8.78772,1.56969,-0.135,-17.13,-34.23,7.68,-0.08799,16.08,-32.76,6.54,-0.15084,-2.31,-7.38,3.57,-0,0.87,-7.74,1.05,-0.07542,0.1961,0.5456,0.1776,-0.2019,0.5316,0.1816,0.1875,0.4849,0.1876,-0.1358,0.5315,0.1894,0.166282,0.483126,0.192483,-0.173708,0.471259,0.194773,0.18273,0.46883,0.194704,-0.133664,0.514079,0.192691,-0,0.05,-0,0.03,0,0,0,0,
-17.3643,-36.1662,8.08135,-0.135,16.7209,-35.2403,7.31558,0.09,-2.66172,-8.36719,3.34425,0.045,1.55909,-9.17857,0.840374,-0.225,-16.89,-34.17,7.47,-0.02514,16.14,-33.24,6.54,0,-2.34,-7.2,3.09,0.02514,1.26,-7.89,0.54,-0.15084,0.195,0.5374,0.1812,-0.201,0.5237,0.1849,0.1863,0.4774,0.1907,-0.1353,0.5233,0.1928,0.165085,0.475323,0.195419,-0.172457,0.463541,0.197693,0.181414,0.46113,0.197624,-0.132702,0.506052,0.195626,0.03,-0.02,-0.01,0.05,0,0,0,0,
-15.5781,-36.2283,8.73294,-0.315,16.6168,-34.6661,6.95225,-0.18,-2.31161,-8.60747,3.26622,0,1.9119,-9.89946,1.28105,-0.405,-15.09,-34.17,8.1,-0.31425,15.78,-33,6.42,-0.10056,-1.98,-7.23,2.64,0.01257,1.56,-8.64,0.57,-0.31425,0.1909,0.5297,0.1832,-0.1989,0.5163,0.1879,0.1844,0.4695,0.1945,-0.135,0.517,0.1962,0.163887,0.46752,0.198355,-0.171205,0.455823,0.200612,0.180097,0.453429,0.200544,-0.131739,0.498026,0.19856,0.07,0.04,-0,0.09,0,0,0,0,
-16.2819,-35.7803,8.60452,-0.135,16.3777,-35.4718,7.72895,-0.225,-2.72649,-7.87265,3.0382,-0.09,2.03969,-9.67525,1.00173,-0.63,-15.48,-33.81,8.1,-0.17598,15.84,-33.51,6.99,-0.13827,-2.31,-6.78,2.67,-0.05028,1.68,-8.43,0.6,-0.5028,0.1899,0.5213,0.1859,-0.198,0.5088,0.1902,0.1834,0.4614,0.1972,-0.1344,0.5083,0.1987,0.162689,0.459716,0.201291,-0.169954,0.448105,0.203532,0.178781,0.445729,0.203464,-0.130776,0.49,0.201495,0.03,0.05,0.02,0.14,0,0,0,0,
-16.3707,-35.1074,8.59609,0,16.3786,-35.4376,8.71561,-0.54,-2.45139,-7.99295,2.85518,0.135,2.21247,-9.81112,1.42741,-0.675,-15.72,-33.27,8.07,-0.01257,15.63,-33.9,8.01,-0.38967,-2.19,-6.69,2.28,0.03771,1.83,-8.76,0.9,-0.54051,0.189,0.5126,0.189,-0.196,0.5023,0.1914,0.1823,0.453,0.2011,-0.1335,0.5011,0.2016,0.161491,0.451913,0.204227,-0.168702,0.440387,0.206451,0.177464,0.438028,0.206384,-0.129813,0.481973,0.204429,-0,0.12,-0.03,0.15,0,0,0,0,
-16.8195,-35.7544,9.68267,0,16.8145,-35.3432,9.05729,-0.405,-2.79127,-7.99317,3.37715,-0.135,2.52027,-9.10689,1.34309,-0.675,-16.05,-33.81,8.85,-0.01257,16.14,-33.69,8.28,-0.23883,-2.37,-6.84,2.94,-0.06285,2.16,-7.98,0.72,-0.6285,0.1884,0.5055,0.1908,-0.1957,0.4939,0.1939,0.1808,0.4459,0.203,-0.1332,0.4916,0.2046,0.160293,0.444109,0.207163,-0.167451,0.43267,0.209371,0.176148,0.430328,0.209304,-0.12885,0.473947,0.207363,-0,0.09,0.03,0.15,0,0,0,0,
-16.8783,-35.4114,9.40424,0.045,17.0254,-35.519,9.69898,-0.27,-2.36617,-8.71342,3.61414,0.09,2.70806,-8.92774,2.45876,-0.54,-16.29,-33.45,8.73,0.03771,16.23,-33.81,8.94,-0.08799,-2.16,-7.2,3.06,0.01257,2.37,-7.8,1.86,-0.43995,0.1876,0.4972,0.1936,-0.1945,0.4867,0.1956,0.1796,0.4385,0.2056,-0.1324,0.4835,0.2059,0.159095,0.436306,0.210099,-0.166199,0.424952,0.21229,0.174831,0.422628,0.212224,-0.127887,0.46592,0.210298,-0.01,0.06,-0.02,0.12,0,0,0,0,
-17.1321,-35.9835,10.0858,0.045,17.6113,-35.1997,9.29065,0,-2.36105,-8.87861,4.03111,-0.045,3.24084,-9.06357,3.13944,-0.54,-16.44,-33.81,9.27,0.06285,16.8,-33.54,8.64,0.01257,-1.95,-7.68,3.48,-0.05028,2.88,-7.71,2.4,-0.45252,0.1866,0.4899,0.196,-0.1943,0.4783,0.1989,0.1776,0.4319,0.2076,-0.1324,0.4751,0.2077,0.157897,0.428503,0.213035,-0.164948,0.417234,0.215209,0.173515,0.414927,0.215144,-0.126924,0.457894,0.213232,-0.01,0,0.01,0.12,0,0,0,0,
-15.9308,-35.4605,10.4674,0,17.7622,-35.7955,10.0223,0.045,-2.34095,-8.56395,4.01308,0,3.63865,-9.25945,3.41512,-0.27,-15.57,-33.45,9.69,-0.03771,17.04,-34.14,9.27,0.01257,-2.04,-7.41,3.39,-0,3.3,-8.13,2.79,-0.20112,0.1843,0.4819,0.198,-0.1933,0.4718,0.2009,0.1764,0.4239,0.2107,-0.1321,0.468,0.2098,0.156699,0.420699,0.215971,-0.163696,0.409516,0.218129,0.172198,0.407227,0.218063,-0.125961,0.449867,0.216167,-0,-0.01,-0,0.06,0,0,0,0,
-15.7646,-35.7775,10.819,-0.09,18.348,-34.9962,9.50901,0.135,-2.20083,-8.50412,4.04006,0,3.52644,-9.00522,2.41579,-0.36,-15.24,-33.81,10.29,-0.1257,17.64,-33.3,8.7,0.05028,-1.77,-7.41,3.57,-0,3.33,-7.65,1.92,-0.30168,0.1823,0.4744,0.1999,-0.1931,0.4626,0.2046,0.1747,0.4164,0.2132,-0.1314,0.4591,0.2138,0.155501,0.412896,0.218907,-0.162445,0.401798,0.221048,0.170882,0.399526,0.220983,-0.124998,0.441841,0.219101,0.02,-0.03,-0,0.08,0,0,0,0,
-15.7484,-34.9246,11.0205,-0.09,16.9089,-35.307,10.1207,-0.315,-2.75072,-7.45437,3.66205,0,2.81422,-8.76609,3.08147,-0.63,-15.06,-33.15,10.47,-0.10056,16.35,-33.57,9.39,-0.15084,-2.37,-6.33,3.21,-0.01257,2.55,-7.65,2.46,-0.40224,0.1807,0.466,0.2022,-0.1902,0.4554,0.2065,0.1743,0.4068,0.2169,-0.1291,0.4512,0.2163,0.154303,0.405092,0.221843,-0.161193,0.39408,0.223968,0.169565,0.391826,0.223903,-0.124035,0.433815,0.222036,0.02,0.07,-0,0.14,0,0,0,0,
-16.3472,-34.8216,11.1471,0,15.9948,-34.4777,9.72736,-0.225,-3.45061,-7.70962,4.07902,-0.135,1.66701,-8.51194,2.75715,-0.585,-15.63,-32.88,10.41,0.01257,15.3,-32.94,9.12,-0.11313,-3,-6.63,3.6,-0.03771,1.56,-7.29,2.1,-0.54051,0.1805,0.4572,0.2056,-0.1869,0.4466,0.2097,0.174,0.3993,0.2192,-0.1266,0.4423,0.2197,0.153105,0.397289,0.224779,-0.159942,0.386362,0.226887,0.168249,0.384126,0.226823,-0.123072,0.425788,0.22497,-0,0.05,0.03,0.13,0,0,0,0,
-16.301,-34.2836,10.7937,-0.09,16.3557,-33.5435,9.21402,-0.45,-3.59551,-8.06987,4.031,-0.045,1.97483,-8.42282,2.79284,-0.495,-15.75,-32.37,10.32,-0.11313,15.66,-31.71,8.55,-0.23883,-3.21,-6.81,3.57,-0.02514,1.59,-7.26,2.25,-0.38967,0.1796,0.4491,0.2083,-0.1861,0.4371,0.2134,0.1733,0.3919,0.2219,-0.1254,0.4345,0.2225,0.151907,0.389486,0.227715,-0.15869,0.378644,0.229807,0.166933,0.376425,0.229743,-0.122109,0.417762,0.227905,0.02,0.1,0.01,0.11,0,0,0,0,
-15.5348,-33.6407,10.8603,0.045,16.6416,-33.4942,9.72072,-0.315,-3.39539,-8.56512,4.16297,-0.135,2.55262,-8.84362,3.08351,-0.315,-15.03,-31.8,10.11,0.05028,15.99,-31.86,9.09,-0.27654,-3,-7.35,3.63,-0.01257,2.13,-7.59,2.46,-0.2514,0.1772,0.44,0.2121,-0.1854,0.429,0.2157,0.1715,0.3851,0.2249,-0.1254,0.4265,0.2251,0.150709,0.381682,0.23065,-0.157439,0.370926,0.232726,0.165616,0.368725,0.232663,-0.121146,0.409736,0.230839,-0.01,0.07,0.03,0.07,0,0,0,0,
-14.7236,-33.5077,11.4219,-0.135,16.6875,-33.28,9.62738,-0.36,-2.74529,-8.62535,4.30996,-0.09,2.81542,-9.12946,3.85418,-0.36,-14.1,-31.59,10.56,-0.06285,15.9,-31.56,9.06,-0.23883,-2.37,-7.23,3.75,-0.03771,2.55,-8.01,3.27,-0.26397,0.1745,0.4322,0.2141,-0.184,0.4216,0.2184,0.1694,0.3775,0.2275,-0.1251,0.4197,0.2266,0.149511,0.373879,0.233586,-0.156188,0.363208,0.235646,0.1643,0.361024,0.235583,-0.120183,0.401709,0.233774,0.03,0.08,0.02,0.08,0,0,0,0,
-15.0224,-33.3598,11.8334,-0.09,16.8684,-33.4107,10.0741,-0.315,-3.43017,-8.26555,4.24693,0.045,2.67319,-8.90525,3.66487,-0.135,-14.37,-31.62,10.95,-0.07542,16.23,-31.59,9.36,-0.21369,-2.97,-7.11,3.78,0.02514,2.37,-7.83,3.24,-0.06285,0.1735,0.424,0.2165,-0.1835,0.4132,0.2211,0.1687,0.3695,0.2306,-0.1239,0.411,0.2297,0.148313,0.366075,0.236522,-0.154936,0.355491,0.238565,0.162983,0.353324,0.238503,-0.11922,0.393683,0.236708,0.02,0.07,-0.01,0.03,0,0,0,0,
-15.4411,-32.7918,11.81,-0.045,15.8343,-33.9614,11.5257,-0.405,-3.53006,-7.63586,4.07891,0,1.961,-9.04116,3.61053,0.045,-14.82,-31.02,11.04,-0.08799,15.15,-32.34,10.68,-0.16341,-3.09,-6.39,3.6,-0,1.8,-7.95,3.12,0,0.173,0.4154,0.2191,-0.1803,0.407,0.2219,0.1677,0.3606,0.2338,-0.1222,0.4035,0.2325,0.147115,0.358272,0.239458,-0.153685,0.347773,0.241485,0.161667,0.345624,0.241423,-0.118257,0.385656,0.239643,0.01,0.09,-0,-0.01,0,0,0,0,
-15.7999,-33.2588,12.5666,0,16.5102,-33.2672,12.1674,-0.54,-3.61494,-7.98107,5.18589,-0.045,1.81878,-8.51691,3.10622,0,-15.15,-31.41,11.79,0.07542,15.78,-31.77,11.43,-0.36453,-3.21,-6.78,4.53,-0.03771,1.56,-7.38,2.61,0.01257,0.1724,0.408,0.221,-0.1801,0.3982,0.2236,0.1666,0.3534,0.2354,-0.1207,0.3943,0.2365,0.145917,0.350469,0.242394,-0.152433,0.340055,0.244404,0.16035,0.337923,0.244343,-0.117294,0.37763,0.242577,-0,0.12,0.01,0,0,0,0,0,
-16.1138,-32.7059,12.7682,-0.18,16.5411,-33.5029,13.0791,-0.63,-3.62485,-7.71133,4.71786,0,2.20158,-8.68281,3.56189,0,-15.51,-30.9,12.03,-0.1257,15.72,-31.92,12.21,-0.36453,-3.3,-6.54,4.2,-0,1.74,-7.47,2.97,0.01257,0.1718,0.3995,0.2233,-0.1786,0.3908,0.225,0.1653,0.3454,0.2385,-0.12,0.3867,0.2389,0.144719,0.342665,0.24533,-0.151182,0.332337,0.247324,0.159034,0.330223,0.247263,-0.116331,0.369604,0.245511,0.04,0.14,-0,0,0,0,0,0,
-16.1575,-32.6479,13.2697,-0.18,17.0369,-32.5536,12.5958,-0.135,-4.00972,-8.29655,5.13484,0.045,2.31436,-8.60861,3.47758,0,-15.57,-30.84,12.45,-0.1257,16.32,-30.96,11.91,-0.06285,-3.51,-7.14,4.53,0.02514,2.07,-7.38,2.88,0.01257,0.1706,0.3916,0.2257,-0.1784,0.3815,0.2282,0.1644,0.3383,0.2411,-0.1196,0.3781,0.2419,0.143521,0.334862,0.248266,-0.14993,0.324619,0.250243,0.157717,0.322522,0.250183,-0.115368,0.361577,0.248446,0.04,0.03,-0.01,0,0,0,0,0,
-16.1413,-31.84,13.4563,-0.225,17.0828,-31.9044,12.7574,-0.18,-4.00461,-8.28179,5.41681,-0.045,2.69716,-8.90948,3.49825,-0.225,-15.51,-30.06,12.63,-0.11313,16.41,-30.33,12.03,-0.06285,-3.63,-7.14,4.86,-0.05028,2.34,-7.71,3.15,-0.07542,0.1696,0.3826,0.2284,-0.1773,0.373,0.231,0.1633,0.3308,0.2434,-0.1189,0.3708,0.2445,0.142323,0.327058,0.251202,-0.148679,0.316901,0.253162,0.156401,0.314822,0.253103,-0.114405,0.353551,0.25138,0.05,0.04,0.01,0.05,0,0,0,0,
-15.1651,-32.157,14.5279,-0.585,16.4237,-31.7501,13.1441,-0.495,-3.99949,-8.582,5.54879,0.135,2.83994,-9.1503,4.14893,-0.27,-14.58,-30.33,13.68,-0.40224,15.84,-30.21,12.36,-0.41481,-3.69,-7.44,4.95,0.06285,2.52,-7.92,3.57,-0.20112,0.167,0.3751,0.2297,-0.1754,0.3648,0.2332,0.1622,0.3236,0.2461,-0.1184,0.3631,0.2468,0.141125,0.319255,0.254138,-0.147427,0.309183,0.256082,0.155084,0.307122,0.256023,-0.113442,0.345524,0.254315,0.13,0.11,-0.03,0.06,0,0,0,0,
-15.1939,-31.244,15.0445,-0.63,16.5896,-31.3559,12.6158,0,-4.05441,-7.74228,5.35077,0,2.84773,-9.21115,3.86961,-0.135,-14.46,-29.58,14.22,-0.51537,15.96,-29.73,12.03,0,-3.69,-6.78,4.83,-0,2.46,-8.1,3.51,-0.03771,0.1654,0.3663,0.2314,-0.1742,0.3565,0.2367,0.1609,0.3151,0.2492,-0.1173,0.3557,0.2496,0.139927,0.311452,0.257074,-0.146176,0.301465,0.259001,0.153768,0.299421,0.258943,-0.112479,0.337498,0.257249,0.14,0,-0,0.03,0,0,0,0,
-15.1777,-30.6461,15.0661,0,15.9755,-31.2466,13.4375,-0.495,-4.30427,-8.20752,6.20275,0,2.66054,-8.85198,3.09527,0,-14.61,-29.28,14.34,-0.02514,15.33,-29.7,12.69,-0.3771,-3.93,-7.05,5.46,-0,2.4,-7.68,2.58,0,0.1644,0.3578,0.234,-0.172,0.3483,0.2387,0.16,0.3075,0.2513,-0.1164,0.3467,0.2539,0.138729,0.303648,0.26001,-0.144924,0.293747,0.261921,0.152451,0.291721,0.261863,-0.111516,0.329472,0.260184,-0,0.11,-0,0,0,0,0,0,
-15.6115,-29.9431,14.5626,0,16.2764,-30.7774,14.1392,-0.63,-3.96917,-7.78777,6.01972,0.09,3.43332,-8.88286,3.67095,-0.09,-14.91,-28.29,13.68,-0.01257,15.51,-29.22,13.44,-0.59079,-3.69,-6.69,5.49,0.02514,2.97,-7.71,3.06,-0.02514,0.1637,0.3483,0.238,-0.1708,0.3401,0.2403,0.1582,0.2994,0.254,-0.1162,0.3388,0.2564,0.137531,0.295845,0.262946,-0.143673,0.286029,0.26484,0.151135,0.28402,0.264783,-0.110553,0.321445,0.263118,-0,0.14,-0.02,0.02,0,0,0,0,
-14.8303,-30.2002,14.9892,-0.315,16.4423,-31.0131,14.3608,-0.315,-3.99407,-8.68795,6.15171,0.135,3.90613,-8.55364,3.22663,0,-14.19,-28.74,14.28,-0.18855,15.78,-29.16,13.71,-0.22626,-3.66,-7.44,5.52,0.06285,3.51,-7.35,2.61,0,0.1612,0.341,0.24,-0.1702,0.3318,0.2427,0.157,0.2926,0.257,-0.1161,0.33,0.26,0.136333,0.288041,0.265882,-0.142421,0.278312,0.26776,0.149818,0.27632,0.267703,-0.10959,0.313419,0.266053,0.07,0.07,-0.03,0,0,0,0,0,
-15.2641,-29.7222,14.5308,0,16.7882,-30.4989,14.3875,-0.18,-4.46895,-8.64327,6.25367,0,4.42392,-8.62955,3.06731,-0.18,-14.61,-28.08,13.77,-0.02514,16.05,-28.92,13.77,-0.03771,-3.99,-7.41,5.64,-0.01257,3.99,-7.53,2.82,-0.06285,0.1608,0.3321,0.2437,-0.1693,0.3239,0.2455,0.1561,0.2852,0.2596,-0.116,0.3224,0.2626,0.135135,0.280238,0.268818,-0.14117,0.270594,0.270679,0.148502,0.26862,0.270623,-0.108627,0.305392,0.268987,-0,0.04,-0,0.04,0,0,0,0,
-15.3979,-29.8292,15.4674,-0.225,16.2491,-31.0646,15.0292,-0.315,-4.88383,-8.82343,6.13067,0.135,4.13171,-9.3203,4.063,-0.495,-14.64,-28.26,14.58,-0.06285,15.63,-29.16,14.28,-0.15084,-4.38,-7.56,5.58,0.06285,3.87,-7.92,3.39,-0.31425,0.1596,0.3244,0.2456,-0.1676,0.3163,0.2478,0.1554,0.2775,0.2625,-0.115,0.3147,0.2647,0.133937,0.272435,0.271754,-0.139918,0.262876,0.273599,0.147185,0.260919,0.273543,-0.107664,0.297366,0.271922,0.05,0.07,-0.03,0.11,0,0,0,0,
-15.4717,-29.5763,15.9389,-0.585,16.085,-30.5353,14.7559,-0.225,-4.95375,-8.44871,5.87263,0,3.67451,-9.53122,4.66867,-0.405,-14.76,-27.9,15.24,-0.42738,15.39,-28.86,14.16,-0.10056,-4.59,-7.23,5.37,-0,3.39,-8.37,4.14,-0.27654,0.1586,0.3164,0.2473,-0.1657,0.3089,0.2505,0.1545,0.2697,0.2657,-0.1132,0.308,0.2664,0.132739,0.264631,0.27469,-0.138667,0.255158,0.276518,0.145869,0.253219,0.276463,-0.106701,0.28934,0.274856,0.13,0.05,-0,0.09,0,0,0,0,
-15.5154,-29.4133,16.3805,-0.225,16.6408,-30.636,14.8126,0,-5.56361,-8.17895,6.63461,0,3.54729,-9.45702,4.01434,-0.585,-14.79,-27.87,15.63,-0.10056,15.96,-29.1,14.1,0,-5.04,-7.02,6,-0,3.3,-8.22,3.48,-0.49023,0.1574,0.3084,0.2495,-0.1653,0.3009,0.2537,0.1539,0.2614,0.2678,-0.1121,0.2994,0.2702,0.131541,0.256828,0.277626,-0.137415,0.24744,0.279438,0.144552,0.245518,0.279383,-0.105738,0.281313,0.277791,0.05,0,-0,0.13,0,0,0,0,
-15.6192,-28.9054,15.6221,0,16.8217,-30.7368,15.9942,-0.405,-5.39352,-7.74419,6.1816,0.045,3.58508,-9.56287,4.23003,-0.54,-14.97,-27.3,14.88,0.06285,16.02,-29.28,15.15,-0.17598,-4.95,-6.63,5.73,-0,3.27,-8.52,3.63,-0.40224,0.1566,0.2996,0.2534,-0.1642,0.2938,0.2551,0.1526,0.2532,0.2708,-0.1109,0.292,0.273,0.130343,0.249024,0.280562,-0.136164,0.239722,0.282357,0.143236,0.237818,0.282303,-0.104775,0.273287,0.280725,-0,0.09,-0.01,0.12,0,0,0,0,
-15.513,-29.2074,16.6937,-0.135,17.3026,-30.2825,16.0359,-0.495,-4.9684,-8.37438,6.61356,0,3.98287,-8.97868,4.3857,-0.81,-14.85,-27.6,15.87,-0.05028,16.56,-28.68,15.18,-0.23883,-4.62,-6.99,5.94,-0.01257,3.6,-7.71,3.63,-0.66621,0.1553,0.2923,0.255,-0.1639,0.2851,0.2578,0.1508,0.2458,0.2736,-0.1106,0.2827,0.2759,0.129145,0.241221,0.283498,-0.134912,0.232004,0.285277,0.141919,0.230118,0.285223,-0.103812,0.26526,0.28366,0.03,0.11,-0,0.18,0,0,0,0,
-15.7668,-28.9395,15.6203,-0.135,17.4835,-29.8583,15.8226,-0.36,-5.0983,-8.1947,6.26556,-0.09,4.11069,-8.39457,4.33138,-0.585,-15.12,-27.24,15.12,-0.03771,16.74,-28.23,15.15,-0.16341,-4.68,-7.08,5.85,-0.03771,3.69,-7.41,3.81,-0.5028,0.1543,0.2839,0.2589,-0.1628,0.2769,0.2607,0.1494,0.2384,0.2765,-0.1097,0.2743,0.2784,0.127947,0.233418,0.286434,-0.133661,0.224286,0.288196,0.140603,0.222417,0.288143,-0.102849,0.257234,0.286594,0.03,0.08,0.02,0.13,0,0,0,0,
-15.7806,-28.9265,16.3768,-0.27,17.7244,-29.794,15.9092,-0.36,-5.54318,-8.35988,6.14253,0.045,4.47846,-8.36535,3.64705,-0.405,-15.12,-27.42,15.6,-0.13827,17.07,-28.08,15.15,-0.18855,-5.04,-7.23,5.55,-0,4.17,-7.17,3.12,-0.41481,0.1532,0.2763,0.2614,-0.1624,0.2684,0.2637,0.1486,0.2309,0.28,-0.1095,0.2654,0.2824,0.126749,0.225614,0.28937,-0.132409,0.216568,0.291115,0.139286,0.214717,0.291063,-0.101886,0.249208,0.289528,0.06,0.08,-0.01,0.09,0,0,0,0,
-15.1044,-28.7485,17.2834,-0.675,17.9353,-29.2798,15.2159,-0.315,-5.46309,-8.60017,6.7545,0,4.75624,-8.45619,4.32774,-0.495,-14.52,-27.21,16.47,-0.52794,17.19,-27.69,14.61,-0.16341,-5.01,-7.59,6.09,-0,4.41,-7.26,3.72,-0.27654,0.1511,0.2685,0.2629,-0.1612,0.2605,0.2671,0.1473,0.2239,0.2822,-0.109,0.2579,0.2845,0.125551,0.217811,0.292306,-0.131158,0.20885,0.294035,0.13797,0.207016,0.293983,-0.100923,0.241181,0.292463,0.15,0.07,-0,0.11,0,0,0,0,
-15.0282,-28.4505,17.41,-0.72,17.9212,-29.5005,15.9026,-0.495,-6.01296,-8.13537,6.52648,0.09,4.44903,-9.02699,4.60341,-0.81,-14.43,-26.88,16.59,-0.47766,17.28,-27.75,14.88,-0.38967,-5.61,-7.05,5.97,0.02514,4.08,-7.71,4.08,-0.72906,0.1497,0.2599,0.2654,-0.1603,0.2521,0.27,0.1469,0.2152,0.2852,-0.1076,0.25,0.2869,0.124353,0.210007,0.295242,-0.129906,0.201133,0.296954,0.136653,0.199316,0.296902,-0.0999599,0.233155,0.295397,0.16,0.11,-0.02,0.18,0,0,0,0,
-15.522,-28.5426,17.4916,0,18.2821,-29.7663,16.9043,-0.765,-6.45786,-9.18568,7.07846,0.045,4.30685,-10.0179,5.85409,-0.855,-14.67,-25.68,16.2,-0.01257,17.28,-27,15.57,-0.41481,-5.64,-6.63,5.85,0.01257,3.78,-7.47,4.71,-0.71649,0.1491,0.2524,0.2682,-0.1592,0.2458,0.2711,0.1461,0.2091,0.2875,-0.1064,0.2443,0.2879,0.123155,0.202204,0.298178,-0.128655,0.193415,0.299874,0.135337,0.191616,0.299822,-0.0989969,0.225128,0.298332,-0,0.17,-0.01,0.19,0,0,0,0,
-15.7458,-28.4096,18.0981,-0.315,16.723,-29.012,16.751,-0.72,-7.18773,-8.85584,7.48043,-0.045,3.62464,-9.08865,5.46976,-0.63,-14.91,-26.25,17.04,-0.16341,16.02,-27,15.81,-0.60336,-6.51,-7.05,6.48,-0.02514,3.27,-7.38,4.59,-0.60336,0.1482,0.244,0.2702,-0.1561,0.2366,0.2739,0.146,0.2007,0.2899,-0.1046,0.2348,0.2914,0.121957,0.194401,0.301114,-0.127403,0.185697,0.302793,0.13402,0.183915,0.302742,-0.098034,0.217102,0.301266,0.07,0.16,0.01,0.14,0,0,0,0,
-16.4646,-28.1717,18.4947,-0.405,17.2639,-28.8127,16.6727,-0.36,-7.70763,-9.4261,7.35741,-0.09,3.75243,-9.05959,5.49043,-0.18,-15.63,-25.92,17.37,-0.2514,16.35,-26.49,15.69,-0.22626,-7.17,-7.59,6.69,-0,3.3,-7.26,4.62,-0.08799,0.1482,0.2361,0.2724,-0.155,0.2284,0.2768,0.1457,0.1941,0.2922,-0.1034,0.2268,0.2943,0.120759,0.186597,0.30405,-0.126152,0.177979,0.305713,0.132704,0.176215,0.305662,-0.097071,0.209076,0.304201,0.09,0.08,0.02,0.04,0,0,0,0,
-16.2233,-27.1838,17.7063,-0.18,17.5798,-28.4785,17.4493,-0.225,-6.89254,-8.25636,6.39441,0,4.19523,-8.62541,5.04613,-0.45,-15.63,-25.65,17.01,-0.05028,16.89,-26.85,16.44,-0.18855,-6.6,-7.14,5.82,-0,3.72,-7.44,4.53,-0.36453,0.1472,0.2268,0.2765,-0.1545,0.2199,0.2791,0.1437,0.1849,0.2968,-0.1031,0.2179,0.2976,0.119561,0.178794,0.306986,-0.1249,0.170261,0.308632,0.131387,0.168514,0.308582,-0.096108,0.201049,0.307135,0.04,0.05,-0,0.1,0,0,0,0,
-14.7971,-27.1558,18.4479,-0.585,18.0606,-27.7842,17.101,-0.045,-6.0924,-8.30162,7.00637,-0.09,4.77302,-7.89123,4.58681,-0.27,-14.37,-25.47,17.58,-0.55308,17.37,-26.31,16.32,-0.02514,-5.58,-7.14,6.33,-0.03771,4.29,-6.75,4.35,-0.20112,0.144,0.2185,0.2785,-0.1539,0.2117,0.2817,0.1406,0.1772,0.2993,-0.1031,0.2091,0.3007,0.118363,0.17099,0.309921,-0.123649,0.162543,0.311552,0.130071,0.160814,0.311502,-0.095145,0.193023,0.31007,0.13,0.01,0.02,0.06,0,0,0,0,
-15.2009,-25.5678,17.6145,-0.27,17.5515,-27.315,16.8277,-0.09,-6.73233,-7.20684,5.66836,-0.045,4.6908,-7.3371,4.32248,-0.27,-14.58,-24.06,16.95,-0.28911,17.07,-25.53,15.87,-0.02514,-6.24,-6.03,5.13,-0.01257,4.38,-6.03,3.72,-0.22626,0.1428,0.2088,0.282,-0.1527,0.2023,0.2859,0.1402,0.1676,0.3037,-0.1023,0.1994,0.3049,0.117165,0.163187,0.312857,-0.122397,0.154825,0.314471,0.128754,0.153113,0.314422,-0.094182,0.184996,0.313004,0.06,0.02,0.01,0.06,0,0,0,0,
-14.8997,-25.1348,17.111,0,16.6224,-26.9357,17.0194,-0.405,-6.8022,-7.52209,5.90533,-0.09,4.59358,-7.47294,3.84817,-0.36,-14.37,-22.98,16.08,-0,16.08,-24.9,16.02,-0.42738,-6.21,-5.88,5.01,-0.03771,4.08,-5.79,3.42,-0.27654,0.1417,0.1999,0.2863,-0.1499,0.1947,0.2879,0.139,0.1605,0.3066,-0.1011,0.1922,0.3078,0.115967,0.155384,0.315793,-0.121146,0.147107,0.317391,0.127438,0.145413,0.317342,-0.093219,0.17697,0.315939,-0,0.09,0.02,0.08,0,0,0,0,
-15.1985,-22.6169,15.1676,-0.045,16.6083,-23.9914,14.556,0,-6.5271,-6.18733,4.29731,0,4.37638,-6.06379,2.36884,-0.315,-14.37,-20.91,14.4,-0,15.9,-22.35,13.86,-0.01257,-5.94,-4.65,3.66,-0,3.93,-4.44,1.68,-0.26397,0.1401,0.1888,0.2915,-0.1478,0.1829,0.2941,0.1373,0.1505,0.3116,-0.0997,0.1816,0.3138,0.114769,0.14758,0.318729,-0.119894,0.139389,0.32031,0.126122,0.137713,0.320262,-0.092256,0.168944,0.318873,0.01,0,-0,0.07,0,0,0,0,
-13.5023,-21.2689,13.6592,-0.585,16.6842,-22.0522,12.3327,-0.27,-6.40197,-6.27756,3.93428,-0.18,4.65419,-5.65959,1.27952,-0.63,-13.02,-19.38,12.96,-0.56565,15.93,-20.28,11.76,-0.26397,-5.91,-4.59,3.21,-0.10056,4.23,-3.87,0.69,-0.5028,0.1372,0.178,0.2971,-0.1466,0.1715,0.3005,0.136,0.1425,0.3158,-0.0992,0.1726,0.3184,0.113571,0.139777,0.321665,-0.118643,0.131671,0.32323,0.124805,0.130012,0.323182,-0.091293,0.160917,0.321808,0.13,0.06,0.04,0.14,0,0,0,0,
-12.4661,-19.456,11.4458,-0.27,16.7001,-21.568,11.9844,-0.81,-5.97687,-7.52281,3.85626,-0.405,5.30698,-7.37044,2.06519,-0.81,-12.09,-17.73,10.86,-0.13827,15.96,-19.59,11.19,-0.67878,-5.49,-5.73,3.09,-0.26397,4.77,-5.37,1.17,-0.76677,0.1342,0.168,0.3035,-0.1456,0.1626,0.3046,0.1339,0.1368,0.3187,-0.0991,0.1669,0.3207,0.112373,0.131973,0.324601,-0.117392,0.123954,0.326149,0.123489,0.122312,0.326102,-0.09033,0.152891,0.324742,0.06,0.18,0.09,0.18,0,0,0,0,
-12.4349,-18.243,10.6124,-0.54,15.576,-20.0637,10.0011,-0.54,-6.57176,-9.15803,5.00824,-0.54,5.79477,-8.21128,2.50587,-1.26,-11.73,-16.11,9.63,-0.40224,15,-17.94,9.3,-0.54051,-5.88,-6.99,3.87,-0.43995,5.28,-5.97,1.8,-1.15644,0.1322,0.1578,0.3088,-0.1433,0.1529,0.3103,0.1332,0.1316,0.3206,-0.0991,0.1605,0.3226,0.111175,0.12417,0.327537,-0.11614,0.116236,0.329068,0.122172,0.114611,0.329022,-0.0893671,0.144864,0.327676,0.12,0.12,0.12,0.28,0,0,0,0,
-11.7887,-14.8701,8.78892,-0.99,13.8219,-16.3394,8.18276,-0.675,-7.34664,-8.72327,5.45522,-0.63,5.00755,-7.83713,3.05156,-0.9,-11.25,-13.53,8.31,-0.95532,13.08,-15.06,7.53,-0.56565,-6.78,-7.23,4.59,-0.52794,4.8,-6.24,2.49,-0.91761,0.1303,0.1449,0.3141,-0.1383,0.1395,0.317,0.1331,0.1237,0.3224,-0.0975,0.152,0.3247,0.109977,0.116367,0.330473,-0.114889,0.108518,0.331988,0.120856,0.106911,0.331942,-0.0884041,0.136838,0.330611,0.22,0.15,0.14,0.2,0,0,0,0,
-10.1675,-10.5071,6.69549,-0.72,13.5678,-13.2902,7.72945,-0.99,-7.43155,-7.49355,5.46721,-0.27,5.69036,-6.69792,3.73223,-1.035,-9.78,-9.6,6.33,-0.66621,13.17,-12.27,7.2,-0.96789,-7.02,-6.57,4.8,-0.28911,5.28,-5.67,3.12,-1.04331,0.1267,0.1299,0.3206,-0.137,0.1267,0.3209,0.1323,0.1147,0.325,-0.097,0.1429,0.3265,0.108779,0.108563,0.333409,-0.113637,0.1008,0.334907,0.119539,0.0992107,0.334862,-0.0874411,0.128812,0.333545,0.16,0.22,0.06,0.23,0,0,0,0,
-10.2562,-7.05912,6.62709,-0.18,12.0537,-9.26592,6.70612,-0.225,-7.86143,-4.92878,5.58417,-0.18,4.81314,-3.78879,3.61791,-0.495,-9.72,-6.24,5.91,-0.1257,11.73,-8.46,6.09,-0.32682,-7.29,-4.05,4.86,-0.11313,4.65,-3.06,3.12,-0.49023,0.1249,0.1162,0.3247,-0.1336,0.1128,0.3256,0.1314,0.1031,0.3278,-0.0954,0.131,0.3294,0.107581,0.10076,0.336345,-0.112386,0.0930819,0.337827,0.118223,0.0915103,0.337782,-0.0864781,0.120785,0.33648,0.04,0.05,0.04,0.11,0,0,0,0,
-10.5401,-4.81118,7.45866,0,11.7845,-6.99668,7.01778,0.09,-8.36631,-2.484,5.79115,0,3.98097,-1.49466,3.48858,-0.045,-9.99,-4.05,6.78,-0.01257,11.34,-5.94,6.33,0.01257,-7.86,-1.77,5.22,0.01257,3.69,-0.6,2.85,-0.06285,0.1241,0.1045,0.3264,-0.1313,0.1001,0.3283,0.131,0.0913999,0.3303,-0.0926001,0.1184,0.333,0.106383,0.0929564,0.339281,-0.111134,0.085364,0.340746,0.116906,0.0838099,0.340702,-0.0855151,0.112759,0.339414,-0,-0.02,-0,0.01,0,0,0,0,
-9.41382,-3.37322,7.87023,0,12.2204,-4.8924,6.33945,0.27,-7.53621,-1.46424,6.41812,0.225,3.91371,-1.13543,3.88426,0,-9.03,-2.46,7.14,-0.01257,11.61,-4.14,5.94,0.20112,-7.17,-0.63,5.7,0.20112,3.54,-0.15,3.3,0,0.1217,0.0937,0.3285,-0.1304,0.0891001,0.3316,0.1289,0.0813999,0.3327,-0.0913,0.1091,0.3352,0.105185,0.085153,0.342217,-0.109883,0.0776461,0.343666,0.11559,0.0761095,0.343622,-0.0845521,0.104732,0.342349,-0,-0.06,-0.05,0,0,0,0,0,
-8.63262,-1.80028,6.36182,0.495,12.3263,-3.16313,6.95114,-0.09,-7.18609,-1.04448,6.44511,0.45,4.26651,-0.851266,3.34993,0,-8.31,-0.99,5.88,0.46509,11.76,-2.31,6.24,-0.02514,-6.75,-0.18,5.85,0.36453,3.84,-0.09,2.76,0.01257,0.1192,0.0835001,0.3332,-0.1294,0.0782001,0.3344,0.1267,0.0726999,0.3349,-0.0907,0.1012,0.3388,0.103987,0.0773496,0.345153,-0.108631,0.0699282,0.346585,0.114273,0.0684091,0.346542,-0.0835891,0.0967061,0.345283,-0.11,0.02,-0.1,0,0,0,0,0,
-7.35642,-0.257294,4.79339,0.135,10.4372,-2.16884,5.82282,0,-7.331,-1.55473,6.44208,0.135,4.27433,0.0328413,2.47061,0,-7.05,0.33,4.56,0.10056,10.23,-1.17,5.37,0,-6.87,-0.66,5.79,0.11313,3.96,0.57,2.04,0,0.1161,0.0732,0.3383,-0.1262,0.0686,0.3383,0.1254,0.0656999,0.3379,-0.0902,0.0916999,0.3429,0.102789,0.0695462,0.348089,-0.10738,0.0622103,0.349505,0.112957,0.0607087,0.349462,-0.0826261,0.0886797,0.348218,-0.03,0,-0.03,0,0,0,0,0,
-3.9502,0.130646,4.15496,-0.135,6.2531,-0.9046,3.41951,0,-7.56589,-1.38998,5.62906,0.315,2.00208,-0.402967,2.7763,-0.225,-4.02,1.05,3.63,-0.06285,6.15,-0.03,3,0,-7.05,-0.45,5.25,0.18855,1.92,0.51,2.22,-0.18855,0.1102,0.0637001,0.3432,-0.1185,0.0587001,0.345,0.1244,0.0577999,0.3415,-0.0861999,0.0834999,0.3457,0.101591,0.0617428,0.351025,-0.106128,0.0544924,0.352424,0.11164,0.0530083,0.352382,-0.0816632,0.0806533,0.351152,0.03,0,-0.07,0.05,0,0,0,0,
-0.364006,0.383622,2.69154,0.09,5.92399,-2.10039,2.56118,0,-7.00577,-1.69022,5.46104,0.18,2.41492,-0.343846,2.16697,-0.045,-0.33,0.99,2.4,0.03771,5.43,-0.93,1.89,0,-6.75,-0.63,4.77,0.08799,1.92,0.57,1.86,0,0.1025,0.056,0.3479,-0.1149,0.0520001,0.3504,0.1229,0.0502999,0.3456,-0.0845,0.0752999,0.3492,0.100393,0.0539394,0.353961,-0.104877,0.0467745,0.355344,0.110324,0.0453079,0.355302,-0.0807002,0.0726269,0.354087,-0.02,0,-0.04,0.01,0,0,0,0,
-1.50279,0.276586,2.59313,-0.09,5.74488,-0.896072,3.95285,-0.135,-6.95565,-2.83047,7.22802,-0.045,3.33772,-0.794682,2.72764,0,-1.11,1.29,2.01,-0.05028,5.34,0.09,3.18,-0.07542,-6.36,-1.56,6.39,-0,2.91,0.21,2.04,0.01257,0.1017,0.0477,0.3519,-0.1135,0.0428,0.3516,0.1206,0.0438999,0.3461,-0.0853,0.0680999,0.3521,0.0991954,0.046136,0.356897,-0.103625,0.0390566,0.358263,0.109007,0.0376075,0.358222,-0.0797372,0.0646005,0.357021,0.02,0.03,0.01,0,0,0,0,0,
-2.41659,-1.37544,4.3997,0.36,6.03078,-2.10683,5.20955,0.09,-7.68553,-4.1507,8.965,0.18,3.96051,-1.06552,4.26333,0,-1.92,-0.21,3.66,0.17598,5.52,-0.81,4.38,0.05028,-7.05,-2.76,7.95,0.10056,3.51,-0.12,3.51,0,0.1018,0.0422,0.3525,-0.1125,0.0365001,0.3525,0.1205,0.0383999,0.3462,-0.0853,0.0608999,0.3527,0.0979974,0.0383326,0.359833,-0.102374,0.0313387,0.361183,0.107691,0.0299071,0.361142,-0.0787742,0.0565741,0.359956,-0.08,-0.02,-0.04,0,0,0,0,0,
-3.28538,-3.14749,6.44628,0.45,6.93166,-1.48759,7.7112,0.72,-8.10045,-4.34596,10.222,0.225,4.4933,-2.22133,5.709,0.315,-2.79,-1.77,5.58,0.36453,6.36,-0.6,6.69,0.61593,-7.59,-3.18,9.36,0.18855,4.08,-1.05,4.83,0.18855,0.1022,0.0369,0.3521,-0.1126,0.0288001,0.3517,0.1201,0.0313999,0.3468,-0.0853,0.0541999,0.3533,0.0967994,0.0305292,0.362769,-0.101122,0.0236208,0.364102,0.106374,0.0222067,0.364062,-0.0778112,0.0485477,0.36289,-0.1,-0.16,-0.05,-0.07,0,0,0,0,
-4.57415,-4.85955,8.58285,0.675,7.80255,-5.17329,10.0629,0.585,-8.30533,-3.9562,10.384,0.18,4.92108,-1.30715,7.07968,0.135,-3.99,-3.6,7.77,0.69135,7.23,-3.84,9,0.46509,-7.74,-2.88,9.87,0.15084,4.5,-0.33,6.3,0.05028,0.103,0.0324,0.3514,-0.1128,0.0255,0.3507,0.1189,0.0234999,0.3484,-0.0852,0.0453999,0.3538,0.0956014,0.0227258,0.365705,-0.0998707,0.0159029,0.367021,0.105058,0.0145063,0.366982,-0.0768482,0.0405213,0.365824,-0.15,-0.13,-0.04,-0.03,0,0,0,0,
-5.27796,-6.88658,10.1194,0.36,8.85344,-7.31406,11.7246,0.36,-8.99021,-3.49142,9.16594,0.72,5.07888,-2.34299,7.44536,0.225,-4.83,-5.52,9.24,0.30168,8.25,-5.85,10.74,0.28911,-8.43,-2.58,8.64,0.55308,4.74,-1.08,6.81,0.08799,0.1032,0.0276,0.3517,-0.1133,0.0215001,0.3504,0.1188,0.0150999,0.3532,-0.0845,0.0381999,0.3556,0.0944034,0.0149224,0.368641,-0.0986193,0.00818498,0.369941,0.103741,0.00680588,0.369902,-0.0758852,0.0324949,0.368759,-0.08,-0.08,-0.16,-0.05,0,0,0,0,
-6.05676,-8.50864,11.221,-0.09,9.90433,-10.7298,13.3712,0.495,-9.39012,-4.48167,8.84791,0.135,5.52164,-2.76383,7.18103,-0.045,-5.52,-7.08,10.44,-0.01257,9.27,-9.09,12.42,0.38967,-8.82,-3.21,8.31,0.11313,5.07,-1.62,6.63,-0.07542,0.1033,0.0228001,0.3525,-0.1138,0.0191,0.3505,0.1183,0.00829992,0.3568,-0.0842,0.0310999,0.3586,0.0932054,0.00711899,0.371577,-0.0973678,0.000467077,0.37286,0.102425,-0.000894525,0.372822,-0.0749222,0.0244685,0.371693,0.02,-0.11,-0.03,0.01,0,0,0,0,
-6.94053,-10.7307,12.3976,0,10.7152,-12.8105,14.8829,0.18,-10.03,-5.5769,8.22989,0.54,6.03942,-4.39966,7.35172,-0.045,-6.36,-9.21,11.55,-0,10.08,-11.43,13.83,0.1257,-9.48,-4.41,7.65,0.47766,5.64,-3.06,6.69,-0.01257,0.1035,0.0184,0.3537,-0.1139,0.0156001,0.3509,0.1179,0.00249991,0.3609,-0.0841,0.0251999,0.3617,0.0920074,-0.000684405,0.374513,-0.0961163,-0.00725082,0.37578,0.101108,-0.00859493,0.375741,-0.0739592,0.0164421,0.374628,-0,-0.04,-0.12,0.01,0,0,0,0,
-8.10931,-12.6377,13.1242,-0.135,11.4811,-15.4013,16.4546,-0.135,-10.4749,-7.07717,8.81185,0,6.60228,-5.3005,8.03239,0,-7.53,-10.98,12.24,-0.07542,10.86,-13.68,15.36,-0.11313,-9.9,-5.61,8.04,-0,6.12,-4.08,7.32,0,0.1041,0.014,0.3552,-0.114,0.0116001,0.3512,0.1174,-0.00300005,0.3636,-0.0840001,0.0194999,0.3635,0.0908095,-0.00848781,0.377449,-0.0948648,-0.0149687,0.378699,0.0997919,-0.0162953,0.378661,-0.0729963,0.00841571,0.377562,0.03,0.03,-0,0,0,0,0,0,
-8.9181,-15.2347,14.6307,-0.135,12.292,-17.467,17.9813,-0.045,-10.5898,-7.60239,8.62884,0,7.18007,-5.19638,7.58806,-0.495,-8.31,-13.47,13.59,-0.06285,11.7,-15.99,16.95,-0.01257,-10.02,-6.3,8.04,-0.06285,6.72,-4.05,7.05,-0.41481,0.1044,0.01,0.356,-0.1141,0.00800011,0.3515,0.1162,-0.00960007,0.366,-0.0840001,0.0112999,0.3668,0.0896115,-0.0162912,0.380385,-0.0936133,-0.0226866,0.381619,0.0984754,-0.0239957,0.381581,-0.0720333,0.00038931,0.380497,0.03,0.01,-0,0.11,0,0,0,0,
-9.6519,-16.7218,16.0623,-0.54,13.1029,-19.1578,19.0429,-0.18,-10.8997,-8.24763,8.62581,0,7.69785,-5.4522,6.64875,0.09,-9.09,-15.3,15.18,-0.43995,12.39,-17.52,17.91,-0.21369,-10.38,-7.17,7.95,0.01257,7.23,-4.38,6.21,0.08799,0.1045,0.00550005,0.3564,-0.1142,0.00280008,0.3528,0.1157,-0.0157001,0.3693,-0.0839,0.00399992,0.371,0.0884135,-0.0240946,0.383321,-0.0923618,-0.0304045,0.384538,0.0971589,-0.0316961,0.384501,-0.0710703,-0.00763709,0.383431,0.12,0.04,-0,-0.02,0,0,0,0,
-10.3707,-18.7188,17.5839,-0.225,14.1238,-20.0385,20.2846,-0.63,-11.3295,-8.50288,8.6978,-0.09,8.15563,-5.468,6.08441,-0.315,-9.81,-17.01,16.62,-0.20112,13.38,-18.54,19.2,-0.47766,-10.71,-7.2,7.98,-0.03771,7.65,-4.2,5.49,-0.2514,0.1045,0.000800045,0.3568,-0.1145,-0.00269988,0.3532,0.1148,-0.0232001,0.3721,-0.0837,-0.00430015,0.3751,0.0872155,-0.031898,0.386257,-0.0911104,-0.0381224,0.387458,0.0958424,-0.0393965,0.387421,-0.0701073,-0.0156635,0.386366,0.05,0.14,0.02,0.07,0,0,0,0,
-10.9845,-19.6208,19.0455,-0.72,15.0697,-21.5943,21.7213,-0.45,-11.2344,-8.80311,8.33477,-0.045,8.40345,-6.12886,6.2251,-0.18,-10.38,-18.06,18.06,-0.64107,14.31,-20.01,20.52,-0.36453,-10.62,-7.59,7.68,-0,7.95,-4.86,5.64,-0.11313,0.1044,-0.0052,0.3573,-0.1149,-0.00789991,0.3541,0.1134,-0.0301001,0.3754,-0.0833001,-0.0113001,0.3781,0.0860175,-0.0397014,0.389192,-0.0898589,-0.0458403,0.390377,0.0945259,-0.0470969,0.390341,-0.0691443,-0.0236899,0.3893,0.16,0.1,0.01,0.04,0,0,0,0,
-11.6883,-20.4929,20.582,-0.675,15.8356,-22.25,21.463,-0.09,-12.0544,-8.98337,8.60175,0,8.56117,-6.59467,6.23077,-0.27,-11.07,-19.02,19.56,-0.57822,15.12,-20.61,20.4,-0.20112,-11.37,-7.83,7.89,-0,8.13,-5.31,5.46,-0.15084,0.1043,-0.0114,0.3576,-0.115,-0.0145999,0.357,0.1133,-0.0375001,0.3784,-0.0825999,-0.0187002,0.3814,0.0848195,-0.0475048,0.392128,-0.0886074,-0.0535582,0.393297,0.0932094,-0.0547973,0.393261,-0.0681813,-0.0317163,0.392235,0.15,0.02,-0,0.06,0,0,0,0,
-12.3471,-21.4549,21.9386,-0.495,16.5865,-22.5757,21.9997,-0.54,-12.6192,-9.95859,9.00371,0.09,8.11897,-7.64551,6.95645,-0.225,-11.7,-19.8,20.82,-0.33939,15.81,-21,20.82,-0.47766,-12,-8.67,8.34,0.03771,7.74,-6.36,6.15,-0.21369,0.1042,-0.0176,0.3582,-0.115,-0.0216999,0.3594,0.113,-0.0441001,0.3805,-0.0812,-0.0252002,0.3832,0.0836216,-0.0553082,0.395064,-0.0873559,-0.0612761,0.396216,0.091893,-0.0624977,0.396181,-0.0672183,-0.0397427,0.395169,0.11,0.12,-0.02,0.05,0,0,0,0,
-12.7208,-21.202,22.2752,-0.27,17.3374,-23.0365,22.4463,-0.81,-13.0791,-9.85384,8.74571,-0.045,8.84681,-7.8114,6.51213,-0.63,-12.06,-19.68,21.18,-0.30168,16.53,-21.39,21.42,-0.77934,-12.42,-8.55,8.13,-0.02514,8.28,-6.54,5.94,-0.43995,0.1037,-0.0253,0.3605,-0.115,-0.0284999,0.3609,0.1126,-0.0516001,0.3834,-0.081,-0.0325001,0.3862,0.0824236,-0.0631116,0.398,-0.0861044,-0.068994,0.399136,0.0905765,-0.0701981,0.399101,-0.0662553,-0.0477691,0.398104,0.06,0.18,0.01,0.14,0,0,0,0,
-13.1847,-20.394,21.9518,-0.045,18.0282,-22.8522,22.698,-0.765,-13.209,-9.83909,9.16268,0,9.15458,-7.81222,6.80281,-0.585,-12.54,-19.14,20.97,-0.13827,17.28,-21.3,21.81,-0.67878,-12.66,-8.64,8.49,-0.01257,8.7,-6.6,6.21,-0.45252,0.1032,-0.0339999,0.3636,-0.1149,-0.0365999,0.3631,0.1118,-0.0594001,0.386,-0.0807,-0.0406001,0.3888,0.0812256,-0.070915,0.400936,-0.0848529,-0.0767119,0.402055,0.08926,-0.0778985,0.402021,-0.0652924,-0.0557955,0.401038,0.01,0.17,-0,0.13,0,0,0,0,
-12.9734,-20.0961,22.3784,-0.495,18.6291,-22.173,22.7097,-0.27,-13.1739,-10.2443,9.69966,-0.09,9.70235,-7.54304,7.09348,-0.675,-12.45,-18.66,21.18,-0.28911,17.85,-20.61,21.81,-0.23883,-12.51,-8.91,8.94,-0.02514,9.15,-6.39,6.54,-0.69135,0.1021,-0.0425999,0.3662,-0.1148,-0.0449999,0.366,0.1102,-0.0665001,0.3881,-0.0805,-0.0487001,0.3911,0.0800276,-0.0787184,0.403872,-0.0836014,-0.0844298,0.404975,0.0879435,-0.0855989,0.404941,-0.0643294,-0.0638219,0.403972,0.11,0.06,0.02,0.15,0,0,0,0,
-13.4522,-18.5381,21.6649,-0.495,18.9,-21.7487,24.1464,-0.585,-13.6038,-9.73456,9.08163,0.045,10.1752,-7.57392,8.38916,-0.72,-12.78,-17.49,20.82,-0.3771,18.21,-20.31,22.98,-0.49023,-13.02,-8.52,8.46,0.02514,9.66,-6.36,7.59,-0.71649,0.1014,-0.0521,0.3695,-0.1143,-0.0535,0.3675,0.1096,-0.0746001,0.3916,-0.0804001,-0.0569001,0.3927,0.0788296,-0.0865218,0.406808,-0.08235,-0.0921477,0.407894,0.086627,-0.0932993,0.407861,-0.0633664,-0.0718483,0.406907,0.11,0.13,-0.01,0.16,0,0,0,0,
-13.541,-18.0451,21.8515,-0.54,19.6209,-20.8595,24.653,-0.585,-13.7037,-9.77979,9.72361,-0.09,10.738,-6.67472,8.57484,-0.63,-12.96,-16.56,20.85,-0.41481,18.81,-19.47,23.55,-0.59079,-13.08,-8.49,9.06,-0.01257,10.2,-5.64,7.8,-0.65364,0.1005,-0.062,0.3728,-0.1138,-0.0623999,0.3692,0.1083,-0.0826001,0.3939,-0.0803,-0.0659001,0.3948,0.0776316,-0.0943252,0.409744,-0.0810985,-0.0998656,0.410813,0.0853106,-0.101,0.410781,-0.0624034,-0.0798746,0.409841,0.12,0.13,0.02,0.14,0,0,0,0,
-14.3198,-17.3272,22.6981,-0.495,19.2168,-20.1502,25.1747,-0.45,-14.5236,-9.60006,10.7106,0,10.9257,-6.96059,9.73552,-0.18,-13.56,-15.99,21.66,-0.47766,18.72,-18.75,24.09,-0.42738,-13.74,-8.37,9.93,-0.01257,10.41,-5.67,8.79,-0.20112,0.1003,-0.0707,0.3744,-0.1127,-0.0715999,0.3711,0.1082,-0.0906,0.3954,-0.0798,-0.0742001,0.3964,0.0764336,-0.102129,0.41268,-0.079847,-0.107584,0.413733,0.0839941,-0.1087,0.413701,-0.0614404,-0.087901,0.412776,0.11,0.1,-0,0.04,0,0,0,0,
-14.9786,-16.7292,23.3197,-0.315,19.1877,-19.3959,25.7564,0.045,-15.4184,-9.46528,11.6076,0.045,10.3186,-6.61639,10.0712,-0.135,-14.25,-15.36,22.38,-0.35196,18.45,-18.09,24.63,0.03771,-14.58,-8.31,10.8,0.02514,9.9,-5.46,9.3,-0.11313,0.1002,-0.0795,0.376,-0.1108,-0.0801999,0.3732,0.1083,-0.0983001,0.3969,-0.0782,-0.0825001,0.3984,0.0752357,-0.109932,0.415616,-0.0785955,-0.115301,0.416652,0.0826776,-0.116401,0.416621,-0.0604774,-0.0959274,0.41571,0.07,-0.01,-0.01,0.03,0,0,0,0,
-15.4724,-15.8463,23.4162,0,19.0986,-18.7767,26.5331,-0.135,-16.1633,-9.27054,12.2195,0.045,10.5364,-7.11226,11.3519,0,-14.79,-14.61,22.56,-0.10056,18.36,-17.49,25.29,-0.05028,-15.42,-8.13,11.49,0.01257,10.11,-5.91,10.44,-0.02514,0.0999,-0.0887,0.3784,-0.1094,-0.0890999,0.3752,0.1083,-0.1064,0.3985,-0.0773,-0.0900001,0.3995,0.0740377,-0.117735,0.418552,-0.077344,-0.123019,0.419572,0.0813611,-0.124101,0.419541,-0.0595144,-0.103954,0.418645,-0,0.03,-0.01,0,0,0,0,0,
-15.4262,-15.1733,23.7978,0,19.4595,-17.9774,26.7247,0.045,-16.8482,-9.06078,12.5615,0,10.9191,-6.82807,11.7926,-0.135,-14.79,-13.86,22.65,0.01257,18.72,-16.86,25.62,0.02514,-16.11,-7.95,11.7,0.03771,10.41,-5.61,10.98,-0.08799,0.099,-0.0977,0.3816,-0.1086,-0.0973999,0.3772,0.1082,-0.1143,0.401,-0.0769,-0.0982001,0.4014,0.0728397,-0.125539,0.421488,-0.0760925,-0.130737,0.422491,0.0800446,-0.131801,0.422461,-0.0585514,-0.11198,0.421579,-0,-0.01,-0,0.03,0,0,0,0,
-15.725,-14.6503,24.1194,-0.045,19.9853,-16.9082,25.6564,0.09,-17.4431,-9.12098,13.3385,0,10.777,-7.05392,12.6682,-0.225,-15,-13.38,23.19,-0.03771,19.2,-15.48,24.66,0.03771,-16.62,-7.89,12.42,-0.02514,10.38,-5.85,11.94,-0.17598,0.098,-0.1063,0.3834,-0.1083,-0.1075,0.3816,0.1078,-0.1222,0.4027,-0.076,-0.106,0.4028,0.0716417,-0.133342,0.424424,-0.0748411,-0.138455,0.425411,0.0787281,-0.139502,0.425381,-0.0575885,-0.120007,0.424514,0.01,-0.02,-0,0.05,0,0,0,0,
-16.2488,-13.7074,22.896,0,20.0012,-16.5289,26.6431,-0.225,-17.783,-9.30123,14.3255,-0.09,11.5047,-6.45474,12.4339,-0.45,-15.54,-12.51,21.96,0.03771,19.17,-15.27,25.53,-0.15084,-17.13,-8.28,13.47,-0.02514,10.83,-5.28,11.67,-0.35196,0.0976,-0.1156,0.388,-0.107,-0.116,0.3834,0.1072,-0.1293,0.4039,-0.0758,-0.1148,0.4059,0.0704437,-0.141146,0.42736,-0.0735896,-0.146173,0.42833,0.0774117,-0.147202,0.428301,-0.0566255,-0.128033,0.427448,-0,0.05,0.02,0.1,0,0,0,0,
-15.5426,-13.5294,24.0125,0,20.6322,-15.9696,26.6848,-0.135,-18.1379,-8.49148,13.3625,0.045,12.0225,-6.06561,12.5446,-0.09,-14.88,-12.3,22.95,-0,19.74,-14.76,25.65,-0.06285,-17.43,-7.44,12.6,0.01257,11.43,-5.07,11.79,-0.03771,0.0956,-0.124,0.3899,-0.1068,-0.1248,0.3858,0.1067,-0.1382,0.4079,-0.0757,-0.1231,0.4088,0.0692457,-0.148949,0.430296,-0.0723381,-0.153891,0.43125,0.0760952,-0.154903,0.431221,-0.0556625,-0.136059,0.430383,-0,0.03,-0.01,0.02,0,0,0,0,
-16.0214,-13.1715,24.6491,-0.09,21.218,-15.2154,26.2015,0,-18.1028,-8.41672,14.1394,0,12.2853,-5.28644,12.8803,-0.18,-15.3,-11.76,23.64,-0.01257,20.46,-13.89,25.35,0.01257,-17.31,-7.29,13.29,0.01257,11.76,-4.11,11.97,-0.10056,0.0949,-0.1324,0.3914,-0.1066,-0.1337,0.3893,0.1051,-0.1461,0.4099,-0.0753999,-0.1325,0.4114,0.0680478,-0.156752,0.433232,-0.0710866,-0.161609,0.434169,0.0747787,-0.162603,0.434141,-0.0546995,-0.144086,0.433317,0.02,0,-0,0.04,0,0,0,0,
-16.0801,-13.2785,24.1457,0,21.9089,-15.6761,27.4131,0,-18.0077,-8.40198,15.2014,0,12.5181,-5.66223,13.6059,-0.045,-15.51,-11.85,23.31,0.01257,21.06,-14.13,26.22,0,-17.28,-7.14,14.19,0.01257,11.88,-4.56,12.75,-0.05028,0.0941,-0.1404,0.3945,-0.1065,-0.1414,0.3911,0.104,-0.1542,0.4115,-0.0746,-0.1402,0.4129,0.0668498,-0.164556,0.436168,-0.0698351,-0.169327,0.437089,0.0734622,-0.170303,0.437061,-0.0537365,-0.152112,0.436252,-0,0,-0,0.01,0,0,0,0,
-16.6039,-13.1755,24.5273,0.09,22.5698,-15.2819,27.2448,-0.135,-18.1076,-8.71719,15.6484,0.045,13.0959,-5.91806,13.5666,-0.18,-15.9,-11.85,23.31,0.10056,21.66,-13.95,26.16,-0.1257,-17.34,-7.62,14.73,0.02514,12.45,-4.68,12.72,-0.11313,0.0934,-0.1483,0.398,-0.1062,-0.1494,0.3934,0.1024,-0.1613,0.4133,-0.0746,-0.1481,0.4159,0.0656518,-0.172359,0.439104,-0.0685836,-0.177045,0.440008,0.0721457,-0.178004,0.439981,-0.0527735,-0.160139,0.439186,-0.02,0.03,-0.01,0.04,0,0,0,0,
-16.8577,-12.8926,24.8789,-0.045,22.9907,-14.6926,26.1615,0,-18.7774,-8.79243,15.4954,0,13.6137,-5.6789,13.1673,-0.225,-16.17,-11.85,24.03,-0,22.14,-13.44,25.29,0.01257,-18,-7.68,14.7,-0,12.96,-4.68,12.48,-0.16341,0.0927,-0.1559,0.3996,-0.1058,-0.1578,0.3979,0.1022,-0.1685,0.4161,-0.0745,-0.156,0.4192,0.0644538,-0.180163,0.44204,-0.0673322,-0.184763,0.442928,0.0708292,-0.185704,0.442901,-0.0518105,-0.168165,0.44212,0.01,0,-0,0.05,0,0,0,0,
-17.4415,-12.4596,23.8354,0.09,23.3066,-14.8233,27.8532,-0.405,-19.0424,-8.80767,15.6573,0,14.0715,-5.46978,14.043,-0.495,-16.68,-11.16,22.92,0.10056,22.5,-13.41,26.52,-0.22626,-18.27,-7.62,14.82,0.01257,13.38,-4.23,13.02,-0.17598,0.0924,-0.1648,0.4039,-0.1053,-0.1656,0.3992,0.1014,-0.1764,0.4189,-0.0743,-0.1646,0.4215,0.0632558,-0.187966,0.444976,-0.0660807,-0.19248,0.445847,0.0695128,-0.193405,0.445821,-0.0508475,-0.176191,0.445055,-0.02,0.09,-0,0.11,0,0,0,0,
-17.5453,-12.8517,24.802,0,23.5775,-14.8791,27.8048,0,-19.3222,-8.53794,15.3243,0,14.1543,-5.23062,13.3586,-0.045,-16.95,-11.55,23.7,0.01257,22.65,-13.56,26.67,0,-18.54,-7.44,14.58,-0.01257,13.65,-4.23,12.72,-0.03771,0.0916,-0.1724,0.4062,-0.1042,-0.1733,0.4016,0.1004,-0.1844,0.422,-0.0737,-0.1728,0.4246,0.0620578,-0.195769,0.447912,-0.0648292,-0.200198,0.448766,0.0681963,-0.201105,0.448741,-0.0498846,-0.184218,0.447989,-0,0,-0,0.01,0,0,0,0,
-18.1441,-12.6137,24.6436,0,23.7434,-14.6648,27.1415,-0.045,-20.1121,-8.67316,15.0963,0.045,14.3271,-4.97646,12.3293,0,-17.37,-11.31,23.82,-0.03771,22.92,-13.32,26.19,-0.01257,-19.2,-7.5,14.31,0.03771,13.62,-3.93,11.7,0.02514,0.0911,-0.1803,0.4085,-0.1036,-0.1813,0.4051,0.1004,-0.1921,0.4256,-0.0728,-0.1814,0.4291,0.0608598,-0.203573,0.450848,-0.0635777,-0.207916,0.451686,0.0668798,-0.208805,0.45166,-0.0489216,-0.192244,0.450924,-0,0.01,-0.01,0,0,0,0,0,
-18.8629,-12.0907,23.7652,0,23.2493,-15.5156,28.2482,-0.18,-20.842,-8.53839,15.5733,-0.135,13.8999,-5.87729,13.37,-0.045,-18.03,-10.95,22.92,0.03771,22.5,-13.92,27,-0.15084,-19.98,-7.32,14.79,-0.08799,13.38,-4.74,12.42,0,0.0911,-0.1886,0.4129,-0.1016,-0.1882,0.4073,0.1003,-0.2001,0.4278,-0.0715,-0.1883,0.4312,0.0596619,-0.211376,0.453784,-0.0623262,-0.215634,0.454605,0.0655633,-0.216506,0.45458,-0.0479586,-0.200271,0.453858,-0,0.04,0.03,0.01,0,0,0,0,
-19.5217,-12.4528,24.5668,-0.09,23.8351,-15.2863,27.3299,-0.315,-21.5719,-9.04865,15.1503,-0.045,13.8927,-6.32813,12.9857,-0.225,-18.72,-11.22,23.55,-0.15084,22.89,-14.04,26.43,-0.18855,-20.7,-7.83,14.4,-0,13.29,-5.13,12.21,-0.1257,0.091,-0.1961,0.4151,-0.1008,-0.1954,0.4104,0.1002,-0.2071,0.4312,-0.0703001,-0.1955,0.4344,0.0584639,-0.21918,0.45672,-0.0610747,-0.223352,0.457525,0.0642468,-0.224206,0.4575,-0.0469956,-0.208297,0.456793,0.02,0.07,0.01,0.05,0,0,0,0,
-20.1355,-11.7198,22.8783,0,24.1511,-15.027,27.3416,-0.225,-22.3168,-8.50889,15.1472,-0.045,14.0355,-6.19394,12.4663,-0.045,-19.35,-10.62,22.05,-0,23.34,-13.53,26.01,-0.1257,-21.45,-7.38,14.25,-0.01257,13.41,-5.1,11.64,0.01257,0.0909,-0.2049,0.4201,-0.1003,-0.2043,0.4145,0.1002,-0.2154,0.4345,-0.0695,-0.2036,0.4382,0.0572659,-0.226983,0.459656,-0.0598233,-0.23107,0.460444,0.0629303,-0.231907,0.46042,-0.0460326,-0.216323,0.459727,-0,0.05,0.01,0.01,0,0,0,0,
-20.2993,-12.1419,23.7699,-0.27,24.4069,-14.9628,27.8782,-0.54,-22.7317,-8.91414,15.1292,0.18,14.4782,-6.26978,12.787,-0.225,-19.56,-10.77,22.8,-0.17598,23.55,-13.77,26.85,-0.31425,-21.81,-7.77,14.28,0.10056,13.77,-5.16,11.91,-0.17598,0.0902,-0.2126,0.4223,-0.0994,-0.2113,0.416,0.0995,-0.2225,0.4373,-0.0692,-0.2115,0.4409,0.0560679,-0.234786,0.462592,-0.0585718,-0.238788,0.463364,0.0616139,-0.239607,0.46334,-0.0450696,-0.22435,0.462662,0.06,0.12,-0.04,0.05,0,0,0,0,
-20.778,-11.8139,23.9415,0,25.1278,-15.0185,28.8049,-0.27,-23.2816,-7.93936,14.7812,-0.09,14.8311,-6.31563,12.8077,0.045,-19.92,-10.62,22.92,-0.08799,24.21,-13.74,27.54,-0.21369,-22.32,-6.84,13.89,-0.01257,14.25,-5.22,12.03,0.03771,0.0895,-0.2205,0.4248,-0.0992,-0.2193,0.4179,0.0991,-0.2316,0.4411,-0.0689001,-0.2193,0.4435,0.0548699,-0.24259,0.465527,-0.0573203,-0.246506,0.466283,0.0602974,-0.247307,0.46626,-0.0441066,-0.232376,0.465596,-0,0.06,0.02,-0.01,0,0,0,0,
-20.9119,-11.6509,23.7531,0.045,25.8787,-15.0143,29.2666,-0.36,-22.7965,-8.61461,15.6032,-0.045,15.3938,-6.18149,12.6634,-0.135,-20.16,-10.41,22.77,0.07542,24.87,-13.77,28.11,-0.22626,-22.02,-7.38,14.64,-0,14.67,-5.01,11.85,-0.10056,0.0889,-0.2285,0.4279,-0.0992,-0.2268,0.4196,0.0975,-0.2387,0.4428,-0.0688,-0.2277,0.4466,0.0536719,-0.250393,0.468463,-0.0560688,-0.254224,0.469203,0.0589809,-0.255008,0.46918,-0.0431436,-0.240403,0.468531,-0.01,0.08,0.01,0.03,0,0,0,0,
-20.9406,-11.683,24.4196,-0.135,26.6296,-14.815,29.0383,0,-23.1514,-8.50986,15.6901,0.09,15.9116,-6.85732,13.0591,0,-20.13,-10.5,23.4,-0.10056,25.71,-13.47,27.87,0,-22.32,-7.35,14.82,0.01257,15.27,-5.7,12.09,0,0.0876,-0.2364,0.4301,-0.0992,-0.235,0.4229,0.0964,-0.2462,0.4452,-0.0687,-0.2349,0.4494,0.052474,-0.258197,0.471399,-0.0548173,-0.261942,0.472122,0.0576644,-0.262708,0.4721,-0.0421807,-0.248429,0.471465,0.03,0,-0.02,0,0,0,0,0,
-20.1594,-11.19,23.9762,-0.09,27.3205,-14.5707,29.3949,-0.315,-22.1562,-8.7651,15.5821,0.18,16.5344,-6.97816,12.9297,-0.18,-19.62,-10.05,23.07,-0.03771,26.37,-13.35,28.11,-0.17598,-21.42,-7.56,14.64,0.07542,15.78,-5.82,12.33,-0.08799,0.0857,-0.2445,0.4331,-0.0991,-0.2429,0.4253,0.0941,-0.2534,0.4483,-0.0687,-0.2425,0.4518,0.051276,-0.266,0.474335,-0.0535658,-0.269659,0.475042,0.0563479,-0.270409,0.47502,-0.0412177,-0.256455,0.4744,0.02,0.07,-0.04,0.04,0,0,0,0,
-20.9682,-10.6071,23.2028,-0.27,28.0714,-13.3665,27.8466,-0.27,-23.0812,-7.94033,15.6391,-0.045,17.0072,-6.784,12.2904,0,-20.1,-9.27,22.32,-0.17598,27.06,-12.12,27.06,-0.05028,-22.11,-6.87,14.76,-0.05028,16.32,-5.67,11.7,0,0.0851,-0.2541,0.4377,-0.0991,-0.2524,0.4299,0.0935,-0.2624,0.4512,-0.0686,-0.2507,0.4555,0.050078,-0.273803,0.477271,-0.0523144,-0.277377,0.477961,0.0550314,-0.278109,0.47794,-0.0402547,-0.264482,0.477334,0.06,0.06,0.01,0,0,0,0,0,
-21.267,-10.5041,23.8094,-0.09,28.3723,-13.3172,28.6383,-0.45,-23.691,-8.22556,15.7411,0.18,16.97,-6.37983,12.2661,-0.135,-20.43,-9.33,22.98,-0.02514,27.39,-11.91,27.63,-0.36453,-22.71,-7.11,14.85,0.1257,16.41,-5.1,11.28,-0.06285,0.0844,-0.2617,0.4394,-0.0985,-0.2608,0.4321,0.0932,-0.2697,0.4538,-0.0678,-0.2594,0.4593,0.04888,-0.281607,0.480207,-0.0510629,-0.285095,0.480881,0.053715,-0.285809,0.48086,-0.0392917,-0.272508,0.480269,0.02,0.1,-0.04,0.03,0,0,0,0,
-21.5358,-9.62113,22.7509,0.09,29.1532,-12.563,29.28,-0.54,-23.8509,-7.43082,15.9031,0,17.7278,-6.50067,13.4868,-0.225,-20.67,-8.43,21.87,0.02514,28.11,-11.25,28.02,-0.46509,-22.92,-6.27,14.91,-0,16.98,-5.37,12.54,-0.18855,0.0838,-0.2709,0.4441,-0.0984,-0.2694,0.4344,0.0923,-0.2785,0.4569,-0.0678,-0.2673,0.4605,0.047682,-0.28941,0.483143,-0.0498114,-0.292813,0.4838,0.0523985,-0.29351,0.48378,-0.0383287,-0.280535,0.483203,-0.02,0.12,-0,0.05,0,0,0,0,
-21.9096,-10.0282,24.0925,0,29.799,-11.7037,28.3017,-0.45,-24.6708,-8.52604,17.175,0.045,18.2606,-6.03648,13.1325,-0.225,-21.03,-8.79,22.95,-0,28.74,-10.44,27.36,-0.36453,-23.67,-7.26,16.14,0.03771,17.52,-4.95,12.33,-0.17598,0.083,-0.2784,0.4457,-0.0983,-0.2784,0.4382,0.0922,-0.2852,0.458,-0.0678,-0.2758,0.4635,0.046484,-0.297214,0.486079,-0.0485599,-0.300531,0.486719,0.051082,-0.30121,0.4867,-0.0373657,-0.288561,0.486137,-0,0.1,-0.01,0.05,0,0,0,0,
-22.4034,-9.61022,23.8591,0,30.1449,-11.6694,29.5733,-0.27,-25.4607,-8.4063,17.937,-0.045,18.7033,-6.42735,14.2631,-0.27,-21.48,-8.4,22.95,-0,29.13,-10.2,28.29,-0.27654,-24.45,-7.2,16.98,-0.02514,17.85,-5.22,13.29,-0.16341,0.0827,-0.2866,0.4482,-0.0977,-0.2867,0.4399,0.0922,-0.2925,0.4592,-0.0674999,-0.2834,0.465,0.045286,-0.305017,0.489015,-0.0473084,-0.308249,0.489639,0.0497655,-0.308911,0.48962,-0.0364027,-0.296587,0.489072,-0,0.06,0.01,0.06,0,0,0,0,
-22.6572,-8.68225,23.9407,0.18,30.8808,-10.3452,28.715,-0.135,-26.0706,-8.15151,18.384,0.18,19.1162,-5.70818,14.1788,-0.225,-21.84,-7.68,22.86,0.06285,29.85,-9.27,27.78,-0.16341,-25.02,-7.05,17.37,0.07542,18.36,-4.62,13.41,-0.2514,0.082,-0.2955,0.4513,-0.0976,-0.2961,0.4432,0.0919,-0.3007,0.4613,-0.0673,-0.2924,0.4677,0.0440881,-0.31282,0.491951,-0.0460569,-0.315967,0.492558,0.048449,-0.316611,0.49254,-0.0354397,-0.304614,0.492006,-0.04,0.03,-0.04,0.05,0,0,0,0,
-22.266,-8.38429,24.6523,0.135,31.2567,-9.62091,29.4767,0,-26.7555,-7.28178,17.976,0.09,19.274,-5.844,15.1145,-0.36,-21.72,-7.29,23.49,0.02514,30.3,-8.43,28.14,0,-25.74,-6.21,17.1,0.02514,18.54,-4.65,14.16,-0.26397,0.0809,-0.3041,0.4535,-0.0972,-0.3051,0.4462,0.0918,-0.3094,0.4646,-0.0666,-0.3005,0.4693,0.0428901,-0.320624,0.494887,-0.0448054,-0.323685,0.495478,0.0471325,-0.324311,0.49546,-0.0344768,-0.31264,0.494941,-0.03,0,-0.02,0.08,0,0,0,0,
-22.0398,-7.80134,25.0488,0.045,31.4226,-9.37666,30.2984,-0.135,-27.0654,-7.19202,18.6929,0,19.7918,-5.31984,15.3002,-0.585,-21.18,-6.84,24.03,0.03771,30.36,-8.4,29.04,-0.16341,-26.04,-6.09,17.67,0.01257,18.96,-4.2,14.43,-0.51537,0.0785,-0.3125,0.4554,-0.096,-0.313,0.4476,0.091,-0.3177,0.4667,-0.0665,-0.3091,0.4717,0.0416921,-0.328427,0.497823,-0.043554,-0.331403,0.498397,0.0458161,-0.332012,0.49838,-0.0335138,-0.320667,0.497875,-0.01,0.03,-0,0.13,0,0,0,0,
-22.3535,-7.08338,23.7954,0.135,32.2185,-9.05742,30.43,0,-27.6752,-6.50225,19.0199,0.135,20.1895,-5.15568,15.6208,-0.405,-21.54,-6.03,22.86,0.07542,31.02,-7.95,29.19,0,-26.67,-5.52,18.06,0.02514,19.41,-3.93,14.73,-0.28911,0.0779,-0.3218,0.4599,-0.096,-0.3214,0.45,0.0907,-0.3261,0.469,-0.0662,-0.3177,0.4741,0.0404941,-0.336231,0.500759,-0.0423025,-0.339121,0.501317,0.0444996,-0.339712,0.5013,-0.0325508,-0.328693,0.50081,-0.03,0,-0.03,0.09,0,0,0,0,
-22.8773,-7.43042,24.522,0,32.8644,-8.49814,29.1067,0.09,-27.8201,-6.78748,18.5819,0.18,20.7673,-5.23152,15.6415,-0.36,-21.99,-6.12,23.46,-0,31.83,-7.41,28.02,0.02514,-26.79,-5.73,17.61,0.10056,19.98,-4.02,14.73,-0.2514,0.0775,-0.3297,0.4623,-0.0959,-0.3299,0.4546,0.0897,-0.3337,0.4725,-0.0662,-0.3256,0.477,0.0392961,-0.344034,0.503695,-0.041051,-0.346838,0.504236,0.0431831,-0.347413,0.50422,-0.0315878,-0.336719,0.503744,-0,-0.02,-0.04,0.08,0,0,0,0,
-23.5211,-6.51746,23.2536,0.09,31.5603,-8.44889,30.1084,0,-28.64,-6.81773,19.2689,0.135,20.3851,-4.94737,16.2472,-0.315,-22.65,-5.43,22.44,0.05028,30.93,-7.32,28.98,-0.01257,-27.6,-5.7,18.3,0.03771,19.68,-3.78,15.36,-0.18855,0.0773,-0.3385,0.4663,-0.0939,-0.338,0.4563,0.0896,-0.3415,0.4745,-0.0649,-0.3341,0.479,0.0380981,-0.351837,0.506631,-0.0397995,-0.354556,0.507156,0.0418666,-0.355113,0.50714,-0.0306248,-0.344746,0.506679,-0.02,0,-0.03,0.07,0,0,0,0,
-24.2399,-6.5645,23.5901,0,31.6512,-7.76962,28.8751,0.135,-29.2499,-7.02797,19.3558,0.09,20.5129,-4.7382,15.8929,-0.45,-23.34,-5.31,22.59,-0,30.54,-6.84,27.9,0.07542,-28.17,-6.03,18.33,-0,19.83,-3.6,15.15,-0.30168,0.0773,-0.3466,0.4698,-0.0913,-0.3464,0.4603,0.0893,-0.3487,0.4772,-0.064,-0.3424,0.482,0.0369002,-0.359641,0.509567,-0.038548,-0.362274,0.510075,0.0405501,-0.362813,0.51006,-0.0296618,-0.352772,0.509613,-0,-0.03,-0.02,0.1,0,0,0,0,
-24.9587,-6.52154,22.7117,0.045,32.1171,-7.94538,29.8318,0,-29.7848,-7.02823,18.3778,0.135,20.3707,-4.37903,15.0285,-0.27,-24,-5.4,21.99,0.05028,31.05,-6.81,28.5,-0.01257,-28.8,-6,17.64,0.02514,19.68,-3.21,14.25,-0.21369,0.0773,-0.3541,0.473,-0.0909,-0.3545,0.4632,0.0891,-0.3561,0.481,-0.0628,-0.3508,0.486,0.0357022,-0.367444,0.512503,-0.0372965,-0.369992,0.512995,0.0392336,-0.370514,0.51298,-0.0286988,-0.360799,0.512548,-0.01,0,-0.03,0.06,0,0,0,0,
-25.2125,-5.48857,21.6683,0,32.853,-7.70112,30.0534,0,-28.1297,-7.14845,18.8398,0,20.9185,-4.09489,15.0192,-0.585,-24.39,-4.38,20.55,0.01257,31.71,-6.6,28.83,-0.02514,-27.33,-6,17.88,-0.01257,20.1,-2.91,14.04,-0.33939,0.0769,-0.3637,0.4785,-0.0908,-0.3624,0.4653,0.086,-0.3642,0.4839,-0.0626,-0.3599,0.49,0.0345042,-0.375248,0.515439,-0.0360451,-0.37771,0.515914,0.0379172,-0.378214,0.5159,-0.0277358,-0.368825,0.515482,-0,0,-0,0.13,0,0,0,0,
-25.6763,-6.12062,21.9299,0.18,33.6038,-7.68185,29.5701,0.09,-29.0996,-6.93869,17.4868,-0.045,21.4963,-4.0957,14.4099,-0.315,-24.75,-5.01,21.03,0.10056,32.46,-6.6,28.41,0.03771,-28.11,-5.76,16.68,-0.02514,20.67,-2.91,13.8,-0.16341,0.0761,-0.3706,0.4807,-0.0908,-0.37,0.4685,0.0851,-0.3721,0.4884,-0.0626,-0.3677,0.4929,0.0333062,-0.383051,0.518375,-0.0347936,-0.385428,0.518834,0.0366007,-0.385915,0.51882,-0.0267728,-0.376851,0.518417,-0.04,-0.02,0.01,0.07,0,0,0,0,
-26.3951,-6.00266,21.2915,-0.225,34.2347,-8.2026,29.8818,-0.27,-29.7245,-7.89895,18.4888,0,21.9091,-4.50155,14.0856,-0.675,-25.35,-4.74,20.4,-0.15084,33.03,-6.81,28.47,-0.21369,-28.65,-6.48,17.43,-0.01257,21.18,-3.09,13.23,-0.52794,0.0761,-0.3789,0.485,-0.0906,-0.3779,0.4718,0.0849,-0.3791,0.4907,-0.0624001,-0.3758,0.4972,0.0321082,-0.390854,0.521311,-0.0335421,-0.393146,0.521753,0.0352842,-0.393615,0.52174,-0.0258099,-0.384878,0.521351,0.05,0.06,-0,0.15,0,0,0,0,
-26.3489,-7.1897,22.543,-0.045,34.7456,-8.96335,29.7285,-0.18,-30.2744,-8.36419,19.2357,-0.27,22.4269,-5.31237,15.2763,-0.72,-25.53,-5.88,21.39,-0,33.57,-7.68,28.53,-0.05028,-29.31,-7.26,18.27,-0.16341,21.63,-4.02,14.37,-0.51537,0.0752,-0.3848,0.4863,-0.0902,-0.3839,0.4743,0.0845,-0.3852,0.492,-0.0623,-0.3821,0.4983,0.0309102,-0.398658,0.524247,-0.0322906,-0.400864,0.524672,0.0339677,-0.401315,0.52466,-0.0248469,-0.392904,0.524285,0.01,0.04,0.06,0.16,0,0,0,0,
-27.1726,-7.13173,22.9246,-0.135,35.4965,-8.52408,29.5601,-0.36,-31.1093,-7.95942,19.5927,-0.54,22.4947,-5.20821,16.1669,-0.72,-26.22,-6.06,21.96,-0.11313,34.29,-7.32,28.23,-0.28911,-30,-6.87,18.6,-0.43995,21.69,-4.08,15.3,-0.67878,0.075,-0.3921,0.4883,-0.0902,-0.3922,0.4781,0.0845,-0.3932,0.4944,-0.0616,-0.39,0.4999,0.0297122,-0.406461,0.527183,-0.0310391,-0.408582,0.527592,0.0326512,-0.409016,0.52758,-0.0238839,-0.40093,0.52722,0.03,0.08,0.12,0.16,0,0,0,0,
-27.6664,-7.13378,23.3962,-0.225,36.2474,-8.96982,30.4868,-0.09,-31.8992,-7.28466,19.6197,-0.225,21.9775,-5.23908,16.3826,-0.405,-26.73,-6,22.38,-0.21369,35.04,-7.86,29.28,-0.08799,-30.84,-6.3,18.66,-0.11313,21.27,-4.2,15.54,-0.18855,0.0747,-0.3999,0.4903,-0.0902,-0.3991,0.4791,0.0845,-0.4018,0.4972,-0.06,-0.3976,0.5021,0.0285143,-0.414265,0.530119,-0.0297876,-0.4163,0.530511,0.0313347,-0.416716,0.530499,-0.0229209,-0.408957,0.530154,0.05,0.02,0.05,0.09,0,0,0,0,
-28.2052,-6.07082,23.4628,-0.135,36.7883,-8.38054,30.9035,-0.495,-32.584,-6.81989,19.8567,-0.45,22.6452,-4.90989,15.1283,-0.135,-27.27,-5.16,22.26,-0.13827,35.67,-7.29,29.58,-0.45252,-31.53,-5.79,18.96,-0.36453,21.81,-3.87,14.49,-0.11313,0.0744,-0.4091,0.4935,-0.09,-0.4075,0.4814,0.0844,-0.4105,0.4995,-0.0597,-0.4061,0.5063,0.0273163,-0.422068,0.533055,-0.0285362,-0.424018,0.533431,0.0300183,-0.424417,0.533419,-0.0219579,-0.416983,0.533089,0.03,0.11,0.1,0.03,0,0,0,0,
-28.504,-6.05786,24.0993,-0.135,36.6092,-7.38628,29.7752,-0.18,-33.3589,-6.62515,20.2887,-0.27,22.833,-4.80574,15.854,-0.27,-27.51,-5.1,23.01,-0.1257,35.58,-6.36,28.71,-0.23883,-32.22,-5.58,19.35,-0.18855,22.02,-3.69,14.85,-0.17598,0.0737,-0.417,0.4953,-0.0889,-0.4165,0.4853,0.0843,-0.4186,0.5017,-0.0592,-0.4146,0.5093,0.0261183,-0.429871,0.535991,-0.0272847,-0.431735,0.53635,0.0287018,-0.432117,0.536339,-0.0209949,-0.42501,0.536023,0.03,0.04,0.06,0.06,0,0,0,0,
-29.2078,-4.67991,22.2759,-0.045,37.3001,-6.42202,29.8618,-0.36,-34.1038,-6.16038,20.1806,-0.54,23.1409,-4.65658,15.8597,-0.45,-28.14,-3.78,21.36,-0.08799,36.03,-5.4,28.59,-0.3771,-32.94,-4.98,19.14,-0.45252,22.29,-3.66,14.97,-0.27654,0.0736,-0.4268,0.5006,-0.0882,-0.4262,0.4889,0.0843,-0.4273,0.5051,-0.0586,-0.4228,0.5117,0.0249203,-0.437675,0.538927,-0.0260332,-0.439453,0.53927,0.0273853,-0.439817,0.539259,-0.0200319,-0.433036,0.538958,0.01,0.08,0.12,0.1,0,0,0,0,
-28.8616,-5.20693,23.0025,-0.225,36.476,-5.35277,28.4935,0.045,-34.7587,-6.59562,21.2426,-0.495,23.6136,-4.5674,16.0153,-0.54,-27.99,-4.08,21.93,-0.15084,35.46,-4.56,27.54,0.02514,-33.6,-5.4,20.31,-0.38967,22.77,-3.45,15.3,-0.42738,0.0722,-0.4347,0.503,-0.0864,-0.4351,0.4932,0.084,-0.4345,0.5061,-0.0585,-0.4309,0.5143,0.0237223,-0.445478,0.541863,-0.0247817,-0.447171,0.542189,0.0260688,-0.447518,0.542179,-0.0190689,-0.441062,0.541892,0.05,-0.01,0.11,0.12,0,0,0,0,
-29.7454,-3.96398,20.8491,-0.135,36.5219,-5.30351,29.7352,-0.135,-35.3986,-6.28085,22.5146,-0.585,24.0114,-4.22325,16.216,-0.54,-28.62,-3.03,20.19,-0.08799,35.31,-4.2,28.56,-0.15084,-34.29,-5.16,21.42,-0.59079,23.13,-3.06,15.18,-0.46509,0.0721,-0.4439,0.5081,-0.0844,-0.4438,0.4954,0.0839,-0.4425,0.5072,-0.0582,-0.4398,0.5175,0.0225243,-0.453282,0.544798,-0.0235302,-0.454889,0.545109,0.0247523,-0.455218,0.545099,-0.018106,-0.449089,0.544827,0.03,0.03,0.13,0.12,0,0,0,0,
-30.3592,-4.19101,21.9957,-0.27,37.1528,-4.84926,29.9719,0,-35.8285,-6.2661,23.0965,-0.495,24.6342,-3.98409,17.3167,-0.72,-29.31,-2.97,20.85,-0.22626,35.97,-3.87,28.74,0,-34.71,-5.16,22.17,-0.40224,23.67,-2.94,16.44,-0.60336,0.072,-0.4523,0.5107,-0.0842,-0.4519,0.4974,0.0833,-0.4503,0.5087,-0.0582,-0.448,0.5183,0.0213264,-0.461085,0.547734,-0.0222787,-0.462607,0.548028,0.0234358,-0.462919,0.548019,-0.017143,-0.457115,0.547761,0.06,0,0.11,0.16,0,0,0,0,
-30.883,-3.66806,21.7922,0,37.6786,-4.47002,30.2386,0.09,-36.6484,-5.59134,23.8735,-0.45,25.002,-3.90993,18.7474,-0.675,-29.85,-2.67,20.82,-0,36.51,-3.39,28.89,0.07542,-35.43,-4.5,22.77,-0.46509,24.15,-2.7,17.7,-0.61593,0.0716,-0.4603,0.5133,-0.0839,-0.4604,0.5001,0.0832,-0.4589,0.5107,-0.058,-0.4566,0.5193,0.0201284,-0.468888,0.55067,-0.0210273,-0.470325,0.550948,0.0221194,-0.470619,0.550939,-0.01618,-0.465142,0.550696,-0,-0.02,0.1,0.15,0,0,0,0,
-31.1518,-3.22009,21.8588,0,38.4145,-3.91073,30.1453,0,-37.3183,-5.20158,24.0655,-0.225,25.2348,-3.58077,19.1731,-0.495,-30.18,-2.1,20.88,-0.01257,37.14,-2.94,28.98,0,-36.03,-4.08,22.92,-0.11313,24.42,-2.49,18.24,-0.42738,0.071,-0.469,0.5165,-0.0838,-0.4689,0.5028,0.083,-0.4674,0.5133,-0.0575,-0.4648,0.521,0.0189304,-0.476692,0.553606,-0.0197758,-0.478043,0.553867,0.0208029,-0.478319,0.553859,-0.015217,-0.473168,0.55363,-0,0,0.05,0.11,0,0,0,0,
-30.4755,-2.93713,22.5254,0,38.8954,-4.5665,30.8169,0,-37.5832,-4.76683,24.8425,-0.36,25.6176,-3.94158,20.0637,-0.495,-29.52,-1.83,21.51,-0,37.65,-3.3,29.67,0.01257,-36.45,-3.66,23.58,-0.35196,24.72,-2.7,19.02,-0.41481,0.0689,-0.4772,0.5184,-0.0835,-0.4762,0.5046,0.0825,-0.4756,0.515,-0.0571,-0.4726,0.5226,0.0177324,-0.484495,0.556542,-0.0185243,-0.485761,0.556787,0.0194864,-0.48602,0.556779,-0.014254,-0.481194,0.556565,-0,0,0.08,0.11,0,0,0,0,
-31.1943,-2.35418,21.962,0,39.6763,-3.52723,29.6136,0,-37.8781,-4.09206,25.3494,-0.675,26.0154,-3.11744,19.5294,-0.54,-30.12,-1.29,21,0.01257,38.34,-2.55,28.62,0,-36.63,-2.97,24.33,-0.56565,25.08,-2.04,18.63,-0.40224,0.0686,-0.4859,0.5216,-0.0834,-0.4849,0.5087,0.0813,-0.4845,0.5167,-0.0568,-0.4814,0.5256,0.0165344,-0.492299,0.559478,-0.0172728,-0.493479,0.559706,0.0181699,-0.49372,0.559699,-0.013291,-0.489221,0.559499,-0,0,0.15,0.12,0,0,0,0,
-31.4332,-1.81622,21.4435,-0.045,40.3672,-3.64298,30.6003,0,-38.668,-3.01231,24.5064,-0.09,26.5632,-3.13328,20.3451,-0.585,-30.48,-0.84,20.28,-0.01257,39.06,-2.4,29.28,-0.07542,-37.35,-2.16,23.52,-0.1257,25.56,-1.98,19.26,-0.57822,0.0681,-0.4946,0.5263,-0.0833,-0.4934,0.5114,0.0813,-0.4937,0.5205,-0.0566,-0.49,0.5283,0.0153364,-0.500102,0.562414,-0.0160213,-0.501197,0.562625,0.0168534,-0.501421,0.562619,-0.012328,-0.497247,0.562433,0.01,0,0.02,0.13,0,0,0,0,
-31.5969,-1.65326,20.8501,0.225,41.0581,-2.93373,30.147,0,-38.3478,-2.99755,25.6734,-0.225,27.081,-2.35409,20.4108,-0.495,-30.48,-0.72,19.95,0.07542,39.72,-2.04,29.07,0,-37.26,-2.01,24.45,-0.30168,26.07,-1.44,19.5,-0.45252,0.0668,-0.5026,0.5294,-0.0832,-0.5014,0.5141,0.0802,-0.5018,0.5226,-0.0565,-0.4985,0.5303,0.0141384,-0.507905,0.56535,-0.0147698,-0.508914,0.565545,0.0155369,-0.509121,0.565539,-0.011365,-0.505274,0.565368,-0.05,0,0.05,0.11,0,0,0,0,
-32.1507,-1.37028,20.3467,-0.09,41.749,-2.74946,29.1687,0.045,-37.3077,-3.97278,26.6454,-0.18,27.6588,-2.38496,20.0264,-0.225,-31.02,-0.3,19.38,-0.1257,40.41,-1.59,28.14,0.02514,-36.06,-2.73,25.47,-0.20112,26.7,-1.23,19.17,-0.21369,0.0666,-0.5111,0.5337,-0.0831,-0.5098,0.5185,0.0767,-0.5084,0.5236,-0.0565,-0.507,0.5338,0.0129405,-0.515709,0.568286,-0.0135184,-0.516632,0.568464,0.0142205,-0.516821,0.568459,-0.0104021,-0.5133,0.568302,0.02,-0.01,0.04,0.05,0,0,0,0,
-32.6895,-2.40734,20.8183,0,42.1849,-2.71523,29.8853,-0.18,-38.1726,-4.16803,27.1674,-0.315,28.2366,-1.7258,20.0771,-0.18,-31.5,-1.26,19.92,-0,40.89,-1.62,28.89,-0.10056,-36.96,-3.12,25.98,-0.28911,27.33,-0.87,19.11,-0.15084,0.0663,-0.5177,0.5357,-0.0828,-0.5178,0.5206,0.0766,-0.5154,0.5255,-0.0565,-0.5156,0.5371,0.0117425,-0.523512,0.571222,-0.0122669,-0.52435,0.571384,0.012904,-0.524522,0.571379,-0.00943907,-0.521326,0.571237,-0,0.04,0.07,0.04,0,0,0,0,
-33.2133,-2.04936,20.1348,0,42.9508,-2.92096,30.152,0,-38.7975,-3.43326,26.3094,-0.135,28.8144,-2.38663,20.8928,0,-32.04,-0.93,19.23,-0.03771,41.64,-1.68,29.1,0,-37.47,-2.49,25.29,-0.13827,27.72,-1.29,19.92,0,0.0659,-0.5258,0.5394,-0.0826,-0.5254,0.523,0.0764,-0.5238,0.5294,-0.0565,-0.5232,0.5389,0.0105445,-0.531316,0.574158,-0.0110154,-0.532068,0.574303,0.0115875,-0.532222,0.574299,-0.00847608,-0.529353,0.574171,-0,0,0.03,0,0,0,0,0,
-33.4071,-1.94641,20.6664,0,43.5966,-2.40668,29.8786,-0.18,-39.4374,-3.91351,27.4763,-0.27,29.3322,-1.78749,19.8485,-0.27,-32.37,-0.78,19.56,-0,42.27,-1.14,28.5,-0.03771,-38.16,-2.58,26.13,-0.20112,28.29,-0.69,19.11,-0.17598,0.0654,-0.534,0.5422,-0.0825,-0.5339,0.5269,0.076,-0.5316,0.5312,-0.0564,-0.532,0.5426,0.00934651,-0.539119,0.577094,-0.0097639,-0.539786,0.577223,0.010271,-0.539923,0.577219,-0.0075131,-0.537379,0.577106,-0,0.04,0.06,0.06,0,0,0,0,
-31.4559,-2.11344,20.688,0,44.2725,-3.12244,30.0553,-0.045,-40.0623,-3.56875,27.2633,-0.135,29.9099,-2.32832,19.5241,-0.18,-30.75,-1.08,19.83,-0.01257,42.87,-1.92,29.04,0.01257,-38.73,-2.58,26.1,-0.15084,28.8,-1.32,18.51,-0.13827,0.062,-0.5413,0.5445,-0.0823,-0.5405,0.529,0.0758,-0.5392,0.5338,-0.0564,-0.5392,0.5469,0.00814852,-0.546922,0.58003,-0.00851242,-0.547504,0.580142,0.00895453,-0.547623,0.580139,-0.00655011,-0.545406,0.58004,-0,0.01,0.03,0.04,0,0,0,0,
-32.4297,-1.69548,20.4396,0,45.0834,-2.99816,29.467,-0.045,-40.7322,-2.50401,26.1803,-0.135,30.1578,-2.59916,20.4148,-0.135,-31.32,-0.6,19.5,-0.01257,43.65,-1.89,28.47,-0.02514,-39.36,-1.5,25.17,-0.08799,29.19,-1.53,19.35,-0.11313,0.061,-0.5495,0.5477,-0.0824,-0.5479,0.5323,0.0756,-0.5483,0.5383,-0.0560001,-0.5467,0.5485,0.00695054,-0.554726,0.582966,-0.00726093,-0.555222,0.583062,0.00763805,-0.555323,0.583059,-0.00558712,-0.553432,0.582975,-0,0.01,0.03,0.03,0,0,0,0,
-33.0285,-1.71255,21.3612,-0.18,45.6243,-2.55891,29.2237,-0.405,-41.567,-2.92425,27.1523,0,28.9805,-3.06498,20.0005,-0.225,-31.86,-0.6,20.25,-0.06285,44.22,-1.41,28.02,-0.28911,-40.23,-1.83,25.95,-0.06285,28.05,-2.04,19.11,-0.16341,0.0608,-0.5575,0.55,-0.0822,-0.5565,0.5366,0.0756,-0.5562,0.5402,-0.0536,-0.5541,0.5516,0.00575255,-0.562529,0.585902,-0.00600945,-0.56294,0.585981,0.00632157,-0.563024,0.585979,-0.00462413,-0.561458,0.585909,0.04,0.09,-0,0.05,0,0,0,0,
-32.9673,-2.19458,21.3527,-0.09,46.0602,-2.23966,28.1104,-0.09,-42.3569,-2.50447,26.4742,-0.135,29.2583,-2.63081,19.0462,-0.225,-31.98,-0.93,20.49,-0.02514,44.61,-1.29,27.24,-0.03771,-40.92,-1.47,25.56,-0.07542,28.26,-1.62,18.18,-0.17598,0.0598,-0.5648,0.5522,-0.0816,-0.5643,0.5404,0.0756,-0.564,0.5435,-0.0525,-0.5624,0.5559,0.00455457,-0.570333,0.588838,-0.00475797,-0.570658,0.588901,0.00500508,-0.570724,0.588899,-0.00366114,-0.569485,0.588844,0.02,0.02,0.03,0.05,0,0,0,0,
-33.3861,-1.47661,20.3543,0,46.7961,-2.4304,29.1571,-0.27,-43.1018,-2.00971,26.6812,-0.09,29.4011,-3.20168,20.3269,-0.315,-32.22,-0.33,19.56,-0.02514,45.3,-1.08,27.81,-0.17598,-41.73,-0.9,25.38,-0.03771,28.44,-2.07,19.32,-0.30168,0.059,-0.5735,0.5562,-0.0815,-0.5726,0.543,0.0756,-0.5729,0.5469,-0.0516999,-0.57,0.5576,0.00335658,-0.578136,0.591774,-0.00350648,-0.578376,0.59182,0.0036886,-0.578425,0.591819,-0.00269816,-0.577511,0.591778,-0,0.06,0.02,0.07,0,0,0,0,
-34.0448,-1.67364,20.9909,-0.225,46.152,-2.09613,29.5437,-0.27,-43.8767,-2.68496,27.6232,-0.045,29.8139,-2.85752,20.2725,-0.585,-32.91,-0.33,19.95,-0.13827,44.76,-1.05,28.44,-0.1257,-42.45,-1.5,26.37,-0.03771,28.83,-1.77,19.41,-0.51537,0.0589,-0.5815,0.5592,-0.0797,-0.5802,0.5446,0.0755,-0.5797,0.5484,-0.0515,-0.5783,0.5598,0.0021586,-0.585939,0.59471,-0.002255,-0.586093,0.59474,0.00237212,-0.586125,0.594739,-0.00173517,-0.585538,0.594713,0.05,0.06,0.01,0.13,0,0,0,0,
-34.7636,-1.57071,20.3975,-0.27,43.5729,-1.83687,29.9754,-0.225,-44.6666,-3.09021,28.1152,-0.495,29.8067,-2.51336,20.3232,-0.495,-33.6,-0.42,19.59,-0.08799,42.57,-0.81,28.8,-0.16341,-43.23,-1.95,26.85,-0.36453,28.92,-1.47,19.53,-0.47766,0.0589,-0.5891,0.5623,-0.0749,-0.5885,0.5471,0.0755,-0.5868,0.5505,-0.0506,-0.5869,0.5625,0.000960616,-0.593743,0.597646,-0.00100351,-0.593811,0.597659,0.00105563,-0.593825,0.597659,-0.000772181,-0.593564,0.597647,0.06,0.05,0.11,0.11,0,0,0,0,
-35.385,-0.285028,19.995,-0.225,44.82,-7.82311e-05,29.01,0,-45.24,-1.81498,27.36,-0.405,30.36,-0.164961,19.47,-0.585,-34.26,-0.09,19.38,-0.11313,43.47,-0.3,28.29,0,-43.98,-1.65,26.64,-0.30168,29.4,-0.3,18.96,-0.54051,0.0589,-0.5972,0.566,-0.0747,-0.5967,0.5506,0.0754,-0.5948,0.5535,-0.0506,-0.5968,0.5665,0,-0.6,0.6,0,-0.6,0.6,0,-0.6,0.6,0,-0.6,0.6,0.05,0,0.09,0.13,0,0,0,0,
-1.7331,0.948887,1.1808,0,1.38001,0.853777,1.5498,0,-1.29298,0.849597,1.0611,0,1.7214,0.861297,1.5201,0,-0.99,0.45,0.63,-0,0.78,0.39,0.81,0,-0.72,0.12,0.6,-0,0.96,0.27,0.75,0.01257,0.6824,-0.9512,0.0319,-0.6844,-0.9544,0.0136,0.7751,-0.8832,0.1615,-0.6785,-0.9021,0.0134,0.679286,-0.949543,0.034243,-0.681575,-0.952827,0.016333,0.77212,-0.881784,0.163494,-0.675406,-0.90059,0.0162335,-0,0,-0,0,0,0,0,0,
-2.52121,0.982788,1.04161,0,1.28998,1.31758,1.9296,0,-2.556,1.36919,1.0572,0.045,2.01779,0.762609,2.2002,0,-1.77,0.6,0.51,0.01257,0.75,0.93,1.32,0,-1.8,1.08,0.75,0.01257,1.29,0.42,1.47,0.01257,0.6803,-0.9498,0.0349,-0.6812,-0.9534,0.0156,0.7728,-0.8828,0.1631,-0.6759,-0.9008,0.0152,0.675873,-0.947787,0.037086,-0.67815,-0.951054,0.019266,0.76824,-0.880368,0.165687,-0.672012,-0.899079,0.019167,-0,0,-0.01,0,0,0,0,0,
-4.4193,1.69168,2.6124,0.045,3.65998,1.00138,2.1444,0,-4.554,1.78382,-0.131692,0,3.5442,1.6089,1.5153,0,-3.57,1.32,2.01,0.05028,2.88,0.87,1.8,0,-3.72,1.26,-0.12,0.01257,2.82,1.2,1.17,0,0.6799,-0.949,0.0355,-0.6809,-0.952,0.0175,0.7721,-0.882,0.1669,-0.6749,-0.9004,0.0183,0.672459,-0.94603,0.039929,-0.674725,-0.949281,0.022199,0.76436,-0.878952,0.167881,-0.668618,-0.897569,0.0221005,-0.01,0,-0,0,0,0,0,0,
-5.88242,2.38559,3.5982,0.135,5.19001,1.57017,3.7092,0,-5.68197,2.43841,1.31941,0.045,5.40061,2.06518,2.7504,0,-5.04,1.98,3.12,0.06285,4.44,1.2,3,0,-4.89,1.95,0.84,-0,4.56,1.62,2.16,0.01257,0.679,-0.9484,0.0364,-0.6801,-0.9505,0.0188,0.7704,-0.8816,0.1678,-0.6743,-0.8995,0.0203,0.669046,-0.944274,0.042772,-0.6713,-0.947508,0.025132,0.76048,-0.877536,0.170074,-0.665224,-0.896058,0.025034,-0.03,0,-0.01,0,0,0,0,0,
-7.6305,2.76446,5.13901,0.225,6.83998,1.89898,5.184,0.18,-7.27498,2.64301,2.3805,0,6.597,2.8665,4.0155,0,-6.75,2.43,4.56,0.1257,5.94,1.5,4.44,0.13827,-6.45,2.37,1.86,-0,5.79,2.49,3.24,0,0.6785,-0.9475,0.0369,-0.6795,-0.9492,0.0192,0.7691,-0.8809,0.1683,-0.6732,-0.8994,0.0212,0.665632,-0.942517,0.045615,-0.667875,-0.945735,0.028065,0.7566,-0.87612,0.172268,-0.66183,-0.894548,0.0279675,-0.05,-0.04,-0,0,0,0,0,0,
-9.12363,3.09842,6.54481,0.405,8.35502,2.5128,6.4938,0.135,-8.53802,3.31261,3.6366,0.09,7.97342,3.5478,5.3256,0,-8.16,2.73,5.85,0.28911,7.59,2.01,5.73,0.05028,-7.71,2.82,3.06,0.01257,7.11,3.15,4.65,0,0.6775,-0.9463,0.0374,-0.6786,-0.9483,0.0201,0.7674,-0.8803,0.1684,-0.6721,-0.8991,0.0218,0.662219,-0.940761,0.048458,-0.66445,-0.943962,0.030998,0.75272,-0.874704,0.174461,-0.658436,-0.893037,0.030901,-0.09,-0.03,-0.02,0,0,0,0,0,
-10.7067,3.80728,8.01061,0.27,10.215,3.27658,7.3386,0.135,-10.686,3.71219,4.7877,0.09,9.4398,4.03407,6.8307,0.09,-9.72,3.36,7.32,0.22626,9.36,2.79,6.72,0.05028,-9.66,3.3,4.26,0.05028,8.55,3.57,6,0.05028,0.6768,-0.9455,0.0378,-0.6782,-0.9478,0.0211,0.7668,-0.8797,0.1686,-0.671,-0.8984,0.0223,0.658806,-0.939004,0.051301,-0.661025,-0.942189,0.033931,0.74884,-0.873288,0.176655,-0.655042,-0.891527,0.0338345,-0.06,-0.03,-0.02,-0.02,0,0,0,0,
-12.2598,4.20117,9.58141,0.27,11.85,3.71036,8.9484,0.225,-12.279,4.35178,5.9838,0.18,10.8462,4.85038,8.3958,0,-11.22,3.81,8.79,0.2514,10.92,3.27,8.16,0.13827,-11.25,3.87,5.37,0.1257,9.9,4.32,7.47,0,0.6759,-0.9444,0.0381,-0.6775,-0.9469,0.0218,0.7658,-0.8792,0.1688,-0.6701,-0.8981,0.0227,0.655392,-0.937248,0.054144,-0.6576,-0.940416,0.036864,0.74496,-0.871872,0.178848,-0.651648,-0.890016,0.036768,-0.06,-0.05,-0.04,0,0,0,0,0,
-13.9179,4.85009,11.0022,0.225,13.65,4.33916,10.3332,0.135,-14.487,4.91641,6.8949,0.135,12.2526,5.48669,9.97589,0,-12.84,4.41,10.23,0.15084,12.6,3.87,9.51,0.07542,-13.35,4.47,6.33,0.10056,11.22,5.04,9.09,0.01257,0.6754,-0.9438,0.0385,-0.677,-0.9461,0.0225,0.7653,-0.8788,0.1694,-0.6689,-0.8978,0.023,0.651979,-0.935491,0.056987,-0.654175,-0.938643,0.039797,0.74108,-0.870456,0.181041,-0.648254,-0.888506,0.0397015,-0.05,-0.03,-0.03,0,0,0,0,0,
-15.606,5.40897,12.258,0.18,15.06,4.86297,11.973,0.315,-16.185,5.49599,8.181,0.045,13.734,5.59799,11.451,0.09,-14.52,4.92,11.37,0.13827,14.1,4.35,11.04,0.2514,-15.09,4.95,7.5,0.03771,12.63,5.16,10.53,0.06285,0.6748,-0.9429,0.0394,-0.676,-0.9452,0.0227,0.7644,-0.8782,0.1696,-0.6679,-0.8967,0.0234,0.648565,-0.933735,0.05983,-0.65075,-0.93687,0.04273,0.7372,-0.86904,0.183235,-0.64486,-0.886995,0.042635,-0.04,-0.07,-0.01,-0.02,0,0,0,0,
-16.8291,5.60789,13.6788,0.45,16.98,5.26677,13.5978,0.27,-18.108,6.18061,9.3321,0,15.5904,5.91931,12.7011,0.225,-15.72,5.19,12.75,0.28911,15.87,4.8,12.57,0.23883,-17.01,5.67,8.64,-0,14.46,5.46,11.76,0.15084,0.6735,-0.9417,0.0398,-0.6757,-0.9441,0.023,0.7638,-0.878,0.1698,-0.6676,-0.8955,0.0241,0.645152,-0.931978,0.062673,-0.647325,-0.935097,0.045663,0.73332,-0.867624,0.185428,-0.641466,-0.885485,0.0455685,-0.1,-0.06,-0,-0.05,0,0,0,0,
-18.2922,5.80679,15.0846,0.45,18.525,5.65555,14.6826,0.45,-19.431,6.91019,10.5882,-0.045,16.8468,6.8556,14.3562,0,-17.16,5.34,14.16,0.3771,17.52,5.22,13.8,0.30168,-18.27,6.36,9.87,-0,15.66,6.27,13.38,0,0.6726,-0.9402,0.0403,-0.675,-0.9432,0.0239,0.7622,-0.8778,0.1699,-0.6663,-0.8954,0.0245,0.641738,-0.930222,0.065516,-0.6439,-0.933324,0.048596,0.72944,-0.866208,0.187622,-0.638072,-0.883974,0.048502,-0.1,-0.1,0.01,0,0,0,0,0,
-19.5153,6.47067,16.4904,0.225,20.385,5.92435,16.5174,0.495,-20.3039,7.2648,11.8893,0.045,18.6432,7.55188,15.7713,0,-18.42,5.91,15.48,0.17598,19.32,5.43,15.39,0.36453,-19.26,6.81,11.16,0.02514,17.46,7.08,14.76,0.02514,0.6713,-0.9394,0.0408,-0.6746,-0.9418,0.024,0.7603,-0.8772,0.17,-0.6659,-0.8952,0.025,0.638325,-0.928465,0.068359,-0.640475,-0.931551,0.051529,0.72556,-0.864792,0.189815,-0.634678,-0.882464,0.0514355,-0.05,-0.11,-0.01,0,0,0,0,0,
-21.0234,6.99956,17.2812,0.09,21.27,6.26817,17.8872,0.27,-22.0919,7.6044,13.1454,0.315,20.0046,8.21817,17.2314,0.09,-19.8,6.45,16.5,0.06285,20.34,5.82,16.83,0.18855,-20.7,7.05,12.39,0.20112,18.87,7.74,16.17,0.03771,0.6701,-0.9386,0.0418,-0.6734,-0.9406,0.0245,0.7585,-0.8762,0.1701,-0.665,-0.8948,0.0255,0.634911,-0.926709,0.071202,-0.63705,-0.929778,0.054462,0.72168,-0.863376,0.192009,-0.631284,-0.880953,0.054369,-0.02,-0.06,-0.07,-0.02,0,0,0,0,
-22.1715,7.61848,18.342,0.135,20.85,6.46198,19.062,0.495,-24.315,7.41902,14.4615,0.09,20.871,8.71951,18.6465,0.225,-21.03,7.08,17.37,0.05028,19.89,5.97,18,0.42738,-22.98,6.96,13.68,0.10056,19.74,8.19,17.64,0.20112,0.6689,-0.9378,0.0431,-0.6695,-0.9393,0.0254,0.7584,-0.8747,0.1701,-0.6632,-0.8942,0.026,0.631497,-0.924952,0.074045,-0.633625,-0.928005,0.057395,0.7178,-0.86196,0.194202,-0.62789,-0.879443,0.0573025,-0.03,-0.11,-0.02,-0.05,0,0,0,0,
-21.0996,8.41739,18.8478,0.135,20.7,7.03079,18.9918,0.45,-26.013,7.84862,15.7776,0.045,22.6974,8.98081,20.0466,0.135,-20.28,7.83,17.82,0.06285,19.89,6.39,18.09,0.40224,-24.66,7.23,14.91,0.03771,21.39,8.46,18.96,0.08799,0.6649,-0.9373,0.0451,-0.6659,-0.9381,0.0277,0.7575,-0.8737,0.1701,-0.6624,-0.8932,0.0266,0.628084,-0.923196,0.076888,-0.6302,-0.926232,0.060328,0.71392,-0.860544,0.196396,-0.624496,-0.877932,0.060236,-0.03,-0.1,-0.01,-0.03,0,0,0,0,
-20.5977,9.11126,18.9936,0.45,19.215,7.67459,19.2066,0.315,-28.251,8.3532,16.8687,0.135,23.8338,9.7821,21.2367,-0.045,-19.65,8.52,18.27,0.35196,18.51,7.08,18.33,0.21369,-26.79,7.83,16.08,0.06285,22.65,9.15,20.01,-0.01257,0.6602,-0.9367,0.0471,-0.6603,-0.9374,0.0305,0.7572,-0.8732,0.1704,-0.6612,-0.8928,0.0277,0.62467,-0.921439,0.079731,-0.626775,-0.924459,0.063261,0.71004,-0.859128,0.19859,-0.621102,-0.876422,0.0631695,-0.1,-0.07,-0.03,0.01,0,0,0,0,
-19.1658,10.1502,18.2844,0.405,19.065,8.64839,18.5364,0.27,-29.814,9.06783,18.0048,0.27,26.1402,9.86343,22.4418,0.225,-18.24,9.45,17.46,0.23883,18.12,7.92,17.79,0.21369,-28.29,8.46,17.19,0.1257,24.72,9.45,21.3,0.15084,0.6544,-0.9366,0.0512,-0.6564,-0.9371,0.0341,0.756,-0.8729,0.1707,-0.6612,-0.8921,0.0284,0.621257,-0.919683,0.082574,-0.62335,-0.922686,0.066194,0.70616,-0.857712,0.200783,-0.617708,-0.874911,0.066103,-0.09,-0.06,-0.06,-0.05,0,0,0,0,
