FengTian-Bit/rl_sar_bitter/src/rl_sar/models/w1/csv_data/csv_standup.csv
joint_tau_cal_0,joint_tau_cal_1,joint_tau_cal_2,joint_tau_cal_3,joint_tau_cal_4,joint_tau_cal_5,joint_tau_cal_6,joint_tau_cal_7,joint_tau_cal_8,joint_tau_cal_9,joint_tau_cal_10,joint_tau_cal_11,joint_tau_cal_12,joint_tau_cal_13,joint_tau_cal_14,joint_tau_cal_15,joint_tau_est_0,joint_tau_est_1,joint_tau_est_2,joint_tau_est_3,joint_tau_est_4,joint_tau_est_5,joint_tau_est_6,joint_tau_est_7,joint_tau_est_8,joint_tau_est_9,joint_tau_est_10,joint_tau_est_11,joint_tau_est_12,joint_tau_est_13,joint_tau_est_14,joint_tau_est_15,joint_pos_0,joint_pos_1,joint_pos_2,joint_pos_4,joint_pos_5,joint_pos_6,joint_pos_8,joint_pos_9,joint_pos_10,joint_pos_12,joint_pos_13,joint_pos_14,joint_pos_target_0,joint_pos_target_1,joint_pos_target_2,joint_pos_target_4,joint_pos_target_5,joint_pos_target_6,joint_pos_target_8,joint_pos_target_9,joint_pos_target_10,joint_pos_target_12,joint_pos_target_13,joint_pos_target_14,joint_vel_3,joint_vel_7,joint_vel_11,joint_vel_15,joint_vel_target_3,joint_vel_target_7,joint_vel_target_11,joint_vel_target_15,
7.52017e-08,-0.36,0.36,1.06475e-08,-3.05551e-08,-0.36,0.36,1.47082e-08,1.39411e-07,-0.36,0.36,1.21183e-08,7.03251e-08,-0.36,0.36,-1.48921e-08,0,0,0,0,0,0,0,0,0,0,0,0,0,0,0,0,3.49944e-10,7.05977e-11,3.46088e-11,-5.40397e-10,5.57474e-11,4.50537e-11,3.42776e-10,5.49187e-11,3.5957e-11,3.09948e-11,1.98723e-10,9.85612e-11,3.49594e-10,-0.0006,0.0006,-5.39857e-10,-0.0006,0.0006,3.42433e-10,-0.0006,0.0006,3.09638e-11,-0.0006,0.0006,-2.36611e-09,-3.2685e-09,-2.69296e-09,3.30935e-09,0,0,0,0,
-0.5977,-0.562019,0.735216,-3.45392e-05,0.599254,-0.562653,0.735841,-3.4704e-05,-0.410746,-0.432399,0.602698,-1.43951e-05,0.41222,-0.433025,0.603337,1.25639e-05,-0.59411,-0.246028,0.416681,-3.12921e-05,0.595657,-0.246645,0.417289,-3.13689e-05,-0.410121,-0.117042,0.285203,-1.39115e-05,0.411586,-0.117655,0.285824,1.16619e-05,0.000712017,-0.00164808,0.00145405,-0.000713894,-0.00164744,0.00145343,0.000502836,-0.00179922,0.00160584,-0.000504594,-0.00179856,0.0016052,3.47844e-10,-0.0036,0.0036,-5.37155e-10,-0.0036,0.0036,3.40719e-10,-0.0036,0.0036,3.08088e-11,-0.0036,0.0036,7.67538e-06,7.712e-06,3.1989e-06,-2.79197e-06,0,0,0,0,
-0.0627121,-0.172434,0.262713,1.13059e-05,0.0629406,-0.172694,0.263175,1.14789e-05,0.0114233,-0.165283,0.22777,3.89503e-06,-0.0111647,-0.16552,0.22821,-2.59954e-06,-0.0807794,0.154373,-0.0588358,1.02563e-05,0.0810544,0.154082,-0.0583486,1.04133e-05,-0.000265107,0.165534,-0.0976318,3.46996e-06,0.000569753,0.165269,-0.0971677,-2.29942e-06,0.000440634,-0.00533597,0.00510729,-0.000441851,-0.00533511,0.00510619,0.000216596,-0.0054225,0.00523123,-0.000217837,-0.0054217,0.00523018,3.46095e-10,-0.0066,0.0066,-5.34453e-10,-0.0066,0.0066,3.39005e-10,-0.0066,0.0066,3.06538e-11,-0.0066,0.0066,-2.51242e-06,-2.55086e-06,-8.65562e-07,5.77675e-07,0,0,0,0,
0.332421,-0.159256,0.0367925,-1.90868e-05,-0.333349,-0.158598,0.0361769,-1.93429e-05,0.177367,-0.24277,0.117083,-8.15899e-06,-0.178299,-0.242154,0.116501,7.18051e-06,0.331491,0.17086,-0.290779,-1.70625e-05,-0.332412,0.17152,-0.291389,-1.72862e-05,0.178241,0.0872818,-0.211349,-7.507e-06,-0.179166,0.0878941,-0.211926,6.88454e-06,-0.000461447,-0.00848243,0.00860442,0.000462666,-0.00848327,0.00860507,-0.000284115,-0.00835775,0.00850265,0.000285313,-0.00835854,0.00850325,3.44345e-10,-0.0096,0.0096,-5.31751e-10,-0.0096,0.0096,3.37291e-10,-0.0096,0.0096,3.04988e-11,-0.0096,0.0096,4.24151e-06,4.29843e-06,1.81311e-06,-1.59567e-06,0,0,0,0,
0.0494915,-0.286231,0.203376,1.95421e-05,-0.0474891,-0.283391,0.207645,1.8994e-05,0.00215175,-0.285867,0.236592,6.45541e-06,-0.00365649,-0.285913,0.236336,-8.80154e-06,0.0544705,0.0441327,-0.129404,1.97005e-05,-0.052503,0.0468898,-0.124987,1.95896e-05,0.00376035,0.042748,-0.0946572,8.00681e-06,-0.00520964,0.0426773,-0.0948794,-8.53891e-06,-0.000237042,-0.0113178,0.0114994,0.000236056,-0.0113195,0.0114896,-8.80525e-05,-0.0112651,0.0114039,8.92388e-05,-0.011265,0.0114039,3.42595e-10,-0.0126,0.0126,-5.29049e-10,-0.0126,0.0126,3.35577e-10,-0.0126,0.0126,3.03439e-11,-0.0126,0.0126,-4.34268e-06,-4.22089e-06,-1.43454e-06,1.9559e-06,0,0,0,0,
-0.154665,-0.317715,0.376502,-2.07071e-05,0.156537,-0.318309,0.377802,-2.06448e-05,-0.0613589,-0.264844,0.304493,8.15348e-06,0.0622382,-0.273292,0.342692,-7.56056e-06,-0.156143,0.00961116,0.0478817,-1.82837e-05,0.158255,0.00907674,0.0492359,-1.82491e-05,-0.0632448,0.0632056,-0.0253283,7.4925e-06,0.0637991,0.0543901,0.0145311,-6.57767e-06,0.000195961,-0.0142001,0.0141608,-0.000201412,-0.0142013,0.0141578,8.92055e-05,-0.0142763,0.0142583,-8.49118e-05,-0.0142606,0.0141882,3.40846e-10,-0.0156,0.0156,-5.26347e-10,-0.0156,0.0156,3.33863e-10,-0.0156,0.0156,3.01889e-11,-0.0156,0.0156,4.60157e-06,4.58772e-06,-1.81188e-06,1.68012e-06,0,0,0,0,
-0.0448597,-0.253104,0.275132,2.01825e-05,0.0484557,-0.22174,0.305078,1.92776e-05,-0.0224666,-0.262834,0.259729,7.76988e-06,0.0243854,-0.230574,0.290494,-4.34221e-06,-0.0506489,0.0739032,-0.051317,1.89839e-05,0.0533574,0.106686,-0.0201827,1.70223e-05,-0.0252255,0.0655431,-0.0680292,6.70913e-06,0.0272191,0.0993883,-0.0358367,-2.95324e-06,0.00014076,-0.0172777,0.01723,-0.000141723,-0.017337,0.0171738,5.53968e-05,-0.0172891,0.0172709,-5.87443e-05,-0.0173476,0.0172108,3.39096e-10,-0.0186,0.0186,-5.23645e-10,-0.0186,0.0186,3.3215e-10,-0.0186,0.0186,3.00339e-11,-0.0186,0.0186,-4.48501e-06,-4.28392e-06,-1.72664e-06,9.64935e-07,0,0,0,0,
0.0628886,-0.20729,0.183203,-1.75606e-05,-0.0579591,-0.239901,0.183878,3.37835e-06,0.00838975,-0.266713,0.230901,3.12531e-06,-0.0107081,-0.275352,0.23959,1.15536e-06,0.0598843,0.122527,-0.145,-1.72655e-05,-0.0555625,0.0885,-0.14439,-1.74523e-05,0.00663723,0.0619585,-0.0969115,-6.18855e-06,-0.00848597,0.0529551,-0.0879041,2.57974e-06,-6.91059e-05,-0.020392,0.0203982,6.32021e-05,-0.020331,0.0203995,-1.03891e-06,-0.0202882,0.0203253,5.53959e-06,-0.020273,0.0203101,3.37346e-10,-0.0216,0.0216,-5.20943e-10,-0.0216,0.0216,3.30436e-10,-0.0216,0.0216,2.9879e-11,-0.0216,0.0216,3.90237e-06,-7.50745e-07,-6.94513e-07,-2.56748e-07,0,0,0,0,
0.0339178,-0.265426,0.259091,1.67878e-05,-0.036131,-0.263206,0.25879,1.5759e-05,0.0149047,-0.291788,0.27081,-9.8973e-06,-0.0132575,-0.288981,0.2379,-5.06986e-07,0.0336775,0.0641937,-0.0693879,1.42679e-05,-0.0352053,0.0663794,-0.0697146,1.40709e-05,0.014018,0.0361247,-0.0576287,-8.06651e-06,-0.0127194,0.0387998,-0.0917881,4.87405e-06,-7.65071e-05,-0.023323,0.0233305,7.78569e-05,-0.023325,0.0233305,-2.51076e-05,-0.0232561,0.0233047,2.20844e-05,-0.0232578,0.0233619,3.35596e-10,-0.0246,0.0246,-5.18241e-10,-0.0246,0.0246,3.28722e-10,-0.0246,0.0246,2.9724e-11,-0.0246,0.0246,-3.73062e-06,-3.50201e-06,2.1994e-06,1.12664e-07,0,0,0,0,
-0.0224838,-0.28291,0.286138,-1.60021e-05,0.0203669,-0.282249,0.287215,-1.52394e-05,0.000398025,-0.264808,0.280336,-6.88578e-06,0.0022055,-0.266804,0.282286,-3.47805e-06,-0.0236065,0.0450564,-0.0421678,3.56579e-06,0.0215846,0.0456901,-0.0410406,4.78257e-06,-0.000761868,0.0637413,-0.0482102,-5.59237e-06,0.00334097,0.0614934,-0.0460184,-5.89712e-07,1.26938e-05,-0.0262653,0.0262793,-1.21983e-05,-0.0262661,0.026277,-8.6303e-06,-0.0262923,0.026281,5.89813e-06,-0.0262838,0.0262728,3.33847e-10,-0.0276,0.0276,-5.15539e-10,-0.0276,0.0276,3.27008e-10,-0.0276,0.0276,2.9569e-11,-0.0276,0.0276,3.55602e-06,3.38653e-06,1.53017e-06,7.729e-07,0,0,0,0,
-0.0166946,-0.23411,0.245269,-1.90012e-05,0.0175793,-0.231437,0.280824,-2.02821e-05,-0.00450618,-0.232273,0.243024,2.16141e-06,0.00432129,-0.230127,0.240887,-3.72815e-06,-0.0195918,0.0949112,-0.0831184,-1.68667e-05,0.0204412,0.0975178,-0.0462689,-1.46862e-05,-0.00620796,0.0977223,-0.0860003,2.66144e-05,0.00625373,0.0999233,-0.0881916,-4.29862e-06,3.71541e-05,-0.0293389,0.0293222,-3.6389e-05,-0.0293414,0.029255,9.10649e-06,-0.0293503,0.0293264,-1.03209e-05,-0.0293526,0.0293286,3.32097e-10,-0.0306,0.0306,-5.12837e-10,-0.0306,0.0306,3.25294e-10,-0.0306,0.0306,2.9414e-11,-0.0306,0.0306,4.22248e-06,4.50713e-06,-4.80313e-07,8.28479e-07,0,0,0,0,
0.00275974,-0.235551,0.233848,-1.88136e-05,0.000803141,-0.237607,0.235098,-1.89736e-05,-0.000944916,-0.246214,0.235849,6.38029e-06,-0.00208959,-0.259017,0.247814,-1.58102e-06,0.000437789,0.0935174,-0.094488,-1.1472e-05,0.00330755,0.0915762,-0.0932824,-1.36448e-05,-0.00255797,0.0833279,-0.0929952,2.61978e-06,-0.000582261,0.0706424,-0.0811487,9.49912e-07,2.14752e-06,-0.0323416,0.032338,-6.82319e-06,-0.032342,0.0323362,3.69757e-06,-0.0323278,0.0323366,5.13277e-08,-0.0323196,0.0323293,3.30347e-10,-0.0336,0.0336,-5.10135e-10,-0.0336,0.0336,3.2358e-10,-0.0336,0.0336,2.92591e-11,-0.0336,0.0336,4.1808e-06,4.21635e-06,-1.41784e-06,3.51339e-07,0,0,0,0,
0.00333247,-0.254871,0.256396,-1.02557e-05,-0.00609405,-0.292965,0.251423,-1.6196e-05,0.0010909,-0.291327,0.251955,4.12413e-06,-0.00028793,-0.260624,0.252685,-3.52341e-06,0.00202212,0.0738852,-0.0720147,1.43941e-05,-0.00460991,0.0345505,-0.0767381,1.38991e-05,7.2225e-05,0.0363448,-0.0767957,7.24003e-06,0.00147512,0.0680183,-0.0757739,4.25228e-07,-6.88341e-06,-0.0353215,0.0353201,8.63154e-06,-0.0352505,0.0353229,-2.37582e-06,-0.0352482,0.0353226,3.39432e-07,-0.0352982,0.0353152,3.28598e-10,-0.0366,0.0366,-5.07433e-10,-0.0366,0.0366,3.21866e-10,-0.0366,0.0366,2.91041e-11,-0.0366,0.0366,2.27905e-06,3.59911e-06,-9.16472e-07,7.82981e-07,0,0,0,0,
0.00016301,-0.269917,0.270437,-1.26406e-05,-0.000217894,-0.270059,0.267477,-1.31246e-05,-0.000291972,-0.267691,0.270386,-1.35285e-05,-0.000180805,-0.265244,0.26851,-3.23466e-05,-0.00160761,0.0583476,-0.0574505,1.51546e-05,0.00156839,0.0581346,-0.06059,1.22727e-05,-0.00179727,0.0606755,-0.0578623,1.31319e-06,0.00147097,0.0632617,-0.0598753,-2.23412e-06,-2.90242e-06,-0.0382894,0.0382887,3.40801e-06,-0.0382872,0.0382966,-1.24113e-06,-0.0382833,0.0382849,1.01448e-06,-0.038288,0.0382886,3.26848e-10,-0.0396,0.0396,-5.04731e-10,-0.0396,0.0396,3.20152e-10,-0.0396,0.0396,2.89491e-11,-0.0396,0.0396,2.80903e-06,2.91657e-06,3.00634e-06,7.18812e-06,0,0,0,0,
-11.6845,-75.2793,-38.0472,84.1278,9.64753,-80.638,30.5229,72.1328,-1.0571,-70.0574,28.3608,69.6735,5.95966,-72.775,28.703,63.0091,-9.15509,-73.3311,19.2976,40,6.79722,-80,31.6479,40,-1.82428,-73.1119,31.2121,40,1.15103,-73.1035,30.4755,40,0.0167608,0.0293803,0.00351977,-0.021008,0.03198,0.00308071,0.0142245,0.0248585,0.00321688,-0.0178435,0.0257656,0.00265968,3.25098e-10,-0.0426,0.0426,-5.02029e-10,-0.0426,0.0426,3.18439e-10,-0.0426,0.0426,2.87941e-11,-0.0426,0.0426,-18.6951,-16.0295,-15.483,-14.002,0,0,0,0,
-11.8017,-40.639,26.5486,-11.214,11.7995,-45.5811,26.1891,-8.83168,-10.2856,-5.50721,-11.7436,-1.83435,2.9324,-12.2903,-5.46,-6.30983,-12.4532,-39.6975,24.8192,-7.78787,10.9513,-47.1532,27.4945,-12.6686,-10.8886,-5.97437,-11.7221,-2.53947,2.73437,-12.5383,-5.37326,-4.85581,0.0206612,0.0347624,0.000841793,-0.0178291,0.0439846,0.000210312,0.0194061,-0.013262,0.0501367,-0.00511708,-0.00347272,0.0408279,3.23348e-10,-0.0456,0.0456,-4.99327e-10,-0.0456,0.0456,3.16725e-10,-0.0456,0.0456,2.86392e-11,-0.0456,0.0456,2.492,1.9626,0.407634,1.40218,0,0,0,0,
-13.1601,-17.0382,13.9299,-3.43612,10.3884,-23.2957,16.968,-6.74734,11.73,6.03978,-2.15323,-1.33254e-05,-10.0795,5.70838,-5.81029,-0.000246533,-13.1004,-17.4415,14.4605,-5.14275,10.6595,-22.6469,16.0937,-4.70811,11.6441,6.44352,-2.77932,3.73543e-05,-9.88677,6.08168,-6.42881,2.26509e-05,0.0208812,-0.00971033,0.0178861,-0.0186403,0.000347405,0.0140025,-0.012763,-0.0562579,0.0579242,0.00992053,-0.0537129,0.061672,3.21599e-10,-0.0486,0.0486,-4.96625e-10,-0.0486,0.0486,3.15011e-10,-0.0486,0.0486,2.84842e-11,-0.0486,0.0486,0.763582,1.49941,2.96119e-06,5.47852e-05,0,0,0,0,
-12.7048,-7.54507,1.29877,-1.96891,10.4445,-12.7869,3.57002,-3.43941,2.06482,2.62039,3.22342,2.80465e-05,-1.86031,1.97665,3.0735,-0.000105519,-12.7327,-7.29879,1.141,-1.98668,10.423,-12.5366,3.41351,-3.47904,2.35369,3.0195,2.91252,3.4244e-06,-2.16059,2.36953,2.69363,-7.90197e-05,0.0216896,-0.0345834,0.0431423,-0.0170977,-0.0258151,0.0394471,-0.0095735,-0.0566091,0.0463511,0.00918933,-0.0555968,0.0483829,3.19849e-10,-0.0516,0.0516,-4.93923e-10,-0.0516,0.0516,3.13297e-10,-0.0516,0.0516,2.83292e-11,-0.0516,0.0516,0.437536,0.764313,-6.23255e-06,2.34486e-05,0,0,0,0,
-11.9093,-8.44737,-0.333109,-2.13506,11.1157,-13.1534,1.12026,-3.4055,-5.04146,-1.11599,1.98515,-1.4116e-06,4.94925,-0.357633,2.92398,-0.000135342,-11.9165,-8.0229,-0.758748,-2.1203,11.1069,-12.7485,0.725049,-3.3922,-5.08239,-0.745851,1.68479,3.75976e-05,5.00589,-0.0143685,2.63556,-0.000134275,0.0201084,-0.0409771,0.0549711,-0.018277,-0.0327334,0.051936,0.00705534,-0.0534226,0.0498667,-0.00720254,-0.0539588,0.0484139,3.18099e-10,-0.0546,0.0546,-4.91221e-10,-0.0546,0.0546,3.11583e-10,-0.0546,0.0546,2.81742e-11,-0.0546,0.0546,0.474459,0.756778,3.13689e-07,3.0076e-05,0,0,0,0,
-11.306,-14.1352,11.247,-3.38666,12.0432,-17.3336,10.819,-3.25555,-6.1751,-11.4452,17.8572,-1.40975,2.5031,-14.4985,21.8412,-2.96504,-11.3273,-13.4719,10.2101,-2.2216,11.9701,-17.3061,10.6323,-4.7307,-6.06065,-11.4774,17.8597,-2.46304,2.77471,-13.6027,20.4802,-1.72214,0.019345,-0.0357332,0.0450764,-0.0193299,-0.0293038,0.0444971,0.00942813,-0.0413365,0.034324,-0.00476419,-0.0380932,0.0293451,3.16349e-10,-0.0576,0.0576,-4.88519e-10,-0.0576,0.0576,3.09869e-10,-0.0576,0.0576,2.80193e-11,-0.0576,0.0576,0.75259,0.723455,0.313278,0.658899,0,0,0,0,
-10.8126,-15.0707,29.4972,-1.42713,13.4258,-17.7524,29.6413,-3.74084,-6.38914,-4.02298,24.6048,-0.138239,3.25782,-5.96913,27.0932,-0.000575402,-11.0642,-15.4104,29.9158,-2.90424,13.6203,-16.8187,27.9531,-2.14726,-6.48284,-3.5586,23.63,0.000153437,2.9924,-6.38268,27.5775,-0.608717,0.0182007,-0.0342897,0.0184156,-0.022,-0.0300991,0.0194813,0.0106299,-0.0487217,0.0211634,-0.00499436,-0.0444465,0.0155719,3.146e-10,-0.0606,0.0606,-4.85817e-10,-0.0606,0.0606,3.08155e-10,-0.0606,0.0606,2.78643e-11,-0.0606,0.0606,0.317141,0.831299,0.0307198,0.000127867,0,0,0,0,
-13.0835,-12.4491,31.9965,2.87994,14.6325,-12.7316,38.0297,-1.57262,-4.71964,3.06579,25.8814,1.33369,5.38828,2.52891,28.4677,1.5075,-12.321,-11.8646,37.0872,1.53257,14.2639,-13.1242,39.0317,-0.27727,-5.1219,3.34702,26.0924,1.5506,5.02327,3.40705,27.3929,1.15986,0.0198205,-0.0402203,0.000413033,-0.0231352,-0.0385889,0.0012884,0.00999408,-0.0662289,0.0201334,-0.00652643,-0.0648008,0.016583,3.1285e-10,-0.0636,0.0636,-4.83115e-10,-0.0636,0.0636,3.06441e-10,-0.0636,0.0636,2.77093e-11,-0.0636,0.0636,-0.639986,0.34947,-0.296376,-0.335001,0,0,0,0,
-13.6938,-4.39198,33.4052,0.118041,12.4056,-3.97589,34.7788,-0.0806109,-4.98354,-0.0416894,29.2595,1.01128,5.72738,2.67063,29.4759,1.5298,-13.5805,-4.71099,32.3621,-0.109216,12.5716,-4.34031,33.6576,0.139611,-4.77592,0.700296,29.6091,0.970942,5.87046,2.73199,29.7973,1.78338,0.0216213,-0.0542489,0.00759372,-0.0218813,-0.0545216,0.0058052,0.00791371,-0.0674422,0.0179756,-0.00958573,-0.0703482,0.01677,3.111e-10,-0.0666,0.0666,-4.80413e-10,-0.0666,0.0666,3.04727e-10,-0.0666,0.0666,2.75543e-11,-0.0666,0.0666,-0.0262313,0.0179135,-0.224729,-0.339955,0,0,0,0,
-13.8642,3.25905,24.6012,1.11253,11.836,3.2918,25.9905,1.30278,-4.47566,-1.56173,30.5732,0.336862,6.843,1.29953,30.1964,1.17045,-13.8965,3.46085,24.4211,1.0843,11.8916,3.33877,26.3221,1.08879,-4.7339,-0.832002,31.077,0.500309,6.67422,1.29952,30.6009,1.25962,0.02317,-0.0706495,0.023755,-0.0199194,-0.070939,0.0213151,0.00779842,-0.0667795,0.0174573,-0.0108206,-0.0711097,0.0180053,3.09351e-10,-0.0696,0.0696,-4.77711e-10,-0.0696,0.0696,3.03014e-10,-0.0696,0.0696,2.73994e-11,-0.0696,0.0696,-0.247229,-0.289506,-0.0748582,-0.260099,0,0,0,0,
-13.5611,7.08567,19.685,2.09746,11.9391,6.68763,21.314,2.14329,-5.25118,0.537705,29.5491,0.729608,6.75415,1.36048,30.027,1.19468,-13.5511,7.39222,19.397,2.08685,11.9525,6.99891,21.035,2.13462,-5.02873,0.462458,30.0089,0.672651,6.8992,1.98925,29.0242,1.10411,0.0227372,-0.0822983,0.0371667,-0.0198586,-0.0817267,0.034351,0.00823487,-0.0714037,0.0212534,-0.011454,-0.0739989,0.0217749,3.07601e-10,-0.0726,0.0726,-4.75009e-10,-0.0726,0.0726,3.013e-10,-0.0726,0.0726,2.72444e-11,-0.0726,0.0726,-0.466103,-0.476287,-0.162135,-0.265485,0,0,0,0,
-13.0551,5.73794,20.7111,1.94271,12.4099,5.25175,21.6689,1.88674,-6.14364,2.17612,28.2213,1.12076,6.30607,1.55667,29.2052,1.25114,-13.0525,6.12826,20.3183,1.95262,12.4119,5.64343,21.2933,1.89876,-5.98431,2.1965,28.572,1.24741,6.45517,2.19038,28.2163,1.12891,0.0220094,-0.0853601,0.0412364,-0.0204322,-0.0845762,0.0392613,0.00969752,-0.0774975,0.0265906,-0.0108296,-0.0776097,0.0263004,3.05851e-10,-0.0756,0.0756,-4.72307e-10,-0.0756,0.0756,2.99586e-10,-0.0756,0.0756,2.70894e-11,-0.0756,0.0756,-0.431713,-0.419275,-0.249058,-0.278031,0,0,0,0,
-12.5679,1.28623,25.533,1.00315,12.9912,0.951021,25.5829,0.898579,-6.86514,1.98003,28.2963,1.12748,6.16716,0.589518,29.0959,0.963943,-12.5623,1.70597,25.1062,1.02272,12.9943,1.36737,25.1701,0.918088,-6.7413,2.0515,27.3467,1.28285,6.01662,1.25525,28.0852,0.914582,0.021145,-0.0821336,0.0376059,-0.0214031,-0.0814778,0.0371216,0.0110267,-0.0810729,0.0308944,-0.0102613,-0.0795013,0.0297575,3.04101e-10,-0.0786001,0.0786001,-4.69605e-10,-0.0786001,0.0786001,2.97872e-10,-0.0786001,0.0786001,2.69344e-11,-0.0786001,0.0786001,-0.222923,-0.199684,-0.250551,-0.214209,0,0,0,0,
-12.4371,-3.65644,30.329,0.072796,13.3539,-3.20831,29.1342,-0.0199194,-7.1314,0.659548,27.8264,0.785237,6.09469,-0.581117,27.8476,0.55942,-12.3784,-2.83902,29.1916,-0.0180737,13.3743,-3.19929,29.4757,0.0617147,-7.23656,0.728069,26.8835,0.844513,6.24497,0.0922176,28.2323,0.523057,0.0207095,-0.0771036,0.0327127,-0.0221205,-0.0770757,0.0332634,0.0118414,-0.082264,0.0345648,-0.0102067,-0.0805396,0.0333952,3.02352e-10,-0.0816001,0.0816001,-4.66903e-10,-0.0816001,0.0816001,2.96158e-10,-0.0816001,0.0816001,2.67795e-11,-0.0816001,0.0816001,-0.0161769,0.00442653,-0.174497,-0.124315,0,0,0,0,
-12.651,-6.76267,31.6375,0.0488065,13.466,-6.39658,30.1109,-0.217991,-7.23507,-0.637013,25.7736,0.331137,6.61524,-1.17194,26.6756,0.170455,-12.5329,-5.94024,30.458,-0.258065,13.5391,-5.60993,30.6214,0.0647351,-7.14167,-0.577139,26.1018,0.287011,6.48973,-0.531438,25.7625,0.258523,0.02089,-0.0740774,0.0319189,-0.0224627,-0.0745088,0.0330273,0.0120068,-0.0830224,0.0394479,-0.0107349,-0.0822584,0.0387352,3.00602e-10,-0.0846001,0.0846001,-4.64201e-10,-0.0846001,0.0846001,2.94444e-10,-0.0846001,0.0846001,2.66245e-11,-0.0846001,0.0846001,-0.0108459,0.0484424,-0.0735859,-0.037879,0,0,0,0,
-12.904,-7.04192,29.2985,0.00012441,13.3759,-6.93098,28.5576,-0.401594,-7.05437,-1.98139,23.272,0.000112616,7.0225,-1.49288,23.6203,-0.000328993,-12.8076,-7.15024,28.2265,-0.47901,13.4401,-6.20142,27.53,0.000113624,-6.97566,-1.34094,23.5456,-0.00106407,6.94216,-0.877833,22.8267,-0.000193365,0.0213133,-0.0748391,0.0371797,-0.0224057,-0.0756304,0.0384078,0.011775,-0.0842031,0.0462181,-0.0114504,-0.0846608,0.0462961,2.98852e-10,-0.0876001,0.0876001,-4.61499e-10,-0.0876001,0.0876001,2.9273e-10,-0.0876001,0.0876001,2.64695e-11,-0.0876001,0.0876001,-2.76466e-05,0.0892431,-2.50257e-05,7.31096e-05,0,0,0,0,
-13.0272,-7.03769,25.0242,-0.479474,13.2169,-6.1927,23.9797,-0.405877,-6.92434,-3.09574,20.1641,8.18568e-05,7.28415,-2.11772,20.2106,-0.000465266,-12.9882,-6.36502,24.1076,0.000126305,13.2034,-6.20316,24.3581,0.000122414,-6.85938,-2.49155,20.3517,-0.00127691,7.24169,-1.55336,19.5154,-0.00030326,0.021627,-0.0781045,0.0466603,-0.0221085,-0.0789954,0.0474643,0.0115348,-0.0853027,0.0543386,-0.011998,-0.0867467,0.0549127,2.97102e-10,-0.0906001,0.0906001,-4.58797e-10,-0.0906001,0.0906001,2.91016e-10,-0.0906001,0.0906001,2.63145e-11,-0.0906001,0.0906001,0.10655,0.090195,-1.81904e-05,0.000103393,0,0,0,0,
-13.0222,-6.95434,22.0597,-0.5075,13.0623,-6.37076,21.3391,0.000124719,-6.94204,-3.58843,17.5946,8.1874e-05,7.30489,-2.95842,17.7058,-0.00084817,-13.0245,-6.32205,21.2031,0.000123933,13.0704,-6.31931,21.5938,-0.460126,-6.89681,-3.46884,17.697,-0.0687224,7.32622,-2.42058,17.0562,-0.00025244,0.0217065,-0.0814466,0.0552487,-0.0218362,-0.0820625,0.0556618,0.0115066,-0.0868816,0.0619297,-0.0121909,-0.0883731,0.0624322,2.95353e-10,-0.0936001,0.0936001,-4.56095e-10,-0.0936001,0.0936001,2.89303e-10,-0.0936001,0.0936001,2.61596e-11,-0.0936001,0.0936001,0.112778,-2.77153e-05,-1.81942e-05,0.000188482,0,0,0,0,
-12.9961,-7.82843,21.0431,-0.641519,13.0443,-7.52627,21.1087,0.000123093,-7.07206,-3.88002,16.0091,8.72001e-05,7.20774,-3.72807,16.4274,-0.100914,-13.0059,-7.17178,21.2746,0.000123549,13.0366,-7.47402,21.3381,-0.636285,-7.0473,-3.75198,16.0616,-0.164139,7.22483,-3.19356,15.767,-0.000261143,0.0216751,-0.0834365,0.0602663,-0.0217368,-0.0835901,0.0602333,0.0116971,-0.0892138,0.0681111,-0.0120803,-0.0900248,0.0681496,2.93603e-10,-0.0966001,0.0966001,-4.53393e-10,-0.0966001,0.0966001,2.87589e-10,-0.0966001,0.0966001,2.60046e-11,-0.0966001,0.0966001,0.14256,-2.73539e-05,-1.93778e-05,0.0224254,0,0,0,0,
-13.0702,-8.86382,22.6612,-0.0768086,13.0928,-9.47147,23.576,-0.93278,-7.21714,-4.17889,15.8937,-0.193595,7.1113,-4.07858,15.9537,-0.000284953,-13.0247,-8.87184,22.9562,-0.872292,13.1406,-8.74724,22.5283,-0.112726,-7.22237,-3.65028,15.2148,5.8819e-05,7.09642,-3.94553,15.9802,-0.191241,0.0217173,-0.084321,0.0613507,-0.0218194,-0.0839943,0.0609985,0.0119654,-0.0919944,0.0724292,-0.0118859,-0.0920288,0.0719085,2.91853e-10,-0.0996001,0.0996001,-4.50691e-10,-0.0996001,0.0996001,2.85875e-10,-0.0996001,0.0996001,2.58496e-11,-0.0996001,0.0996001,0.0170686,0.207285,0.0430212,6.33229e-05,0,0,0,0,
-13.1349,-9.71287,24.8199,-0.153358,13.2857,-10.0676,25.2206,-1.13127,-7.30376,-4.16873,16.0026,-0.197469,7.08222,-4.68206,16.9919,-0.229824,-13.2121,-9.79595,25.2174,-1.04823,13.1964,-10.1652,25.6356,-0.209166,-7.31095,-4.04304,16.0239,0.000117342,7.10473,-4.13331,16.2689,-0.000318079,0.0218886,-0.0855397,0.0607731,-0.0220125,-0.0849759,0.060172,0.0121466,-0.0947035,0.0750385,-0.011817,-0.0942582,0.0740655,2.90104e-10,-0.1026,0.1026,-4.47989e-10,-0.1026,0.1026,2.84161e-10,-0.1026,0.1026,2.56947e-11,-0.1026,0.1026,0.0340796,0.251392,0.043882,0.051072,0,0,0,0,
-13.3962,-9.49374,26.1546,-0.0387235,13.2951,-10.2356,27.493,-1.00447,-7.32443,-4.45854,17.1437,-0.191732,7.19273,-4.48633,17.3927,-0.000330278,-13.3045,-9.61921,26.62,-0.941647,13.3939,-9.47113,26.3243,-0.0857116,-7.34102,-3.91742,16.4267,9.31084e-05,7.16097,-4.38964,17.4533,-0.221159,0.0221746,-0.0883453,0.0610164,-0.0221958,-0.0877973,0.0601431,0.0122147,-0.0975156,0.0768543,-0.0119175,-0.0970666,0.0758037,2.88354e-10,-0.1056,0.1056,-4.45287e-10,-0.1056,0.1056,2.82447e-10,-0.1056,0.1056,2.55397e-11,-0.1056,0.1056,0.00860521,0.223215,0.0426071,7.33952e-05,0,0,0,0,
-13.5155,-8.19108,26.2383,0.000126653,13.3613,-8.80203,27.5408,-0.723432,-7.31123,-4.41164,17.9747,-0.168865,7.33079,-4.23198,18.0734,-0.00033252,-13.4452,-8.31068,26.6917,-0.707902,13.4415,-8.08382,26.4311,0.000132785,-7.34026,-3.86119,17.2342,0.000120822,7.29382,-4.14795,18.1526,-0.173975,0.0224177,-0.093026,0.0633109,-0.022312,-0.092626,0.0623882,0.0122125,-0.100516,0.0784854,-0.0121253,-0.100344,0.0775919,2.86604e-10,-0.1086,0.1086,-4.42585e-10,-0.1086,0.1086,2.80733e-10,-0.1086,0.1086,2.53847e-11,-0.1086,0.1086,-2.81451e-05,0.160763,0.0375256,7.38934e-05,0,0,0,0,
-13.4991,-6.29749,26.2196,-0.407564,13.4003,-6.26182,25.9362,0.000106291,-7.36015,-4.17979,18.3496,-0.122212,7.4234,-4.00217,18.6832,-0.0915293,-13.5321,-6.37194,25.2198,0.000124224,13.4426,-6.3464,26.3336,-0.417904,-7.31971,-3.62206,18.426,9.42515e-05,7.46077,-3.44548,18.7706,-0.000241422,0.0225211,-0.0990139,0.0672327,-0.0223595,-0.0989974,0.0665221,0.0122254,-0.103829,0.0802062,-0.0123467,-0.104048,0.0795529,2.84854e-10,-0.1116,0.1116,-4.39883e-10,-0.1116,0.1116,2.79019e-10,-0.1116,0.1116,2.52297e-11,-0.1116,0.1116,0.0905697,-2.36203e-05,0.0271583,0.0203398,0,0,0,0,
-13.4545,-4.83335,25.6152,-0.142802,13.439,-4.41882,25.2194,0.00530955,-7.43184,-3.56768,19.2442,9.09151e-05,7.51167,-3.58554,19.8364,-0.0156899,-13.4611,-4.21545,24.6741,0.0001148,13.4329,-4.44291,25.5283,-0.133438,-7.38022,-3.49186,19.3389,-0.0574456,7.55608,-3.02258,19.0566,-0.000232435,0.0224627,-0.10516,0.0713283,-0.0223876,-0.105276,0.0708918,0.0123097,-0.10743,0.0817599,-0.0125173,-0.107763,0.0814068,2.83105e-10,-0.1146,0.1146,-4.37181e-10,-0.1146,0.1146,2.77305e-10,-0.1146,0.1146,2.50748e-11,-0.1146,0.1146,0.0317337,-0.0011799,-2.02033e-05,0.00348665,0,0,0,0,
-13.3525,-3.33681,25.7841,-0.0377312,13.47,-3.23852,25.5202,-0.000243652,-7.54693,-3.4103,20.7416,-0.00442999,7.62503,-3.21499,20.3438,-0.000165089,-13.3554,-3.33861,24.8421,0.0207333,13.4756,-2.93373,25.1892,-0.000170052,-7.49421,-2.82596,19.93,6.26778e-05,7.57647,-2.63836,20.4599,-0.000939081,0.0223066,-0.110448,0.0744186,-0.0224353,-0.110694,0.0743129,0.0124806,-0.111087,0.0830637,-0.0126415,-0.111409,0.0829455,2.81355e-10,-0.1176,0.1176,-4.34479e-10,-0.1176,0.1176,2.75591e-10,-0.1176,0.1176,2.49198e-11,-0.1176,0.1176,0.00838471,5.41448e-05,0.000984442,3.66864e-05,0,0,0,0,
-13.2655,-2.83117,26.0481,-0.0067345,13.5345,-2.37726,26.3637,1.5296e-05,-7.64023,-3.06374,21.8774,-0.00113143,7.69091,-2.94789,21.4361,-0.000185321,-13.2616,-2.8387,26.326,0.0301081,13.5263,-2.06239,26.0139,-8.35078e-05,-7.69323,-2.4638,21.0356,9.44193e-05,7.63366,-2.35278,21.585,-0.00081751,0.0221458,-0.114565,0.0762928,-0.0225248,-0.115441,0.0762413,0.0127094,-0.114691,0.0842031,-0.0127441,-0.114919,0.0841418,2.79605e-10,-0.1206,0.1206,-4.31777e-10,-0.1206,0.1206,2.73878e-10,-0.1206,0.1206,2.47648e-11,-0.1206,0.1206,0.00149656,-3.39912e-06,0.00025143,4.11825e-05,0,0,0,0,
-13.2201,-3.09951,27.7556,-0.00119765,13.5667,-2.11395,27.0616,0.0449226,-7.84991,-2.55176,22.3287,-0.00111784,7.70357,-2.80282,22.9564,-0.000220643,-13.2328,-2.42233,26.7552,0.0404929,13.5711,-2.11767,27.359,-0.000922134,-7.78079,-2.51905,22.5115,9.9598e-05,7.7696,-2.18715,22.0876,-0.000641242,0.0220558,-0.117818,0.0774873,-0.0226002,-0.118936,0.0775885,0.0129585,-0.11813,0.0855207,-0.0128562,-0.118232,0.0853478,2.77856e-10,-0.1236,0.1236,-4.29075e-10,-0.1236,0.1236,2.72164e-10,-0.1236,0.1236,2.46098e-11,-0.1236,0.1236,0.000266144,-0.0099828,0.000248409,4.90317e-05,0,0,0,0,
-13.2543,-2.66977,27.6668,0.0485654,13.5656,-2.4667,28.362,-0.000956578,-7.9122,-2.62885,23.3523,-0.00111942,7.87599,-2.37418,22.9892,-0.000261476,-13.2361,-2.70739,28.0137,-0.00124645,13.5702,-1.7949,27.3638,0.053402,-7.97694,-2.01085,22.4841,6.05412e-05,7.80992,-2.34836,23.2001,-0.000674169,0.0220645,-0.12097,0.0792957,-0.0226186,-0.121922,0.0792618,0.0131852,-0.121514,0.0874428,-0.0130215,-0.121494,0.0872126,2.76106e-10,-0.1266,0.1266,-4.26373e-10,-0.1266,0.1266,2.7045e-10,-0.1266,0.1266,2.44549e-11,-0.1266,0.1266,-0.0107923,0.000212573,0.000248761,5.81059e-05,0,0,0,0,
-13.3015,-2.56486,27.5396,0.0483834,13.514,-2.46478,28.3791,-0.000944166,-8.06914,-2.56787,23.3493,-0.00106523,7.99965,-2.3415,23.0562,-0.000270911,-13.2863,-2.59832,27.8951,-0.00117588,13.5224,-1.79187,27.3905,0.0542541,-8.00631,-1.94973,22.4919,9.32247e-05,7.92978,-2.31458,23.2792,-0.000616885,0.0221327,-0.124119,0.082166,-0.0225599,-0.124901,0.0819203,0.0133582,-0.124675,0.090203,-0.0132207,-0.124584,0.0898521,2.74356e-10,-0.1296,0.1296,-4.23671e-10,-0.1296,0.1296,2.68736e-10,-0.1296,0.1296,2.42999e-11,-0.1296,0.1296,-0.0107519,0.000209815,0.000236717,6.02024e-05,0,0,0,0,
-13.3393,-2.80871,27.474,-0.00103734,13.4341,-2.11936,27.167,0.0475019,-8.12867,-2.33162,22.3477,0.00010355,8.06308,-2.67521,23.177,-0.000646235,-13.3436,-2.14227,26.5176,0.0406113,13.433,-2.12823,27.5048,-0.000913976,-8.07058,-2.28526,22.5538,-0.00104494,8.12227,-2.05481,22.3287,-0.000246737,0.022217,-0.127312,0.0861117,-0.0224303,-0.127961,0.0856579,0.0134755,-0.127673,0.0938275,-0.0134296,-0.127555,0.0933186,2.72606e-10,-0.1326,0.1326,-4.20969e-10,-0.1326,0.1326,2.67022e-10,-0.1326,0.1326,2.41449e-11,-0.1326,0.1326,0.00023052,-0.010556,-2.30111e-05,0.000143608,0,0,0,0,
-13.3676,-2.98887,26.6895,-0.00103513,13.3521,-2.38433,26.5383,0.0366008,-8.17485,-2.52908,21.668,0.000103756,8.1741,-2.84537,22.5183,-0.000744397,-13.3657,-2.32714,25.7543,0.0294607,13.3519,-2.38199,26.8579,-0.000971726,-8.12381,-2.47137,21.8574,-0.00110862,8.22579,-2.23354,21.693,-0.000262887,0.0222684,-0.130145,0.0904021,-0.0222913,-0.130654,0.0897009,0.013561,-0.1304,0.0978733,-0.0136197,-0.130311,0.0972898,2.70857e-10,-0.1356,0.1356,-4.18267e-10,-0.1356,0.1356,2.65308e-10,-0.1356,0.1356,2.39899e-11,-0.1356,0.1356,0.00023003,-0.0081335,-2.30568e-05,0.000165422,0,0,0,0,
-13.3645,-3.33276,25.923,0.10348,13.3084,-2.99697,26.1199,0.0351731,-8.22366,-2.78743,21.3379,6.80061e-05,8.25309,-3.09385,21.7621,-0.000720787,-13.371,-3.18498,25.9006,-0.0367185,13.2927,-2.9881,26.4399,-0.0248475,-8.18576,-2.71711,20.5471,-0.00118365,8.28479,-2.48618,20.9605,-0.000291683,0.0222822,-0.132433,0.0943522,-0.0221899,-0.1328,0.093522,0.0136488,-0.132999,0.102186,-0.0137546,-0.132921,0.101497,2.69107e-10,-0.1386,0.1386,-4.15565e-10,-0.1386,0.1386,2.63594e-10,-0.1386,0.1386,2.3835e-11,-0.1386,0.1386,-0.0229955,-0.00781625,-1.51125e-05,0.000160175,0,0,0,0,
-13.3637,-4.05868,25.4863,0.0285413,13.2928,-4.20144,26.6407,-0.0746332,-8.24253,-3.27848,20.5903,-0.00737599,8.33651,-3.06715,20.4938,-0.0002289,-13.3556,-4.03735,25.7926,-0.0868723,13.3073,-3.52184,25.6666,0.0338166,-8.27599,-2.69606,19.8203,6.72288e-05,8.30025,-2.99161,20.6505,-0.0125339,0.0222727,-0.134155,0.0977486,-0.0221629,-0.134448,0.0968418,0.0137403,-0.135602,0.106441,-0.0138466,-0.135548,0.105852,2.67357e-10,-0.1416,0.1416,-4.12863e-10,-0.1416,0.1416,2.6188e-10,-0.1416,0.1416,2.368e-11,-0.1416,0.1416,-0.0063425,0.0165851,0.00163911,5.08667e-05,0,0,0,0,
-13.3376,-4.97846,25.6392,0.000106868,13.3278,-5.14036,26.732,-0.156992,-8.2992,-3.5502,19.9519,-0.0253201,8.35991,-3.35269,19.8401,-0.000239689,-13.3601,-4.97481,25.973,-0.20768,13.3531,-4.45476,25.733,0.0150819,-8.32508,-2.9796,19.1955,8.29147e-05,8.33085,-3.26527,19.9794,-0.0297763,0.0222525,-0.13559,0.100561,-0.0222135,-0.135875,0.0997655,0.0138285,-0.13814,0.110543,-0.0139004,-0.138081,0.109991,2.65607e-10,-0.1446,0.1446,-4.10161e-10,-0.1446,0.1446,2.60167e-10,-0.1446,0.1446,2.3525e-11,-0.1446,0.1446,-2.37484e-05,0.0348871,0.00562668,5.32642e-05,0,0,0,0,
-13.36,-5.65063,25.7965,0.000112151,13.4186,-5.80199,26.7924,0.000110363,-8.348,-3.78079,19.4326,-0.0677464,8.37422,-3.57916,19.2768,-0.000223123,-13.3266,-5.66964,26.1594,-0.316021,13.3848,-5.10881,25.7736,-0.279451,-8.3683,-3.21691,18.6844,8.61082e-05,8.35112,-3.48674,19.4014,-0.0710591,0.0222427,-0.137325,0.103254,-0.02231,-0.137635,0.102649,0.0139098,-0.140727,0.114459,-0.0139317,-0.140677,0.113988,2.63858e-10,-0.1476,0.1476,-4.07459e-10,-0.1476,0.1476,2.58453e-10,-0.1476,0.1476,2.337e-11,-0.1476,0.1476,-2.49226e-05,-2.45252e-05,0.0150548,4.95829e-05,0,0,0,0,
-13.3607,-5.97896,25.7993,0.000114457,13.4452,-6.10614,26.6793,9.37385e-05,-8.38144,-3.96187,19.0543,-0.103224,8.39225,-3.73671,18.8368,-0.000250302,-13.3222,-6.01214,26.1775,-0.373192,13.4798,-5.41595,25.6577,-0.332811,-8.39852,-3.40254,18.3103,5.86999e-05,8.37429,-3.64012,18.9484,-0.10374,0.0222387,-0.139603,0.106157,-0.0224093,-0.13996,0.105761,0.0139702,-0.143398,0.118153,-0.0139635,-0.143387,0.117794,2.62108e-10,-0.1506,0.1506,-4.04757e-10,-0.1506,0.1506,2.56739e-10,-0.1506,0.1506,2.32151e-11,-0.1506,0.1506,-2.54349e-05,-2.08308e-05,0.0229386,5.56227e-05,0,0,0,0,
-13.3256,-6.3171,25.6651,-0.375872,13.4927,-5.70646,25.7098,0.000123322,-8.41889,-4.09543,18.3997,4.85683e-05,8.40364,-4.03656,18.9599,-0.120411,-13.3631,-5.63181,26.0422,0.000114356,13.524,-5.73716,26.0796,-0.339688,-8.40317,-3.53894,18.4946,-0.129241,8.41508,-3.47899,18.2137,-0.000263449,0.0222378,-0.142477,0.109326,-0.0224951,-0.142911,0.109214,0.0140101,-0.146147,0.121656,-0.0140049,-0.146233,0.121369,2.60358e-10,-0.1536,0.1536,-4.02055e-10,-0.1536,0.1536,2.55025e-10,-0.1536,0.1536,2.30601e-11,-0.1536,0.1536,0.0835271,-2.74048e-05,-1.0793e-05,0.026758,0,0,0,0,
-13.3391,-6.11019,25.5375,-0.350412,13.5434,-5.50619,25.5228,-0.315265,-8.43921,-4.14019,18.3914,-0.139404,8.42835,-4.05185,18.9016,-0.126741,-13.3724,-5.43378,25.9041,0.000117331,13.5176,-5.53248,25.8789,9.30893e-05,-8.42324,-3.58512,18.4841,4.71182e-05,8.44172,-3.49648,18.1517,-0.0002377,0.0222537,-0.145727,0.112563,-0.0225443,-0.14617,0.112572,0.0140446,-0.149027,0.124759,-0.0140465,-0.149166,0.124566,2.58609e-10,-0.1566,0.1566,-3.99353e-10,-0.1566,0.1566,2.53311e-10,-0.1566,0.1566,2.29051e-11,-0.1566,0.1566,0.0778693,0.0700588,0.0309787,0.0281646,0,0,0,0,
-13.3566,-5.8131,26.1903,-0.307349,13.5506,-5.24315,25.5149,9.16132e-05,-8.45954,-4.04719,18.5852,6.67362e-05,8.45832,-4.01798,19.0816,-0.120165,-13.3858,-5.14328,25.1823,0.000109798,13.5287,-5.26487,25.8595,-0.27568,-8.44158,-3.49159,18.6806,-0.133243,8.47516,-3.46125,18.322,-0.000237013,0.0222767,-0.149183,0.115653,-0.0225651,-0.149591,0.115686,0.0140759,-0.152158,0.12753,-0.0140965,-0.152202,0.127384,2.56859e-10,-0.1596,0.1596,-3.96651e-10,-0.1596,0.1596,2.51597e-10,-0.1596,0.1596,2.27502e-11,-0.1596,0.1596,0.0682998,-2.03585e-05,-1.48303e-05,0.0267034,0,0,0,0,
-13.4094,-5.48254,25.6538,-0.258104,13.5483,-5.26616,25.7102,0.00011526,-8.48763,-3.94544,18.9399,-0.108791,8.51166,-3.9283,19.4549,-0.103671,-13.3839,-4.81666,25.9993,0.000113105,13.5279,-4.60423,26.0508,-0.233645,-8.46661,-3.38674,19.0427,0.000102643,8.49184,-3.36792,18.6823,-0.000202949,0.0223174,-0.152715,0.118532,-0.0225666,-0.153099,0.118455,0.0141169,-0.155292,0.13,-0.0141551,-0.155325,0.129852,2.55109e-10,-0.1626,0.1626,-3.93949e-10,-0.1626,0.1626,2.49883e-10,-0.1626,0.1626,2.25952e-11,-0.1626,0.1626,0.0573564,-2.56133e-05,0.0241758,0.023038,0,0,0,0,
-13.4144,-4.73879,26.6133,0.000105734,13.5429,-4.66187,26.0135,0.000111949,-8.49885,-3.5798,19.799,4.21416e-05,8.52982,-3.78896,19.9332,-0.0777273,-13.4377,-4.76098,25.6065,-0.203329,13.523,-4.68287,26.356,-0.18711,-8.52185,-3.49565,19.0175,-0.0871991,8.55235,-3.22352,19.1471,-0.000224596,0.0223629,-0.156387,0.121047,-0.0225592,-0.156541,0.120985,0.0141686,-0.158492,0.132314,-0.0142162,-0.158542,0.132107,2.5336e-10,-0.1656,0.1656,-3.91247e-10,-0.1656,0.1656,2.4817e-10,-0.1656,0.1656,2.24402e-11,-0.1656,0.1656,-2.34965e-05,-2.48776e-05,-9.36481e-06,0.0172727,0,0,0,0,
-13.444,-4.73651,26.8167,-0.116388,13.5339,-4.33772,26.2747,0.0445593,-8.5623,-3.39772,19.8305,7.21952e-05,8.57256,-3.63677,20.4345,-0.0494986,-13.4643,-4.07736,25.8141,0.0446876,13.5145,-4.36065,26.6214,-0.114885,-8.53502,-3.31854,19.9546,-0.0557863,8.59651,-3.06578,19.636,-0.000225719,0.0224109,-0.159933,0.12367,-0.0225464,-0.160069,0.123515,0.0142311,-0.161788,0.134532,-0.0142868,-0.161796,0.134285,2.5161e-10,-0.1686,0.1686,-3.88546e-10,-0.1686,0.1686,2.46456e-10,-0.1686,0.1686,2.22852e-11,-0.1686,0.1686,0.0258641,-0.00990206,-1.60434e-05,0.0109997,0,0,0,0,
-13.4652,-4.31136,26.906,0.0429904,13.5213,-3.95022,27.0612,0.0452605,-8.57751,-3.23019,20.2455,8.51861e-05,8.61936,-3.49251,20.3945,-0.0299429,-13.4819,-3.65381,25.9106,-0.0923982,13.5042,-3.97511,26.0615,-0.0937512,-8.60601,-3.15668,20.3813,-0.0312303,8.64543,-2.91547,20.5335,-0.000203993,0.022448,-0.163616,0.126464,-0.0225282,-0.163684,0.126231,0.0142997,-0.165069,0.136809,-0.0143645,-0.165045,0.136573,2.4986e-10,-0.1716,0.1716,-3.85844e-10,-0.1716,0.1716,2.44742e-10,-0.1716,0.1716,2.21303e-11,-0.1716,0.1716,-0.00955342,-0.0100579,-1.89302e-05,0.00665398,0,0,0,0,
-13.4828,-3.51125,26.2027,0.0415222,13.4936,-3.85359,27.0845,-0.0669795,-8.62237,-3.30067,21.0452,-0.020141,8.69637,-3.06728,20.7642,-0.000203674,-13.4718,-3.52844,26.5364,-0.0691557,13.5077,-3.19345,26.0928,0.0444063,-8.65272,-2.72084,20.2356,8.20985e-05,8.66772,-3.00116,20.9153,-0.0243247,0.0224625,-0.167418,0.129525,-0.0225076,-0.167402,0.129136,0.0143741,-0.168375,0.139208,-0.0144495,-0.168355,0.138911,2.4811e-10,-0.1746,0.1746,-3.83142e-10,-0.1746,0.1746,2.43028e-10,-0.1746,0.1746,2.19753e-11,-0.1746,0.1746,-0.00922715,0.0148843,0.00447578,4.5261e-05,0,0,0,0,
-13.46,-3.48311,26.8044,-0.0486693,13.4777,-3.50102,27.0344,-0.0493538,-8.69403,-2.92303,20.8345,5.27432e-05,8.71772,-3.20731,21.523,-0.0199426,-13.479,-2.82934,25.8199,0.0459035,13.4928,-2.83887,26.0399,0.0465043,-8.67605,-2.86403,20.9857,-0.0150452,8.74223,-2.62371,20.6964,-0.000126988,0.0224542,-0.171064,0.132583,-0.0224823,-0.171041,0.132207,0.0144556,-0.171615,0.141757,-0.0145282,-0.171562,0.141395,2.46361e-10,-0.1776,0.1776,-3.8044e-10,-0.1776,0.1776,2.41314e-10,-0.1776,0.1776,2.18203e-11,-0.1776,0.1776,0.0108154,0.0109675,-1.17207e-05,0.00443169,0,0,0,0,
-13.4477,-2.82217,26.013,0.104132,13.4698,-3.35622,27.2242,-0.245129,-8.73263,-2.87409,21.0311,1.25984e-05,8.77251,-3.1526,21.7126,-0.0166999,-13.4572,-2.75762,26.2032,0.131204,13.4754,-2.51468,25.8783,0.110632,-8.73004,-2.81168,21.1919,-0.0151129,8.77979,-2.56184,20.8834,-5.13125e-05,0.0224277,-0.174536,0.135594,-0.0224567,-0.17447,0.135194,0.0145369,-0.174713,0.144374,-0.0146048,-0.174671,0.144028,2.44611e-10,-0.1806,0.1806,-3.77738e-10,-0.1806,0.1806,2.396e-10,-0.1806,0.1806,2.16653e-11,-0.1806,0.1806,-0.0231404,0.0544731,-2.79964e-06,0.00371108,0,0,0,0,
-13.432,-3.28308,27.1015,-0.24204,13.4617,-3.02467,26.7815,0.114128,-8.79302,-2.84714,21.1168,6.02457e-05,8.80908,-3.10818,21.7714,-0.0181103,-13.4201,-2.44587,25.7647,0.107989,13.4599,-2.95638,26.9435,0.131234,-8.76027,-2.78652,21.2818,-0.0165862,8.84062,-2.52093,20.9466,-0.000298475,0.022389,-0.17767,0.138422,-0.0224432,-0.177665,0.138127,0.0146134,-0.177767,0.147174,-0.014681,-0.177745,0.146865,2.42861e-10,-0.1836,0.1836,-3.75036e-10,-0.1836,0.1836,2.37886e-10,-0.1836,0.1836,2.15104e-11,-0.1836,0.1836,0.0537866,-0.0253619,-1.33879e-05,0.00402452,0,0,0,0,
-13.4027,-3.12424,26.6847,0.129749,13.4729,-2.83631,26.2791,-0.246664,-8.84175,-2.88468,21.0898,7.65036e-05,8.84855,-3.14069,21.1887,-0.014824,-13.402,-3.05197,26.8544,-0.251455,13.4567,-2.7641,26.4846,0.113428,-8.81539,-2.81809,21.2653,-0.0229667,8.86552,-2.53803,21.3609,-0.000156919,0.0223462,-0.180576,0.141288,-0.0224412,-0.180641,0.14112,0.0146862,-0.180736,0.150159,-0.0147518,-0.180736,0.149984,2.41112e-10,-0.1866,0.1866,-3.72334e-10,-0.1866,0.1866,2.36173e-10,-0.1866,0.1866,2.13554e-11,-0.1866,0.1866,-0.0288332,0.0548142,-1.70008e-05,0.00329423,0,0,0,0,
-13.3652,-3.52897,27.0169,0.0491597,13.4581,-3.51352,27.2862,0.128494,-8.84986,-2.95618,20.9563,7.70643e-05,8.91666,-3.1956,21.0211,-0.0262901,-13.3925,-2.86151,26.0189,-0.0576141,13.4728,-2.66592,25.928,-0.264446,-8.86386,-2.89834,21.1233,-0.0220636,8.89345,-2.61335,21.1965,-6.11034e-05,0.02231,-0.183249,0.144242,-0.0224409,-0.183382,0.144074,0.0147521,-0.183626,0.153333,-0.0148215,-0.183646,0.153208,2.39362e-10,-0.1896,0.1896,-3.69632e-10,-0.1896,0.1896,2.34459e-10,-0.1896,0.1896,2.12004e-11,-0.1896,0.1896,-0.0109244,-0.0285542,-1.71254e-05,0.00584224,0,0,0,0,
-13.3737,-3.44427,26.2254,0.0494659,13.4749,-3.15608,26.1316,0.0812896,-8.89053,-3.27249,21.1441,-0.0229928,8.94399,-2.99661,20.7536,-8.47297e-05,-13.3532,-3.44712,26.5726,-0.0727669,13.4672,-3.0902,26.3433,0.0916222,-8.90345,-2.68225,20.342,6.32005e-05,8.929,-2.91537,20.9211,-0.029181,0.0222794,-0.185861,0.147436,-0.0224467,-0.186149,0.147303,0.0148097,-0.186535,0.156749,-0.0148825,-0.186585,0.156614,2.37612e-10,-0.1926,0.1926,-3.6693e-10,-0.1926,0.1926,2.32745e-10,-0.1926,0.1926,2.10455e-11,-0.1926,0.1926,-0.0109924,-0.0180644,0.00510951,1.88288e-05,0,0,0,0,
-13.3389,-4.09757,26.7887,-0.0899476,13.4766,-3.84135,26.0565,0.0294928,-8.93855,-3.15127,20.3894,7.5373e-05,8.95136,-3.11811,20.9711,-0.000239281,-13.3613,-3.42735,25.7917,0.0516503,13.4696,-2.99545,26.2598,0.0304044,-8.9137,-3.07412,20.5483,-0.0351957,8.97584,-3.04239,20.1688,-0.0332369,0.0222519,-0.188318,0.150555,-0.0224501,-0.188829,0.150425,0.0148592,-0.189333,0.160212,-0.0149296,-0.1894,0.160021,2.35863e-10,-0.1956,0.1956,-3.64228e-10,-0.1956,0.1956,2.31031e-10,-0.1956,0.1956,2.08905e-11,-0.1956,0.1956,0.0199884,-0.00655395,-1.67496e-05,5.31736e-05,0,0,0,0,
-13.3245,-4.01722,25.9155,0.0464928,13.4598,-3.65689,26.7884,0.0457107,-8.94673,-3.25635,20.4988,-0.0492466,8.97818,-3.27513,20.6392,-0.0529333,-13.3507,-4.0218,26.2722,-0.108155,13.4812,-3.66046,25.7879,-0.0877406,-8.94774,-3.1797,19.7099,3.48617e-05,8.97626,-3.20039,19.8444,-0.00021201,0.0222322,-0.190907,0.153921,-0.02245,-0.191529,0.153565,0.0149013,-0.192152,0.163794,-0.0149604,-0.192137,0.163581,2.34113e-10,-0.1986,0.1986,-3.61526e-10,-0.1986,0.1986,2.29317e-10,-0.1986,0.1986,2.07355e-11,-0.1986,0.1986,-0.0103317,-0.0101579,0.0109437,0.011763,0,0,0,0,
-13.3548,-4.27536,25.7878,0.0364202,13.4739,-3.96972,25.9725,0.0467052,-8.97012,-3.54833,20.2018,-0.0668633,8.97855,-3.60665,20.38,-0.0728125,-13.3288,-4.28026,26.1456,-0.135649,13.4522,-3.97382,26.3282,-0.106887,-8.9684,-2.97284,19.4191,4.4209e-05,8.97814,-3.02649,19.5892,-0.000181453,0.0222351,-0.193458,0.15715,-0.0224436,-0.193996,0.156857,0.0149404,-0.195053,0.167302,-0.0149634,-0.194974,0.167028,2.32363e-10,-0.2016,0.2016,-3.58824e-10,-0.2016,0.2016,2.27603e-10,-0.2016,0.2016,2.05805e-11,-0.2016,0.2016,-0.00809339,-0.0103789,0.0148585,0.0161806,0,0,0,0,
-13.3467,-4.44208,25.7173,-0.189599,13.4362,-4.2337,26.5748,-0.123633,-8.98428,-3.32364,19.4897,-0.0799243,8.98003,-3.67109,20.1898,-0.000208917,-13.3726,-4.45096,26.0773,9.97343e-05,13.4608,-4.23953,25.5659,0.0449544,-8.98092,-3.23833,19.6211,9.98824e-05,8.98094,-3.09348,19.4011,-0.0879871,0.022257,-0.196131,0.160294,-0.0224218,-0.196527,0.159979,0.014966,-0.198024,0.170792,-0.0149666,-0.197842,0.170375,2.30613e-10,-0.2046,0.2046,-3.56122e-10,-0.2046,0.2046,2.25889e-10,-0.2046,0.2046,2.04256e-11,-0.2046,0.2046,0.042133,0.027474,0.017761,4.6426e-05,0,0,0,0,
-13.3937,-4.532,25.6878,0.000113974,13.4481,-4.38522,25.9235,0.00759276,-8.98583,-3.64351,19.8695,-0.0907218,8.99443,-3.70706,20.0908,-0.0974138,-13.3671,-4.54388,26.0501,-0.213263,13.4221,-4.39717,26.288,-0.180133,-8.98274,-3.07214,19.0895,8.41599e-05,8.99222,-3.1309,19.3018,-0.000227096,0.0222927,-0.198943,0.163358,-0.0223995,-0.199211,0.162976,0.0149745,-0.200876,0.173941,-0.0149826,-0.200768,0.173584,2.28864e-10,-0.207599,0.207599,-3.5342e-10,-0.207599,0.207599,2.24176e-10,-0.207599,0.207599,2.02706e-11,-0.207599,0.207599,-2.53275e-05,-0.00168728,0.0201604,0.0216475,0,0,0,0,
-13.3852,-4.84399,26.3414,-0.212742,13.4121,-4.72762,26.5994,-0.192357,-8.98269,-3.39202,19.3743,-0.0973578,9.01289,-3.42923,19.5833,-0.000166544,-13.4109,-4.17902,25.3284,0.000103776,13.4396,-4.0601,25.5816,0.000100615,-8.97994,-3.30764,19.5021,7.0882e-05,9.01018,-3.34983,19.7194,-0.100886,0.0223229,-0.201929,0.166389,-0.0223799,-0.202137,0.16597,0.0149709,-0.203894,0.177084,-0.0150111,-0.203818,0.176726,2.27114e-10,-0.210599,0.210599,-3.50718e-10,-0.210599,0.210599,2.22462e-10,-0.210599,0.210599,2.01156e-11,-0.210599,0.210599,0.047276,0.042746,0.0216351,3.70098e-05,0,0,0,0,
-13.392,-4.77048,26.3589,-0.204737,13.4127,-4.66973,26.6133,-0.185162,-8.97966,-3.3961,19.461,4.86171e-05,9.02754,-3.41698,19.6581,-0.000209342,-13.4171,-4.10787,25.3458,0.000107233,13.4398,-4.00462,25.5956,0.00216042,-8.98189,-3.31431,19.5912,-0.0981865,9.03036,-3.33934,19.7957,-0.0990535,0.0223389,-0.205015,0.169368,-0.0223762,-0.205192,0.168943,0.0149679,-0.206877,0.179981,-0.0150415,-0.206831,0.17964,2.25364e-10,-0.213599,0.213599,-3.48016e-10,-0.213599,0.213599,2.20748e-10,-0.213599,0.213599,1.99607e-11,-0.213599,0.213599,0.045497,0.0411471,-1.08038e-05,4.65204e-05,0,0,0,0,
-13.4138,-4.6397,26.4062,-0.189041,13.4184,-4.55534,26.6302,-0.157033,-8.98924,-3.36325,19.6175,5.84683e-05,9.04168,-3.37198,19.7951,-0.00020654,-13.3906,-3.97934,25.3933,0.000106849,13.4441,-3.89266,25.6132,0.0237675,-8.99098,-3.28478,19.7521,-0.0950911,9.0398,-3.29727,19.9365,-0.09456,0.0223407,-0.208204,0.172302,-0.0223822,-0.208354,0.171916,0.0149793,-0.209907,0.182744,-0.0150638,-0.209885,0.182433,2.23615e-10,-0.216599,0.216599,-3.45314e-10,-0.216599,0.216599,2.19034e-10,-0.216599,0.216599,1.98057e-11,-0.216599,0.216599,0.0420092,0.0348963,-1.29929e-05,4.58978e-05,0,0,0,0,
-13.3816,-4.47202,26.4643,-0.149942,13.4289,-4.40153,26.6402,-0.12045,-9.00552,-3.28917,19.8103,9.32909e-05,9.04949,-3.29143,20.4084,-0.000166337,-13.4059,-3.81382,25.4523,0.0257173,13.4532,-3.74169,25.6252,0.0509605,-9.00589,-3.21372,19.9502,-0.0855338,9.04995,-3.21912,19.6051,-0.0842629,0.0223275,-0.211469,0.175207,-0.0223966,-0.211592,0.174894,0.0150027,-0.21301,0.185434,-0.0150794,-0.213001,0.185187,2.21865e-10,-0.219599,0.219599,-3.42612e-10,-0.219599,0.219599,2.1732e-10,-0.219599,0.219599,1.96507e-11,-0.219599,0.219599,0.0333205,0.0267668,-2.07313e-05,3.69639e-05,0,0,0,0,
-13.3889,-3.92825,25.8017,0.0500909,13.462,-3.83598,25.9299,0.0507869,-9.02379,-3.41407,20.469,-0.0649259,9.06033,-3.41504,20.6046,-0.0633668,-13.3671,-3.93887,26.1578,-0.113972,13.4406,-3.84829,26.2886,-0.10914,-9.02422,-2.83717,19.6645,4.23054e-05,9.06099,-2.83566,19.796,-0.000217359,0.0223056,-0.214835,0.178208,-0.0224157,-0.214979,0.177972,0.0150322,-0.216206,0.188109,-0.0150966,-0.216205,0.187875,2.20115e-10,-0.222599,0.222599,-3.3991e-10,-0.222599,0.222599,2.15606e-10,-0.222599,0.222599,1.94957e-11,-0.222599,0.222599,-0.0111313,-0.011286,0.014428,0.0140815,0,0,0,0,
-13.3432,-3.4213,26.2536,-0.000100082,13.4537,-3.86188,26.8471,-0.406791,-9.03744,-3.36317,20.7296,-0.0596751,9.07072,-3.12327,20.6658,-0.000419699,-13.3383,-3.36609,26.4242,-0.4145,13.4683,-3.03156,25.489,0.00596247,-9.06581,-2.79537,19.9181,9.24137e-05,9.07472,-3.00459,20.7385,-0.346226,0.022258,-0.218463,0.181023,-0.0224312,-0.218546,0.180848,0.0150678,-0.219307,0.190699,-0.0151235,-0.219465,0.190442,2.18366e-10,-0.225599,0.225599,-3.37208e-10,-0.225599,0.225599,2.13892e-10,-0.225599,0.225599,1.93408e-11,-0.225599,0.225599,2.22404e-05,0.090398,0.0132611,9.32665e-05,0,0,0,0,
-13.3281,-3.64549,25.8028,0.0153245,13.4697,-3.32971,26.4006,0.0101761,-9.07708,-3.39291,21.0088,-0.0596275,9.10216,-2.80447,20.535,-0.000150488,-13.3109,-2.81276,26.0117,0.000134961,13.4642,-3.25783,26.5794,-0.389831,-9.07918,-2.80449,20.1873,1.31375e-05,9.07679,-2.71246,20.6561,-0.000293666,0.022209,-0.22194,0.183938,-0.0224454,-0.222053,0.183756,0.0151219,-0.222293,0.193239,-0.0151445,-0.222659,0.192959,2.16616e-10,-0.228599,0.228599,-3.34507e-10,-0.228599,0.228599,2.12179e-10,-0.228599,0.228599,1.91858e-11,-0.228599,0.228599,-0.00340545,-0.00226136,0.0132506,3.34417e-05,0,0,0,0,
-13.2786,-3.17727,26.4017,0.0376071,13.4732,-3.37349,26.9462,-0.327546,-9.12562,-3.08137,20.6788,6.33421e-05,9.0856,-2.90606,21.2219,-0.000255978,-13.2804,-3.10604,26.571,-0.363168,13.4797,-2.5408,25.5901,0.0547939,-9.13521,-3.01551,20.8507,-0.0640791,9.10458,-2.79407,21.3044,-0.34208,0.0221558,-0.225341,0.18678,-0.0224586,-0.225454,0.186693,0.0151971,-0.225377,0.195953,-0.0151499,-0.225848,0.195492,2.14866e-10,-0.231599,0.231599,-3.31805e-10,-0.231599,0.231599,2.10465e-10,-0.231599,0.231599,1.90308e-11,-0.231599,0.231599,-0.00835713,0.0727881,-1.4076e-05,5.6884e-05,0,0,0,0,
-13.2653,-2.80394,25.9279,0.0794191,13.4858,-3.05327,26.5061,0.0928581,-9.17751,-3.06301,20.7685,7.89849e-06,9.1051,-2.57788,20.9391,-7.90265e-05,-13.2552,-2.73774,26.1393,0.0761715,13.475,-2.97392,26.6836,-0.309345,-9.16527,-2.98252,20.9441,-0.0581484,9.0813,-2.48603,21.0719,-0.000262981,0.0221089,-0.228605,0.18971,-0.0224687,-0.228616,0.189579,0.0152748,-0.228419,0.198749,-0.0151521,-0.229033,0.198202,2.13116e-10,-0.234599,0.234599,-3.29103e-10,-0.234599,0.234599,2.08751e-10,-0.234599,0.234599,1.88759e-11,-0.234599,0.234599,-0.0176487,-0.0206351,-1.75522e-06,1.75615e-05,0,0,0,0,
-13.2254,-3.26471,26.4311,-0.302983,13.4759,-3.25573,25.9957,-0.302157,-9.20978,-3.27084,21.2403,-0.0543934,9.08426,-2.9549,21.4602,-0.000209754,-13.2456,-2.43062,26.6018,0.0873983,13.4874,-2.42406,26.196,0.081965,-9.23955,-2.69508,20.4164,5.42066e-05,9.08719,-2.17978,21.5462,-0.331745,0.0220664,-0.231687,0.192681,-0.0224719,-0.231718,0.192583,0.0153494,-0.231482,0.201729,-0.0151544,-0.232138,0.201014,2.11367e-10,-0.237599,0.237599,-3.26401e-10,-0.237599,0.237599,2.07037e-10,-0.237599,0.237599,1.87209e-11,-0.237599,0.237599,0.0673295,0.067146,0.0120874,4.6612e-05,0,0,0,0,
-13.208,-3.01869,26.4088,0.082324,13.474,-3.32607,26.9979,-0.321314,-9.24927,-3.08543,20.7114,-0.0604484,9.09081,-2.70448,21.5086,-0.000148419,-13.2095,-2.94368,26.5819,-0.316174,13.4813,-2.49026,25.6388,0.0652495,-9.26078,-3.01915,20.8923,7.13282e-06,9.09521,-2.59571,21.6003,-0.336477,0.0220308,-0.234701,0.195692,-0.022468,-0.234619,0.195556,0.0154089,-0.234395,0.204772,-0.0151649,-0.235209,0.203893,2.09617e-10,-0.240599,0.240599,-3.23699e-10,-0.240599,0.240599,2.05323e-10,-0.240599,0.240599,1.85659e-11,-0.240599,0.240599,-0.0182942,0.0714031,0.013433,3.2982e-05,0,0,0,0,
-13.2068,-2.79891,25.7831,0.0648255,13.473,-3.13493,26.4329,0.0497133,-9.28263,-3.14133,20.5755,4.85359e-05,9.12357,-2.45144,20.9814,-0.000106624,-13.1967,-2.72966,25.9967,0.0570844,13.4625,-3.05378,26.6141,-0.352653,-9.274,-3.05737,20.753,-0.0803031,9.10009,-2.35712,21.1202,-0.000225376,0.0220056,-0.237681,0.198883,-0.0224543,-0.237536,0.198644,0.0154612,-0.237323,0.207965,-0.01518,-0.238278,0.207013,2.07867e-10,-0.243599,0.243599,-3.20997e-10,-0.243599,0.243599,2.03609e-10,-0.243599,0.243599,1.84109e-11,-0.243599,0.243599,-0.0144057,-0.0110474,-1.07858e-05,2.36942e-05,0,0,0,0,
-13.1883,-3.38603,26.7248,-0.36724,13.4469,-3.4348,26.8323,-0.384803,-9.32714,-3.43508,21.0928,4.75787e-05,9.1143,-2.92677,21.3155,-0.334322,-13.1791,-2.54833,25.3699,0.0358148,13.4624,-2.60189,25.477,0.0210243,-9.2953,-2.67893,19.9096,-0.000229558,9.1275,-2.15399,21.4031,-7.83687e-05,0.0219839,-0.240543,0.201979,-0.0224343,-0.240462,0.201814,0.0155062,-0.240348,0.211218,-0.015191,-0.241236,0.210176,2.06118e-10,-0.246599,0.246599,-3.18295e-10,-0.246599,0.246599,2.01895e-10,-0.246599,0.246599,1.8256e-11,-0.246599,0.246599,0.0816089,0.0855119,-1.05731e-05,0.0742938,0,0,0,0,
-13.1908,-2.97734,25.597,0.0161629,13.4438,-3.32389,26.2806,8.20869e-05,-9.31108,-3.31684,20.5947,-0.000245103,9.14196,-2.54754,20.7722,-8.60305e-05,-13.1818,-2.90952,25.8077,-0.000101782,13.4318,-3.24051,26.4619,-0.405916,-9.3235,-3.17768,20.6844,-0.371235,9.12315,-2.45065,20.9071,-0.000351889,0.021973,-0.24343,0.205215,-0.0224092,-0.243261,0.204908,0.0155357,-0.243259,0.214368,-0.0152113,-0.244173,0.213361,2.04368e-10,-0.249599,0.249599,-3.15593e-10,-0.249599,0.249599,2.00182e-10,-0.249599,0.249599,1.8101e-11,-0.249599,0.249599,-0.00359176,-1.82415e-05,5.44674e-05,1.91179e-05,0,0,0,0,
-13.1707,-3.65762,26.6175,-0.406445,13.4326,-3.22519,25.7432,0.00987778,-9.32943,-3.53755,20.0515,6.49317e-05,9.14807,-2.81192,21.5239,-0.343516,-13.1904,-2.81866,25.2563,0.0147789,13.4284,-3.15815,25.9469,6.30996e-06,-9.34706,-2.78472,20.1712,-0.000277921,9.16331,-2.69393,20.3293,-9.02091e-05,0.0219677,-0.246131,0.208202,-0.0223838,-0.246028,0.207994,0.0155509,-0.246198,0.21757,-0.0152442,-0.247077,0.216494,2.02618e-10,-0.252599,0.252599,-3.12891e-10,-0.252599,0.252599,1.98468e-10,-0.252599,0.252599,1.7946e-11,-0.252599,0.252599,0.0903212,-0.00219506,-1.44293e-05,0.0763368,0,0,0,0,
-13.1897,-3.28728,25.5525,0.013372,13.4144,-3.60702,26.234,-6.47105e-05,-9.32095,-3.39203,20.3434,-0.000292684,9.18318,-2.61237,20.4719,-8.73379e-05,-13.1785,-3.22472,25.7656,-0.000282708,13.4025,-3.51936,26.4189,-0.42542,-9.33272,-3.24984,20.4321,-0.376849,9.16776,-2.51539,20.603,-0.00049173,0.0219674,-0.248923,0.21131,-0.0223598,-0.248796,0.211,0.0155555,-0.249121,0.220774,-0.0152807,-0.250039,0.219841,2.00869e-10,-0.255599,0.255599,-3.10189e-10,-0.255599,0.255599,1.96754e-10,-0.255599,0.255599,1.77911e-11,-0.255599,0.255599,-0.00297156,1.43801e-05,6.50408e-05,1.94084e-05,0,0,0,0,
-13.1733,-3.67443,26.0472,-0.000341817,13.3951,-3.94185,26.6802,-0.430421,-9.33665,-3.60485,19.8171,-0.376982,9.18866,-2.86269,20.7688,-0.000522418,-13.1637,-3.58658,26.2236,-0.426608,13.4139,-3.10899,25.3139,0.00764105,-9.35312,-2.85583,19.9329,9.98887e-05,9.20124,-2.74042,20.8547,-0.347443,0.02196,-0.251684,0.214318,-0.022345,-0.251625,0.214093,0.0155628,-0.252083,0.223976,-0.0153126,-0.252993,0.223071,1.99119e-10,-0.258599,0.258599,-3.07487e-10,-0.258599,0.258599,1.9504e-10,-0.258599,0.258599,1.76361e-11,-0.258599,0.258599,7.59594e-05,0.0956492,0.0837739,0.000116093,0,0,0,0,
-13.1737,-3.50509,25.4785,0.0111593,13.407,-3.78258,26.1177,-0.000166992,-9.33017,-3.46301,20.1523,-0.000320807,9.21689,-2.6777,20.2187,-6.4777e-05,-13.1619,-3.4476,25.694,-0.000410708,13.395,-3.69271,26.3052,-0.438685,-9.34131,-3.3184,20.2396,-0.382382,9.20482,-2.57892,20.3447,-0.000540672,0.0219451,-0.254521,0.217412,-0.0223416,-0.25447,0.21717,0.015569,-0.255004,0.227116,-0.0153419,-0.255941,0.226295,1.97369e-10,-0.261599,0.261599,-3.04785e-10,-0.261599,0.261599,1.93326e-10,-0.261599,0.261599,1.74811e-11,-0.261599,0.261599,-0.00247984,3.71094e-05,7.12905e-05,1.43949e-05,0,0,0,0,
-13.1398,-4.05873,26.4864,-0.436312,13.4133,-3.54711,25.5279,0.00586062,-9.36804,-3.63291,19.6753,4.94236e-05,9.21758,-3.14239,21.0189,-0.351771,-13.1631,-3.22341,25.1167,0.0107986,13.4072,-3.48732,25.734,-0.000218167,-9.34094,-2.88712,19.7881,-0.000358074,9.22672,-2.38353,19.833,-8.06791e-05,0.0219238,-0.257392,0.220414,-0.0223433,-0.257424,0.220323,0.0155853,-0.258016,0.230241,-0.0153618,-0.258856,0.229368,1.95619e-10,-0.264599,0.264599,-3.02083e-10,-0.264599,0.264599,1.91612e-10,-0.264599,0.264599,1.73261e-11,-0.264599,0.264599,0.0969583,-0.00130236,-1.0983e-05,0.0781712,0,0,0,0,
-13.1382,-3.81772,25.9624,-0.000453183,13.3954,-4.03691,26.533,-0.440821,-9.36425,-3.65491,20.5233,-0.383359,9.22237,-2.9496,20.5944,-0.000590806,-13.1282,-3.72955,26.1414,-0.439908,13.4138,-3.20951,25.165,0.0059969,-9.38023,-2.91007,19.3446,7.78971e-05,9.2264,-2.82504,20.6792,-0.355791,0.0219035,-0.260373,0.223457,-0.0223429,-0.260396,0.223341,0.0156049,-0.260958,0.233215,-0.0153761,-0.261825,0.232411,1.9387e-10,-0.267599,0.267599,-2.99381e-10,-0.267599,0.267599,1.89898e-10,-0.267599,0.267599,1.71712e-11,-0.267599,0.267599,0.000100707,0.0979602,0.0851909,0.00013129,0,0,0,0,
-13.1447,-3.49638,25.416,0.0117437,13.4014,-3.74835,26.0128,-0.000184238,-9.36657,-3.16184,19.6731,-0.000391801,9.24301,-2.70013,20.9994,-5.96159e-05,-13.132,-3.44218,25.6318,-0.000469689,13.39,-3.65931,26.1995,-0.441618,-9.37684,-3.07159,19.7842,-0.384711,9.23019,-2.60358,19.8108,-0.000606735,0.0218919,-0.263464,0.226529,-0.0223362,-0.263465,0.22637,0.0156249,-0.264096,0.23628,-0.0153903,-0.264869,0.235444,1.9212e-10,-0.270599,0.270599,-2.96679e-10,-0.270599,0.270599,1.88185e-10,-0.270599,0.270599,1.70162e-11,-0.270599,0.270599,-0.0026097,4.09418e-05,8.70668e-05,1.3248e-05,0,0,0,0,
-13.1196,-3.91869,26.4662,-0.433217,13.3986,-3.40122,25.4954,0.0081573,-9.40306,-3.15293,19.7884,7.53414e-05,9.24575,-3.10781,21.1178,-0.354665,-13.1422,-3.08705,25.0945,0.0131076,13.3929,-3.34187,25.7005,-0.000186908,-9.37621,-3.06408,19.902,-0.000397509,9.25543,-2.34939,19.9232,-4.36429e-05,0.0218847,-0.266563,0.229468,-0.0223238,-0.266615,0.229412,0.0156444,-0.267107,0.239106,-0.0154088,-0.267885,0.238275,1.9037e-10,-0.273599,0.273599,-2.93977e-10,-0.273599,0.273599,1.86471e-10,-0.273599,0.273599,1.68612e-11,-0.273599,0.273599,0.0962704,-0.00181273,-1.67425e-05,0.0788144,0,0,0,0,
-13.1405,-3.26609,25.404,0.0146106,13.3801,-3.52328,26.0253,-0.000136195,-9.38432,-3.30864,20.3241,-0.00035326,9.27288,-2.60961,20.343,-6.25396e-05,-13.1291,-3.20941,25.6191,-0.000395473,13.3679,-3.43746,26.211,-0.432255,-9.39471,-3.16771,20.4114,-0.381618,9.2604,-2.51302,20.4693,-0.000576911,0.0218843,-0.269825,0.23256,-0.0223031,-0.269815,0.232368,0.015657,-0.270219,0.241925,-0.0154346,-0.271018,0.241188,1.88621e-10,-0.276599,0.276599,-2.91275e-10,-0.276599,0.276599,1.84757e-10,-0.276599,0.276599,1.67063e-11,-0.276599,0.276599,-0.0032468,3.02656e-05,7.85023e-05,1.38977e-05,0,0,0,0,
-13.1214,-3.64605,26.47,-0.421045,13.3703,-3.14267,25.5382,0.0120171,-9.42114,-3.02613,20.0314,8.28564e-05,9.27752,-3.01159,21.3692,-0.353598,-13.1415,-2.8166,25.1002,0.0165323,13.3661,-3.08043,25.743,-7.47658e-05,-9.39268,-2.93747,20.1488,-0.000321899,9.29124,-2.24972,20.1645,-4.09595e-05,0.0218844,-0.273001,0.235468,-0.0222807,-0.273033,0.235355,0.0156728,-0.273316,0.244725,-0.0154626,-0.274046,0.243894,1.86871e-10,-0.279599,0.279599,-2.88573e-10,-0.279599,0.279599,1.83043e-10,-0.279599,0.279599,1.65513e-11,-0.279599,0.279599,0.0935657,-0.00267048,-1.84125e-05,0.0785773,0,0,0,0,
-13.1406,-2.96855,25.4213,0.0184057,13.3505,-3.2344,26.0819,-1.35308e-05,-9.40333,-3.16188,20.5962,-0.000317231,9.30892,-2.48781,20.6107,-4.41643e-05,-13.1312,-2.908,25.6355,-0.00026783,13.3388,-3.15182,26.2664,-0.419364,-9.41378,-3.02446,20.6872,-0.378071,9.29501,-2.39254,20.7423,-0.000525196,0.0218871,-0.276312,0.238536,-0.0222542,-0.27628,0.238278,0.0156888,-0.276449,0.247477,-0.0154924,-0.277205,0.246739,1.85121e-10,-0.282599,0.282599,-2.85871e-10,-0.282599,0.282599,1.81329e-10,-0.282599,0.282599,1.63963e-11,-0.282599,0.282599,-0.00409016,3.00685e-06,7.04958e-05,9.8143e-06,0,0,0,0,
-13.1385,-2.86518,25.4676,0.0203607,13.3372,-3.13315,26.1434,0.016285,-9.41394,-3.12451,20.7616,-0.000297086,9.32703,-2.46139,20.771,-4.3846e-05,-13.1291,-2.80376,25.6832,-0.000258532,13.3258,-3.05197,26.3293,4.23526e-05,-9.42417,-2.98936,20.856,-0.37866,9.31284,-2.36765,20.9068,-0.000525312,0.0218845,-0.279483,0.24145,-0.0222316,-0.279445,0.241165,0.0157061,-0.279508,0.250193,-0.015522,-0.280244,0.249457,1.83372e-10,-0.285598,0.285598,-2.83169e-10,-0.285598,0.285598,1.79615e-10,-0.285598,0.285598,1.62413e-11,-0.285598,0.285598,-0.00452459,-0.00361888,6.60192e-05,9.74356e-06,0,0,0,0,
-13.124,-2.9701,25.9745,-0.000165326,13.3128,-3.21822,26.6255,-0.406347,-9.43705,-3.23206,21.2808,-0.373971,9.32895,-2.62032,21.3255,-0.000496577,-13.1154,-2.88999,26.1495,-0.403998,13.3285,-2.39454,25.2581,0.0179937,-9.4566,-2.47783,20.0744,6.0443e-05,9.3306,-2.50367,21.4196,-0.352523,0.0218762,-0.282729,0.244446,-0.0222089,-0.282718,0.244202,0.0157283,-0.282662,0.253032,-0.01555,-0.283354,0.252255,1.81622e-10,-0.288598,0.288598,-2.80468e-10,-0.288598,0.288598,1.77901e-10,-0.288598,0.288598,1.60864e-11,-0.288598,0.288598,3.67392e-05,0.0902994,0.0831046,0.000110351,0,0,0,0,
-13.1247,-3.09284,25.4327,0.0228874,13.3153,-2.88391,25.5495,8.9979e-05,-9.47019,-2.7417,20.4806,-0.000270469,9.36043,-2.77734,20.9587,-0.349594,-13.1169,-2.26544,25.647,-0.000169516,13.3127,-2.80331,25.7545,-0.405432,-9.4402,-2.65199,20.6077,-0.376849,9.34675,-2.00953,21.0991,-6.92542e-05,0.0218655,-0.285948,0.247506,-0.0221897,-0.285883,0.247316,0.0157509,-0.285796,0.255938,-0.0155789,-0.286449,0.255121,1.79872e-10,-0.291598,0.291598,-2.77766e-10,-0.291598,0.291598,1.76188e-10,-0.291598,0.291598,1.59314e-11,-0.291598,0.291598,-0.0050861,-1.99953e-05,6.01041e-05,0.0776877,0,0,0,0,
-13.0989,-3.07205,26.4772,-0.397529,13.3062,-3.02945,25.5804,0.0201258,-9.48441,-3.12924,20.5729,-0.372329,9.36063,-2.77751,21.9018,-0.351903,-13.1161,-2.24404,25.1105,0.0239658,13.3034,-2.20642,25.7868,0.00012738,-9.45385,-2.37294,20.7039,9.01142e-05,9.36334,-2.00917,20.6803,-6.57762e-05,0.0218505,-0.288995,0.250444,-0.0221728,-0.289061,0.250261,0.015774,-0.288837,0.258755,-0.0156044,-0.289441,0.257965,1.78123e-10,-0.294598,0.294598,-2.75064e-10,-0.294598,0.294598,1.74474e-10,-0.294598,0.294598,1.57764e-11,-0.294598,0.294598,0.0883399,-0.0044724,0.0827398,0.0782006,0,0,0,0,
-13.0959,-2.80207,25.9723,-0.000145607,13.285,-3.03066,26.6049,-0.401475,-9.47836,-3.13028,21.4824,-0.374473,9.37471,-2.54366,21.489,-0.000488919,-13.087,-2.72127,26.1485,-0.400185,13.3,-2.20702,25.2375,0.0207903,-9.49842,-2.37342,20.2699,3.94271e-05,9.37858,-2.42774,21.5892,-0.35452,0.0218312,-0.292052,0.253445,-0.02216,-0.292071,0.253224,0.0157964,-0.29184,0.26165,-0.0156295,-0.292487,0.260928,1.76373e-10,-0.297598,0.297598,-2.72362e-10,-0.297598,0.297598,1.7276e-10,-0.297598,0.297598,1.56214e-11,-0.297598,0.297598,3.23571e-05,0.0892167,0.0832161,0.000108649,0,0,0,0,
-13.0913,-2.54846,25.409,0.0245753,13.2897,-2.78145,26.0609,0.000117981,-9.48084,-2.92245,21.0488,-0.000284013,9.4061,-2.30539,20.9986,-4.50876e-05,-13.0845,-2.47955,25.6251,-0.000197311,13.2785,-2.69878,26.2469,-0.405135,-9.49059,-2.78929,21.1516,-0.377396,9.39271,-2.21022,21.143,-0.000530308,0.0218132,-0.295085,0.256529,-0.022148,-0.295093,0.256273,0.0158178,-0.29487,0.264644,-0.0156547,-0.295529,0.263994,1.74623e-10,-0.300598,0.300598,-2.6966e-10,-0.300598,0.300598,1.71046e-10,-0.300598,0.300598,1.54665e-11,-0.300598,0.300598,-0.00546117,-2.6218e-05,6.3114e-05,1.00195e-05,0,0,0,0,
-13.0646,-3.07086,26.4085,-0.403086,13.2839,-2.54276,25.4762,0.0203119,-9.52365,-2.68099,20.5512,4.20515e-05,9.4069,-2.74856,21.842,-0.355174,-13.0823,-2.24298,25.0405,0.0243725,13.2811,-2.46971,25.6836,4.97728e-05,-9.4943,-2.59079,20.6842,-0.000291588,9.41858,-1.98151,20.621,-6.01013e-05,0.0217936,-0.298033,0.259537,-0.0221358,-0.298107,0.259411,0.0158407,-0.297911,0.267746,-0.015677,-0.298508,0.267021,1.72873e-10,-0.303598,0.303598,-2.66958e-10,-0.303598,0.303598,1.69332e-10,-0.303598,0.303598,1.53115e-11,-0.303598,0.303598,0.0895746,-0.00451377,-9.34478e-06,0.0789275,0,0,0,0,
-13.0721,-2.58666,25.29,0.0235321,13.2715,-2.80533,25.9243,8.66208e-05,-9.50593,-2.89774,20.9248,-0.000267583,9.43141,-2.29728,20.8518,-3.54938e-05,-13.0645,-2.51715,25.5057,-0.000222381,13.2606,-2.7191,26.11,-0.409743,-9.51503,-2.76241,21.0273,-0.378433,9.41849,-2.2,20.9944,-0.000557206,0.0217788,-0.301046,0.262723,-0.0221198,-0.301079,0.262498,0.0158588,-0.300928,0.270834,-0.0157,-0.30156,0.270226,1.71124e-10,-0.306598,0.306598,-2.64256e-10,-0.306598,0.306598,1.67618e-10,-0.306598,0.306598,1.51565e-11,-0.306598,0.306598,-0.00522936,-1.92491e-05,5.94628e-05,7.88751e-06,0,0,0,0,
-13.0641,-2.68398,25.2882,0.0230166,13.2636,-2.90154,25.9238,-2.95646e-05,-9.5141,-2.95524,20.9061,-0.000348126,9.44636,-2.36211,20.8248,-3.01894e-05,-13.0557,-2.61619,25.5053,-0.000288843,13.2528,-2.81369,26.1108,-0.417173,-9.52306,-2.81924,21.01,-0.383098,9.43485,-2.26615,20.9683,-0.000621027,0.0217644,-0.303888,0.265725,-0.022106,-0.303928,0.265504,0.0158731,-0.303835,0.273863,-0.0157248,-0.304456,0.27327,1.69374e-10,-0.309598,0.309598,-2.61554e-10,-0.309598,0.309598,1.65904e-10,-0.309598,0.309598,1.50016e-11,-0.309598,0.309598,-0.0051148,6.56992e-06,7.73613e-05,6.70875e-06,0,0,0,0,
-13.0501,-2.98676,26.3124,-0.000334247,13.242,-3.18216,26.3824,-0.419124,-9.53286,-3.14392,21.2539,-0.382059,9.44811,-2.6018,21.2086,-0.000627954,-13.0412,-2.89774,24.9389,-0.419368,13.2576,-2.36024,25.0116,0.0186631,-9.55161,-2.39119,20.0438,6.11949e-05,9.44786,-2.48031,21.31,-0.36438,0.0217534,-0.306793,0.268713,-0.022089,-0.306863,0.268602,0.0158907,-0.306838,0.276998,-0.0157457,-0.307418,0.276366,1.67624e-10,-0.312598,0.312598,-2.58852e-10,-0.312598,0.312598,1.64191e-10,-0.312598,0.312598,1.48466e-11,-0.312598,0.312598,7.42771e-05,0.0931386,0.084902,0.000139545,0,0,0,0,
-13.0565,-2.78133,25.2159,0.0220674,13.2416,-3.00194,25.8642,-8.6133e-05,-9.53286,-2.94992,20.7652,-0.000365239,9.47101,-2.37727,20.6784,-5.78058e-05,-13.0472,-2.71565,25.4336,-0.000377111,13.231,-2.91217,26.053,-0.426401,-9.54119,-2.81258,20.8681,-0.385165,9.4579,-2.28097,20.8197,-0.000651771,0.0217481,-0.309719,0.271854,-0.0220718,-0.309758,0.271616,0.015903,-0.309831,0.280095,-0.0157683,-0.310419,0.279516,1.65875e-10,-0.315598,0.315598,-2.5615e-10,-0.315598,0.315598,1.62477e-10,-0.315598,0.315598,1.46916e-11,-0.315598,0.315598,-0.00490388,1.91407e-05,8.11643e-05,1.28457e-05,0,0,0,0,
-13.0347,-3.31302,26.2377,-0.426067,13.2206,-2.78307,25.3132,0.0183048,-9.55017,-2.71663,20.269,9.2357e-05,9.47324,-2.82493,21.5306,-0.366012,-13.0537,-2.48799,24.8631,0.0219859,13.2369,-2.71396,25.5225,-0.00015349,-9.56791,-2.62508,20.3988,-0.000372421,9.48234,-2.06416,20.3119,-4.65068e-05,0.0217413,-0.312625,0.274835,-0.0220547,-0.312711,0.274693,0.0159187,-0.312857,0.283223,-0.0157875,-0.313378,0.282548,1.64125e-10,-0.318598,0.318598,-2.53448e-10,-0.318598,0.318598,1.60763e-10,-0.318598,0.318598,1.45366e-11,-0.318598,0.318598,0.0946815,-0.00406774,-2.05238e-05,0.0813359,0,0,0,0,
-13.0407,-3.08944,25.7027,-0.000427344,13.2104,-3.2899,26.3404,-0.431005,-9.55927,-3.14378,21.1399,-0.386253,9.48056,-2.63669,21.0913,-0.000712978,-13.0318,-2.99873,25.8842,-0.430758,13.2274,-2.47015,24.9645,0.0184625,-9.57734,-2.39413,19.929,4.38392e-05,9.48398,-2.51274,21.1924,-0.370525,0.0217365,-0.315592,0.277883,-0.0220375,-0.315649,0.277672,0.015934,-0.315825,0.286207,-0.0158051,-0.31635,0.285581,1.62375e-10,-0.321598,0.321598,-2.50746e-10,-0.321598,0.321598,1.59049e-10,-0.321598,0.321598,1.43817e-11,-0.321598,0.321598,9.49653e-05,0.0957788,0.085834,0.00015844,0,0,0,0,
-13.0461,-2.81182,25.1315,0.0219441,13.2164,-3.03958,25.8045,0.0184801,-9.55955,-2.94821,20.7216,-0.000406377,9.50514,-2.40736,20.6308,-0.368169,-13.0368,-2.74854,25.3501,-0.000460548,13.2116,-2.94924,25.9953,-0.000154007,-9.56735,-2.81002,20.8251,-0.389653,9.49325,-2.31185,20.772,-5.47186e-05,0.021731,-0.318632,0.280987,-0.0220221,-0.31866,0.280708,0.0159467,-0.318829,0.289201,-0.0158258,-0.319364,0.288626,1.60626e-10,-0.324598,0.324598,-2.48044e-10,-0.324598,0.324598,1.57335e-10,-0.324598,0.324598,1.42267e-11,-0.324598,0.324598,-0.00487647,-0.00410669,9.0306e-05,0.0818153,0,0,0,0,
-13.0313,-2.99787,25.6211,-0.000443965,13.1924,-3.19762,26.2676,-0.429575,-9.57628,-3.08361,21.1535,-0.386395,9.50756,-2.594,21.097,-0.000725487,-13.0224,-2.90747,25.8017,-0.429337,13.2086,-2.38044,24.8925,0.0191699,-9.59406,-2.33444,19.9399,4.345e-05,9.50761,-2.47013,21.1984,-0.371697,0.0217223,-0.32172,0.284025,-0.0220057,-0.321777,0.283796,0.0159628,-0.321914,0.29221,-0.0158449,-0.32241,0.291594,1.58876e-10,-0.327598,0.327598,-2.45342e-10,-0.327598,0.327598,1.55621e-10,-0.327598,0.327598,1.40717e-11,-0.327598,0.327598,9.86589e-05,0.0954612,0.0858655,0.000161219,0,0,0,0,
-13.0345,-2.9724,25.0755,0.0232035,13.1941,-2.89824,26.2996,-0.430206,-9.57817,-2.86103,20.7825,-0.000418938,9.51866,-2.33558,21.1807,-3.53382e-05,-13.0262,-2.88245,25.2928,-0.000423039,13.1838,-2.80869,24.9222,0.0202567,-9.58574,-2.72374,20.886,-0.388735,9.5185,-2.23998,21.2841,-0.000735646,0.0217141,-0.324753,0.287093,-0.0219914,-0.324873,0.28675,0.0159775,-0.324965,0.295125,-0.0158631,-0.325473,0.294463,1.57126e-10,-0.330598,0.330598,-2.4264e-10,-0.330598,0.330598,1.53907e-10,-0.330598,0.330598,1.39168e-11,-0.330598,0.330598,-0.00515634,0.0956014,9.30973e-05,7.85294e-06,0,0,0,0,
-13.0203,-2.82585,25.5887,-0.423615,13.1749,-3.0179,25.216,0.0211233,-9.61418,-2.98104,20.4059,-0.38497,9.53101,-2.50066,21.1906,-0.370856,-13.0117,-2.73641,25.7682,0.0244092,13.1901,-2.20296,25.4254,-0.000155643,-9.58793,-2.23084,20.538,5.47509e-05,9.54072,-2.37759,21.2924,-3.37308e-05,0.0217036,-0.327992,0.29009,-0.0219766,-0.32806,0.289864,0.0159953,-0.328085,0.298047,-0.0158838,-0.328561,0.297462,1.55376e-10,-0.333598,0.333598,-2.39938e-10,-0.333598,0.333598,1.52194e-10,-0.333598,0.333598,1.37618e-11,-0.333598,0.333598,0.0941366,-0.00469406,0.0855488,0.0824124,0,0,0,0,
-13.0204,-2.78,25.0573,-0.000386105,13.1776,-2.96872,25.7248,-0.423066,-9.59767,-2.76251,20.9416,-0.3881,9.54277,-2.24588,20.8172,-0.000706042,-13.0131,-2.69133,25.274,-0.423529,13.1674,-2.15366,25.9133,0.0224889,-9.60511,-2.62695,21.0471,5.53531e-05,9.54465,-2.15033,20.9611,-0.374261,0.0216918,-0.331063,0.293132,-0.021964,-0.331137,0.292856,0.0160092,-0.331129,0.300881,-0.0159064,-0.331622,0.300352,1.53627e-10,-0.336598,0.336598,-2.37236e-10,-0.336598,0.336598,1.5048e-10,-0.336598,0.336598,1.36068e-11,-0.336598,0.336598,8.58012e-05,0.0940147,0.0862444,0.000156898,0,0,0,0,
-12.9972,-2.89808,26.1293,-0.41673,13.1731,-2.35709,25.2093,0.0236874,-9.63581,-2.48826,20.588,3.62032e-05,9.55763,-2.64586,21.8236,-0.370804,-13.0138,-2.07995,24.754,0.0268962,13.1698,-2.28499,25.4183,-3.6089e-05,-9.6088,-2.39755,20.7238,-0.000424961,9.56792,-1.88376,20.5871,-4.73312e-05,0.0216797,-0.33426,0.29604,-0.0219503,-0.334368,0.295885,0.01603,-0.334214,0.303746,-0.0159281,-0.334654,0.303137,1.51877e-10,-0.339598,0.339598,-2.34534e-10,-0.339598,0.339598,1.48766e-10,-0.339598,0.339598,1.34518e-11,-0.339598,0.339598,0.0926067,-0.00526387,-8.04516e-06,0.0824009,0,0,0,0,
-12.9962,-2.57117,25.6402,-0.000321167,13.1533,-2.75346,26.2695,-0.415292,-9.62798,-2.86265,21.585,-0.386293,9.57074,-2.3978,21.4813,-0.000697661,-12.9875,-2.4842,25.8205,-0.416187,13.1677,-1.93981,24.894,0.0251441,-9.6475,-2.10928,20.3534,5.18234e-05,9.57056,-2.27754,21.5889,-0.373179,0.0216643,-0.337405,0.299007,-0.0219389,-0.337493,0.298803,0.0160488,-0.337272,0.306529,-0.0159498,-0.33772,0.305978,1.50127e-10,-0.342598,0.342598,-2.31832e-10,-0.342598,0.342598,1.47052e-10,-0.342598,0.342598,1.32969e-11,-0.342598,0.342598,7.13703e-05,0.0922872,0.0858428,0.000155036,0,0,0,0,
-12.9949,-2.22404,25.091,0.0292648,13.1544,-2.13551,25.7481,0.0260194,-9.63191,-2.61855,21.2287,8.62659e-05,9.59467,-2.12128,21.0772,-0.369013,-12.9883,-2.15464,25.3096,-0.000317208,13.1443,-2.06049,25.9374,-3.99936e-07,-9.63934,-2.48613,21.3398,-0.000373954,9.58034,-2.02704,21.2278,-2.95626e-05,0.0216509,-0.340586,0.302063,-0.021925,-0.340739,0.301807,0.0160665,-0.340362,0.30939,-0.0159722,-0.340823,0.308899,1.48378e-10,-0.345598,0.345598,-2.2913e-10,-0.345598,0.345598,1.45338e-10,-0.345598,0.345598,1.31419e-11,-0.345598,0.345598,-0.00650328,-0.00578208,-1.91702e-05,0.082003,0,0,0,0,
-12.98,-2.36671,25.5813,-0.408837,13.1336,-2.54511,26.2063,-0.407755,-9.65187,-2.75082,21.7142,-0.384905,9.59692,-2.29829,21.5965,-0.000668295,-12.9718,-2.27982,25.7606,0.0301573,13.1469,-1.7328,24.8339,0.0268829,-9.67172,-1.99547,20.4778,6.86532e-05,9.59447,-2.17817,21.7064,-0.372502,0.0216364,-0.343753,0.305091,-0.0219075,-0.34385,0.304893,0.0160882,-0.343474,0.31231,-0.0159935,-0.343898,0.311778,1.46628e-10,-0.348598,0.348598,-2.26428e-10,-0.348598,0.348598,1.43624e-10,-0.348598,0.348598,1.29869e-11,-0.348598,0.348598,0.0908527,0.0906123,0.0855344,0.00014851,0,0,0,0,
-12.9715,-2.34612,25.6009,-0.000250029,13.1236,-2.52392,26.2272,-0.409002,-9.6635,-2.76134,21.8105,-0.388154,9.60926,-2.3165,21.6875,-0.000683646,-12.9633,-2.25875,25.7808,-0.410099,13.1372,-1.71151,24.8527,0.0276949,-9.68397,-2.00526,20.5701,4.16912e-05,9.60859,-2.1971,21.8006,-0.376246,0.021622,-0.346798,0.308062,-0.0218908,-0.346895,0.307863,0.0161075,-0.346458,0.315144,-0.0160163,-0.346869,0.314619,1.44878e-10,-0.351598,0.351598,-2.23727e-10,-0.351598,0.351598,1.4191e-10,-0.351598,0.351598,1.2832e-11,-0.351598,0.351598,5.55621e-05,0.0908893,0.0862565,0.000151921,0,0,0,0,
-12.9556,-2.51319,26.0615,-0.405923,13.125,-1.96684,25.1377,0.0280792,-9.69522,-2.27164,20.9027,5.54861e-05,9.62163,-2.46803,22.1272,-0.373148,-12.9702,-1.69767,24.6881,0.0312476,13.123,-1.88895,25.3465,6.34408e-05,-9.66756,-2.18061,21.0476,-0.000369769,9.63484,-1.70272,20.8785,-1.9864e-05,0.021609,-0.349925,0.311137,-0.0218732,-0.35005,0.310993,0.0161282,-0.34958,0.318174,-0.0160381,-0.34996,0.317607,1.43129e-10,-0.354598,0.354598,-2.21025e-10,-0.354598,0.354598,1.40197e-10,-0.354598,0.354598,1.2677e-11,-0.354598,0.354598,0.0902052,-0.00623982,-1.23302e-05,0.0829217,0,0,0,0,
-12.9564,-2.26285,25.5526,-0.000251047,13.1017,-2.43762,26.1821,-0.408339,-9.68587,-2.67943,21.3602,-0.000360879,9.63711,-2.24507,21.7027,-0.00069982,-12.9482,-2.17396,25.7324,-0.409499,13.1151,-1.62554,24.8074,0.0287609,-9.70598,-1.92299,21.4754,-0.387746,9.63357,-2.12525,21.8171,-0.376461,0.0215965,-0.352958,0.314145,-0.0218545,-0.353059,0.313943,0.0161459,-0.352599,0.321143,-0.0160606,-0.352992,0.320575,1.41379e-10,-0.357598,0.357598,-2.18323e-10,-0.357598,0.357598,1.38483e-10,-0.357598,0.357598,1.2522e-11,-0.357598,0.357598,5.57883e-05,0.0907421,8.01954e-05,0.000155516,0,0,0,0,
-12.9406,-2.47366,26.0095,-0.407832,13.1031,-1.92536,25.0891,0.0286542,-9.71578,-2.2206,20.9034,3.99108e-05,9.64805,-2.42582,22.1206,-0.37479,-12.9549,-1.65846,24.6357,0.0317309,13.1011,-1.84618,25.2984,3.89883e-05,-9.68864,-2.1285,21.0492,-0.000384349,9.66237,-1.66071,20.8704,-1.43491e-05,0.0215838,-0.356009,0.31722,-0.0218367,-0.356139,0.31707,0.0161636,-0.35568,0.324161,-0.0160846,-0.356043,0.323608,1.39629e-10,-0.360598,0.360598,-2.15621e-10,-0.360598,0.360598,1.36769e-10,-0.360598,0.360598,1.2367e-11,-0.360598,0.360598,0.0906294,-0.0063676,-8.86906e-06,0.0832867,0,0,0,0,
-12.9328,-2.52041,26.0238,-0.41286,13.094,-1.97154,25.1022,0.0288552,-9.72663,-2.25428,20.931,7.1459e-05,9.66117,-2.46739,22.1487,-0.379237,-12.9477,-1.70531,24.6474,0.0318833,13.0914,-1.89395,25.3134,-1.90863e-05,-9.69929,-2.1636,21.0789,-0.000419407,9.67524,-1.70224,20.8962,-4.29913e-05,0.0215707,-0.358931,0.320193,-0.0218206,-0.359063,0.32004,0.0161805,-0.358621,0.327103,-0.0161057,-0.358973,0.326555,1.37879e-10,-0.363597,0.363597,-2.12919e-10,-0.363597,0.363597,1.35055e-10,-0.363597,0.363597,1.22121e-11,-0.363597,0.363597,0.0917467,-0.00641227,-1.58798e-05,0.084275,0,0,0,0,
-12.9392,-2.01433,24.913,0.031513,13.0804,-2.20155,25.5792,-3.70442e-05,-9.71026,-2.44942,21.3481,-0.000404858,9.6865,-1.99634,21.1639,-2.09436e-05,-12.9338,-1.94043,25.1321,-0.00034338,13.0705,-2.11098,25.7694,-0.416699,-9.71707,-2.31633,21.4663,-0.39337,9.6758,-1.90177,21.3214,-0.000763917,0.0215591,-0.36199,0.323351,-0.021802,-0.362069,0.323082,0.0161968,-0.361661,0.33014,-0.0161263,-0.362049,0.329697,1.3613e-10,-0.366597,0.366597,-2.10217e-10,-0.366597,0.366597,1.33341e-10,-0.366597,0.366597,1.20571e-11,-0.366597,0.366597,-0.00700289,8.23204e-06,8.99684e-05,4.65413e-06,0,0,0,0,
-12.9262,-2.25139,25.3944,-0.000339369,13.0599,-2.42048,26.0313,-0.415479,-9.72732,-2.60626,21.7324,-0.39075,9.68782,-2.19727,21.5847,-0.000754082,-12.918,-2.15858,25.5753,-0.416686,13.073,-1.61069,24.656,0.0286873,-9.74637,-1.8522,20.4906,5.64025e-05,9.68423,-2.07445,21.7004,-0.380747,0.0215462,-0.364993,0.326398,-0.0217842,-0.365099,0.326184,0.016215,-0.364729,0.333241,-0.0161451,-0.365083,0.332754,1.3438e-10,-0.369597,0.369597,-2.07515e-10,-0.369597,0.369597,1.31627e-10,-0.369597,0.369597,1.19021e-11,-0.369597,0.369597,7.54153e-05,0.0923287,0.0868333,0.000167574,0,0,0,0,
-12.924,-2.02377,24.8281,0.0311468,13.0605,-2.20883,25.4946,-7.63404e-05,-9.73023,-2.42632,21.7609,-0.000441938,9.70919,-1.98376,21.0906,-1.62927e-05,-12.9188,-1.94983,25.047,-0.000381488,13.0506,-2.11627,25.6851,-0.420984,-9.73684,-2.29203,20.516,-0.39536,9.6991,-1.8883,21.2468,-0.000795316,0.0215342,-0.367979,0.329494,-0.0217684,-0.368061,0.329224,0.0162301,-0.367708,0.336199,-0.0161651,-0.368079,0.335827,1.3263e-10,-0.372597,0.372597,-2.04813e-10,-0.372597,0.372597,1.29913e-10,-0.372597,0.372597,1.17472e-11,-0.372597,0.372597,-0.00692151,1.69645e-05,9.82084e-05,3.6206e-06,0,0,0,0,
-12.9156,-2.06861,25.8608,0.0313937,13.0535,-2.25337,25.5106,-9.91806e-05,-9.73877,-2.45485,21.3054,-0.000487771,9.72125,-2.01736,21.1084,-1.25983e-05,-12.9101,-1.99642,24.4834,-0.000434292,13.0434,-2.16063,25.7028,-0.42586,-9.74554,-2.32099,21.4254,-0.399061,9.71061,-1.92342,21.2666,-0.000826613,0.0215209,-0.370895,0.332469,-0.021755,-0.37098,0.332198,0.0162452,-0.370651,0.339216,-0.0161843,-0.371013,0.338793,1.30881e-10,-0.375597,0.375597,-2.02111e-10,-0.375597,0.375597,1.282e-10,-0.375597,0.375597,1.15922e-11,-0.375597,0.375597,-0.00697638,2.20401e-05,0.000108393,2.79963e-06,0,0,0,0,
-12.9027,-2.2898,25.338,-0.00042363,13.0336,-2.45077,25.9738,-0.423672,-9.75671,-2.60493,21.717,-0.396383,9.72085,-2.21344,21.5548,-0.000823717,-12.8945,-2.19525,25.5212,-0.425204,13.0472,-1.64316,24.595,0.0288833,-9.77564,-1.8522,20.4716,6.60608e-05,9.71722,-2.08953,21.6725,-0.387346,0.0215069,-0.373919,0.335497,-0.02174,-0.374034,0.335287,0.0162639,-0.373723,0.342279,-0.0162002,-0.37405,0.341813,1.29131e-10,-0.378597,0.378597,-1.99409e-10,-0.378597,0.378597,1.26486e-10,-0.378597,0.378597,1.14372e-11,-0.378597,0.378597,9.414e-05,0.0941492,0.088085,0.000183048,0,0,0,0,
-12.9002,-2.02265,24.774,0.0316932,13.0354,-2.20326,25.4398,-0.000137924,-9.75872,-2.404,21.2888,-0.000471809,9.74213,-1.97832,21.0838,-6.97835e-06,-12.8947,-1.95016,24.9944,-0.000434931,13.0257,-2.11002,25.632,-0.427155,-9.76501,-2.26937,21.4086,-0.400106,9.7321,-1.88369,21.2417,-0.000856625,0.0214939,-0.376962,0.338583,-0.0217267,-0.377052,0.338317,0.0162773,-0.376737,0.34526,-0.0162201,-0.377079,0.344848,1.27381e-10,-0.381597,0.381597,-1.96707e-10,-0.381597,0.381597,1.24772e-10,-0.381597,0.381597,1.12822e-11,-0.381597,0.381597,-0.00704294,3.06497e-05,0.000104846,1.55074e-06,0,0,0,0,
-12.8879,-2.20713,25.2627,-0.000442678,13.0156,-2.36551,25.8998,-0.423132,-9.77402,-2.5448,21.7296,-0.397237,9.74413,-2.16213,21.559,-0.000828718,-12.8796,-2.11242,25.4454,-0.424819,13.0287,-1.56027,24.5215,0.0294434,-9.7926,-1.79284,20.4816,4.41369e-05,9.74127,-2.03796,21.6766,-0.388711,0.0214817,-0.38004,0.341621,-0.0217103,-0.380159,0.341409,0.0162933,-0.379817,0.348272,-0.0162391,-0.380128,0.347818,1.25632e-10,-0.384597,0.384597,-1.94005e-10,-0.384597,0.384597,1.23058e-10,-0.384597,0.384597,1.11273e-11,-0.384597,0.384597,9.8373e-05,0.0940293,0.0882749,0.000184159,0,0,0,0,
-12.8856,-1.91189,24.7063,0.0324457,13.0159,-2.08888,25.3737,-0.000103656,-9.77584,-2.33104,21.3292,-0.000483443,9.76627,-1.91141,21.1142,-1.86804e-05,-12.881,-1.83863,24.9256,-0.00042845,13.0061,-1.99559,25.5651,-0.425124,-9.78216,-2.19663,21.4498,-0.400583,9.75605,-1.81667,21.2726,-0.00086986,0.0214709,-0.383135,0.344701,-0.0216939,-0.38323,0.344431,0.0163064,-0.382854,0.351208,-0.0162601,-0.383186,0.350811,1.23882e-10,-0.387597,0.387597,-1.91303e-10,-0.387597,0.387597,1.21344e-10,-0.387597,0.387597,1.09723e-11,-0.387597,0.387597,-0.00721015,2.30347e-05,0.000107432,4.15119e-06,0,0,0,0,
-12.866,-2.34389,24.7388,0.0333672,13.006,-2.07247,24.8367,-0.000112033,-9.78595,-2.34121,20.9154,-0.000521985,9.77825,-1.92328,21.2033,-1.89507e-05,-12.8796,-1.53663,24.9594,-0.000426574,12.9963,-1.97978,25.0479,-0.426931,-9.79201,-2.20802,21.0649,-0.404083,9.76755,-1.83072,21.3644,-0.000904832,0.0214588,-0.386188,0.34765,-0.0216776,-0.386252,0.347493,0.0163221,-0.385831,0.354158,-0.0162793,-0.386158,0.353663,1.22132e-10,-0.390597,0.390597,-1.88601e-10,-0.390597,0.390597,1.1963e-10,-0.390597,0.390597,1.08173e-11,-0.390597,0.390597,-0.00741494,2.48962e-05,0.000115997,4.21127e-06,0,0,0,0,
-12.866,-2.05162,25.2522,-0.00039374,12.997,-2.2062,25.8922,-0.421459,-9.80236,-2.46381,21.4274,-0.400624,9.77983,-1.82591,21.7232,-0.000851852,-12.858,-1.95727,25.4355,-0.423311,12.9874,-1.40272,24.5117,0.0317968,-9.82172,-1.7103,21.5493,6.15058e-05,9.77632,-1.73126,21.8445,-0.392705,0.0214454,-0.389286,0.350647,-0.0216624,-0.389411,0.350433,0.0163402,-0.388947,0.357054,-0.0162986,-0.389323,0.356564,1.20382e-10,-0.393597,0.393597,-1.85899e-10,-0.393597,0.393597,1.17916e-10,-0.393597,0.393597,1.06623e-11,-0.393597,0.393597,8.74977e-05,0.0936575,0.0890276,0.0001893,0,0,0,0,
-12.8621,-1.73234,24.7046,0.035042,12.988,-1.90503,25.3732,-4.76033e-05,-9.80811,-2.23507,21.533,-0.000485984,9.8011,-1.82978,21.3046,-2.24829e-05,-12.8577,-1.65815,24.9249,-0.000386001,12.9786,-1.81274,25.5657,-0.42235,-9.81383,-2.10321,21.6583,-0.403657,9.79078,-1.73715,21.4681,-0.000875913,0.021432,-0.392421,0.353705,-0.0216477,-0.392521,0.353434,0.0163578,-0.392001,0.359876,-0.0163179,-0.392309,0.359495,1.18633e-10,-0.396597,0.396597,-1.83197e-10,-0.396597,0.396597,1.16203e-10,-0.396597,0.396597,1.05074e-11,-0.396597,0.396597,-0.00778711,1.05785e-05,0.000107997,4.99619e-06,0,0,0,0,
-12.849,-1.87266,25.7492,-0.418066,12.9802,-2.0267,25.8449,-0.4162,-9.8264,-2.35879,21.1246,-0.40034,9.79793,-1.9982,21.835,-0.392846,-12.8412,-1.77918,24.3691,0.0360246,12.9785,-1.22521,24.466,0.0333841,-9.84594,-1.60449,21.2799,6.32096e-05,9.81246,-1.87612,21.9588,0.00100205,0.0214174,-0.395576,0.356661,-0.0216317,-0.395703,0.356505,0.0163799,-0.395119,0.362801,-0.0163347,-0.395392,0.362377,1.16883e-10,-0.399597,0.399597,-1.80495e-10,-0.399597,0.399597,1.14489e-10,-0.399597,0.399597,1.03524e-11,-0.399597,0.399597,0.0929036,0.0924889,0.0889645,0.087299,0,0,0,0,
-12.8433,-1.54352,24.6467,0.0364866,12.9688,-1.71201,25.3135,-3.22264e-05,-9.8307,-2.11259,21.6318,-0.000470983,9.8247,-1.71886,21.3959,0.00184273,-12.84,-1.46673,24.8662,-0.000368598,12.9592,-1.62035,25.5047,-0.416288,-9.83671,-1.98146,21.7585,-0.402385,9.81343,-1.62554,21.5619,-0.000852399,0.021403,-0.398735,0.359796,-0.0216149,-0.398838,0.359527,0.0163968,-0.398202,0.365707,-0.0163559,-0.398492,0.365334,1.15133e-10,-0.402597,0.402597,-1.77793e-10,-0.402597,0.402597,1.12775e-10,-0.402597,0.402597,1.01974e-11,-0.402597,0.402597,-0.00810814,7.16141e-06,0.000104663,-0.000409495,0,0,0,0,
-12.8348,-1.9505,25.6763,0.0373253,12.959,-1.67482,25.327,-4.27913e-05,-9.86706,-2.24074,21.2106,-0.000495727,9.82365,-1.72195,22.4021,-0.391616,-12.8314,-1.14709,24.2991,-0.000325668,12.9582,-1.58313,25.5193,-0.4169,-9.8411,-1.48529,21.3676,-0.405539,9.838,-1.63016,21.1261,0.00344661,0.0213877,-0.401835,0.362775,-0.0215983,-0.401904,0.362503,0.0164157,-0.401325,0.368654,-0.0163766,-0.401489,0.368185,1.13384e-10,-0.405597,0.405597,-1.75091e-10,-0.405597,0.405597,1.11061e-10,-0.405597,0.405597,1.00425e-11,-0.405597,0.405597,-0.00829451,9.50918e-06,0.000110161,0.0870258,0,0,0,0,
-12.8222,-1.66716,25.1575,-0.000321789,12.9372,-1.81955,25.2474,-0.412008,-9.85772,-2.25726,22.2211,-0.403251,9.83993,-1.90788,22.0158,-0.000837514,-12.8144,-1.57313,25.3394,-0.413939,12.9486,-1.01951,25.4376,0.0355502,-9.87783,-1.50085,20.9499,6.28973e-05,9.83655,-1.78699,22.1443,-0.395504,0.0213717,-0.40493,0.365801,-0.0215794,-0.405059,0.365643,0.0164323,-0.404299,0.371488,-0.0163988,-0.40455,0.371073,1.11634e-10,-0.408597,0.408597,-1.72389e-10,-0.408597,0.408597,1.09347e-10,-0.408597,0.408597,9.88749e-12,-0.408597,0.408597,7.15086e-05,0.0915574,0.0896112,0.000186114,0,0,0,0,
-12.8161,-1.38466,25.6327,0.0384284,12.9367,-1.54934,25.2866,-2.31015e-07,-9.86146,-2.03994,21.8221,4.77824e-05,9.86568,-1.65503,21.5714,0.00577002,-12.8134,-1.30559,24.2554,-0.000362103,12.927,-1.45684,25.4779,-0.414665,-9.8677,-1.90969,21.9538,-0.000502195,9.85267,-1.56314,21.743,-0.000870649,0.0213581,-0.408023,0.368859,-0.021561,-0.408129,0.368583,0.0164492,-0.407335,0.374387,-0.0164217,-0.407606,0.374031,1.09884e-10,-0.411597,0.411597,-1.69688e-10,-0.411597,0.411597,1.07633e-10,-0.411597,0.411597,9.73252e-12,-0.411597,0.411597,-0.00853964,5.13367e-08,-1.06183e-05,-0.00128223,0,0,0,0,
-12.8069,-1.29603,24.555,0.0387239,12.9154,-1.45821,25.225,4.50475e-05,-9.88027,-1.95741,22.2987,-0.404666,9.87706,-1.57918,21.5546,0.00626234,-12.8047,-1.21522,24.7734,-0.0002904,12.9266,-1.3652,25.4153,-0.41163,-9.90052,-1.82683,21.0234,6.28605e-05,9.86585,-1.48539,21.725,-0.000843932,0.0213426,-0.411181,0.371963,-0.0215427,-0.411289,0.371688,0.0164698,-0.410477,0.377354,-0.0164431,-0.410739,0.377057,1.08135e-10,-0.414597,0.414597,-1.66986e-10,-0.414597,0.414597,1.05919e-10,-0.414597,0.414597,9.57755e-12,-0.414597,0.414597,-0.00860531,-1.00106e-05,0.0899259,-0.00139163,0,0,0,0,
-12.7867,-1.75796,24.5895,0.0394205,12.9159,-1.20395,25.2614,-4.56074e-06,-9.88474,-1.97709,21.354,-0.000515406,9.89023,-1.60226,21.6183,0.00743974,-12.7976,-0.955938,24.81,-0.000357064,12.9064,-1.11828,25.4537,-0.415535,-9.89071,-1.84696,21.516,-0.408589,9.87811,-1.51034,21.7922,-0.000886012,0.021327,-0.414179,0.374897,-0.0215257,-0.41434,0.374621,0.0164874,-0.413441,0.380393,-0.0164637,-0.413697,0.379938,1.06385e-10,-0.417597,0.417597,-1.64284e-10,-0.417597,0.417597,1.04206e-10,-0.417597,0.417597,9.42257e-12,-0.417597,0.417597,-0.00876011,1.0135e-06,0.000114535,-0.00165328,0,0,0,0,
-12.7856,-1.51162,25.0835,-0.00031367,12.895,-1.658,25.7239,-0.412518,-9.90359,-2.12165,22.3183,-0.405807,9.88958,-1.79085,22.0982,-0.00085743,-12.7782,-1.41575,25.2666,-0.414663,12.9058,-0.859706,24.3444,0.0374477,-9.92359,-1.36495,21.0413,5.59955e-05,9.88542,-1.6695,22.2309,-0.398427,0.0213114,-0.417205,0.377919,-0.0215081,-0.417343,0.377701,0.0165088,-0.416528,0.383307,-0.0164814,-0.416749,0.382912,1.04635e-10,-0.420597,0.420597,-1.61582e-10,-0.420597,0.420597,1.02492e-10,-0.420597,0.420597,9.2676e-12,-0.420597,0.420597,6.97044e-05,0.0916707,0.0901793,0.00019054,0,0,0,0,
-12.7776,-1.25432,24.5067,0.0396414,12.8948,-1.41326,25.1751,0.0371517,-9.90949,-1.91914,21.8696,-0.000536295,9.91129,-1.55794,21.6075,0.00827793,-12.775,-1.17365,24.727,-0.000382315,12.8858,-1.31875,25.3676,-3.07382e-05,-9.9148,-1.78872,22.0052,-0.409574,9.90067,-1.46555,21.7824,-0.000906094,0.0212938,-0.420253,0.381023,-0.0214926,-0.420367,0.380751,0.0165264,-0.419543,0.386286,-0.016501,-0.419776,0.385945,1.02885e-10,-0.423597,0.423597,-1.5888e-10,-0.423597,0.423597,1.00778e-10,-0.423597,0.423597,9.11263e-12,-0.423597,0.423597,-0.00880919,-0.00825594,0.000119177,-0.00183954,0,0,0,0,
-12.7653,-1.46097,24.9908,-0.000325727,12.8745,-1.60405,25.6298,-0.41396,-9.92514,-2.07871,22.3073,-0.407554,9.91202,-1.75915,22.0819,-0.000895482,-12.7575,-1.36367,25.1736,-0.416129,12.8851,-0.807285,24.2511,0.0374797,-9.94442,-1.32236,21.0288,5.6174e-05,9.90884,-1.63672,22.2153,-0.400946,0.0212775,-0.423296,0.38407,-0.0214736,-0.423438,0.383856,0.0165459,-0.422607,0.389326,-0.016519,-0.422809,0.388939,1.01136e-10,-0.426597,0.426597,-1.56178e-10,-0.426597,0.426597,9.90641e-11,-0.426597,0.426597,8.95766e-12,-0.426597,0.426597,7.23837e-05,0.0919911,0.0905677,0.000198996,0,0,0,0,
-12.7489,-1.66022,24.4327,0.0396869,12.8722,-1.10276,24.5306,0.0373272,-9.95269,-1.61726,21.8613,3.91136e-05,9.92288,-1.92977,21.5886,0.00899193,-12.7591,-0.861232,24.6524,-0.000396945,12.8723,-1.01532,24.7412,-7.57838e-05,-9.9278,-1.52369,21.9973,-0.000574727,9.93676,-1.16582,21.7642,-0.000931461,0.0212623,-0.42635,0.387156,-0.0214548,-0.426521,0.386999,0.0165609,-0.425687,0.392303,-0.0165416,-0.425866,0.391976,9.93861e-11,-0.429597,0.429597,-1.53476e-10,-0.429597,0.429597,9.73502e-11,-0.429597,0.429597,8.80269e-12,-0.429597,0.429597,-0.00881931,-0.00829493,-8.69191e-06,-0.00199821,0,0,0,0,
-12.7487,-1.44244,24.942,-0.419607,12.8513,-1.14223,24.5617,0.0378384,-9.96144,-1.65342,22.3136,-0.410196,9.93582,-1.96681,22.5688,-0.000918106,-12.7409,-1.34354,25.1253,0.0401841,12.862,-1.0567,24.7745,-7.56415e-05,-9.93613,-1.56181,21.0323,5.29635e-05,9.95003,-1.20275,21.2776,-0.40367,0.0212489,-0.429334,0.390162,-0.0214354,-0.429453,0.389946,0.0165746,-0.428624,0.395324,-0.0165631,-0.428803,0.394899,9.76364e-11,-0.432597,0.432597,-1.50774e-10,-0.432597,0.432597,9.56363e-11,-0.432597,0.432597,8.64772e-12,-0.432597,0.432597,0.093246,-0.00840853,0.0911547,0.000204024,0,0,0,0,
-12.7425,-1.19725,24.3952,0.0401629,12.8503,-1.34595,25.0639,-0.000113134,-9.94557,-1.84398,21.8687,-0.000569424,9.96244,-1.48702,21.5837,-0.000962154,-12.7405,-1.11645,24.6158,-0.000426127,12.841,-1.24921,25.2568,-0.421609,-9.95103,-1.71289,22.0062,-0.413882,9.9509,-1.39449,21.76,-0.40753,0.0212357,-0.432353,0.393221,-0.0214177,-0.432483,0.39295,0.016588,-0.431665,0.39829,-0.0165852,-0.43189,0.397983,9.58867e-11,-0.435597,0.435597,-1.48072e-10,-0.435597,0.435597,9.39225e-11,-0.435597,0.435597,8.49274e-12,-0.435597,0.435597,-0.00892509,2.5141e-05,0.000126539,0.000213812,0,0,0,0,
-12.7235,-1.65232,24.8914,-0.000407641,12.8308,-1.5235,25.5302,-0.41879,-9.96139,-1.99086,22.3173,-0.411364,9.96299,-1.67637,22.0686,-0.000925337,-12.7341,-0.855042,25.0753,-0.421453,12.8411,-0.729681,24.1495,0.0384318,-9.98058,-1.23556,21.0338,0.000449546,9.95896,-1.5529,22.2041,-0.405226,0.0212201,-0.435347,0.396241,-0.0214006,-0.435562,0.396028,0.0166054,-0.434745,0.401316,-0.0166039,-0.434941,0.400963,9.4137e-11,-0.438597,0.438597,-1.4537e-10,-0.438597,0.438597,9.22086e-11,-0.438597,0.438597,8.33777e-12,-0.438597,0.438597,9.05869e-05,0.0930645,0.0914142,0.000205631,0,0,0,0,
-12.7235,-1.12159,24.3261,0.0405788,12.8301,-1.26879,24.9917,0.0383774,-9.99166,-1.78047,21.8803,-0.000592794,9.98321,-1.43296,21.5893,0.0109868,-12.7218,-1.04011,24.5464,-0.0004347,12.8211,-1.17146,25.1847,-0.000117171,-9.96743,-1.64917,22.0185,-0.414969,9.9728,-1.33981,21.766,-0.000970357,0.0212051,-0.438471,0.399328,-0.0213839,-0.438603,0.399061,0.0166248,-0.437772,0.404279,-0.0166213,-0.437985,0.403982,9.23873e-11,-0.441596,0.441596,-1.42668e-10,-0.441596,0.441596,9.04948e-11,-0.441596,0.441596,8.1828e-12,-0.441596,0.441596,-0.0090175,-0.0085283,0.000131732,-0.0024415,0,0,0,0,
-12.7039,-1.5615,25.3613,-0.421126,12.8211,-1.00234,24.4365,0.0388907,-10.0021,-1.54235,21.4322,0.00210721,9.98048,-1.87111,22.6045,-0.40778,-12.7139,-0.766409,23.9804,0.0411201,12.8211,-0.915953,24.6488,-0.000110174,-9.97736,-1.45063,21.6002,-0.000634499,9.99514,-1.10775,21.3068,0.0123279,0.0211872,-0.441491,0.402304,-0.0213689,-0.441671,0.402149,0.0166414,-0.440802,0.407257,-0.0166397,-0.440957,0.406857,9.06376e-11,-0.444596,0.444596,-1.39966e-10,-0.444596,0.444596,8.87809e-11,-0.444596,0.444596,8.02783e-12,-0.444596,0.444596,0.0935836,-0.00864238,-0.000468269,0.0906179,0,0,0,0,
-12.7029,-1.29702,24.8475,-0.000438331,12.8007,-1.43,25.4878,-0.421253,-9.99448,-1.94379,22.4367,-0.416375,9.99442,-1.64565,22.1821,-0.000989426,-12.6955,-1.19743,25.0322,-0.423807,12.811,-0.638312,24.1049,0.0396855,-10.014,-1.18825,21.1452,0.00350239,9.99031,-1.52308,22.3217,-0.411271,0.0211729,-0.44455,0.405319,-0.0213502,-0.444704,0.405106,0.0166605,-0.443813,0.410132,-0.0166562,-0.443982,0.409783,8.88879e-11,-0.447596,0.447596,-1.37264e-10,-0.447596,0.447596,8.70671e-11,-0.447596,0.447596,7.87286e-12,-0.447596,0.447596,9.74069e-05,0.0936117,0.0925277,0.000219872,0,0,0,0,
-12.6955,-0.999032,24.294,0.0422298,12.7997,-0.875032,24.3915,-0.00010371,-9.99992,-1.43334,22.0043,-0.000628293,10.0165,-1.77122,21.7077,0.0141215,-12.6941,-0.917733,24.5154,-0.000416625,12.7906,-0.7876,24.6037,-0.422995,-10.005,-1.34088,22.1464,-0.418497,10.0049,-1.00807,21.889,-0.00101608,0.0211583,-0.447659,0.408384,-0.0213333,-0.447872,0.408228,0.0166777,-0.446967,0.413072,-0.0166751,-0.447106,0.412777,8.71382e-11,-0.450596,0.450596,-1.34562e-10,-0.450596,0.450596,8.53532e-11,-0.450596,0.450596,7.71788e-12,-0.450596,0.450596,-0.0093844,2.30466e-05,0.000139621,-0.0031381,0,0,0,0,
-12.6829,-1.14341,24.7807,-0.000381939,12.7807,-1.27678,24.4021,-0.417609,-10.0149,-1.82921,22.4891,-0.415224,10.0173,-1.53998,22.2322,-0.000973061,-12.6754,-1.04379,24.965,-0.420099,12.7905,-0.487092,24.6157,0.0407981,-10.0339,-1.07282,21.1942,0.005601,10.0141,-1.41729,22.3722,-0.410683,0.0211402,-0.450797,0.411418,-0.0213165,-0.45095,0.4112,0.0166952,-0.450011,0.416056,-0.0166945,-0.450163,0.415709,8.53885e-11,-0.453596,0.453596,-1.3186e-10,-0.453596,0.453596,8.36394e-11,-0.453596,0.453596,7.56291e-12,-0.453596,0.453596,8.48753e-05,0.092802,0.092272,0.000216236,0,0,0,0,
-12.6746,-0.840655,24.2088,0.0429403,12.778,-0.987895,24.8817,-7.68986e-05,-10.0199,-1.61559,22.0883,-0.000630387,10.0412,-1.29142,21.7883,0.0163776,-12.6741,-0.757069,24.4288,-0.000425631,12.7691,-0.890458,25.0745,-0.419117,-10.0249,-1.48616,22.2319,-0.419201,10.0293,-1.20002,21.9715,-0.00101197,0.0211243,-0.453925,0.414522,-0.021298,-0.454052,0.414244,0.0167108,-0.453042,0.418949,-0.0167158,-0.453213,0.418657,8.36388e-11,-0.456596,0.456596,-1.29158e-10,-0.456596,0.456596,8.19255e-11,-0.456596,0.456596,7.40794e-12,-0.456596,0.456596,-0.00954229,1.70886e-05,0.000140086,-0.00363946,0,0,0,0,
-12.6578,-1.24595,25.254,-0.000358254,12.7654,-0.690814,24.3369,0.041782,-10.0359,-1.74382,21.6484,-0.416169,10.0421,-1.45813,22.8274,-0.411906,-12.6666,-0.455166,23.8737,-0.416423,12.7659,-0.601918,24.5493,-9.07052e-05,-10.0551,-0.986794,21.8228,0.00820827,10.039,-1.33605,21.517,0.0180228,0.0211096,-0.457,0.417488,-0.0212774,-0.457178,0.41732,0.0167299,-0.456147,0.421892,-0.0167358,-0.456292,0.421499,8.18891e-11,-0.459596,0.459596,-1.26456e-10,-0.459596,0.459596,8.02116e-11,-0.459596,0.459596,7.25297e-12,-0.459596,0.459596,7.96121e-05,-0.00928488,0.0924819,0.0915347,0,0,0,0,
-12.6557,-0.682491,24.1629,0.0442218,12.7455,-0.825955,25.3881,-0.415299,-10.0418,-1.49685,22.6724,-0.418378,10.0656,-1.17634,21.859,0.0186322,-12.6485,-0.597013,24.3818,-0.000363718,12.7548,-0.728667,24.0061,0.0427713,-10.0466,-1.36825,21.3684,0.0098181,10.0545,-1.08448,22.0442,-0.000983512,0.0210938,-0.460189,0.420608,-0.0212583,-0.46032,0.420269,0.0167466,-0.459225,0.424753,-0.0167576,-0.459391,0.424526,8.01394e-11,-0.462596,0.462596,-1.23754e-10,-0.462596,0.462596,7.84978e-11,-0.462596,0.462596,7.098e-12,-0.462596,0.462596,-0.00982707,0.0922886,0.092973,-0.00414049,0,0,0,0,
-12.6379,-1.08965,25.2036,-0.41283,12.7425,-0.53343,24.2849,0.0430395,-10.0781,-1.23444,21.7256,0.010668,10.0624,-1.58918,22.9031,-0.411673,-12.646,-0.300234,23.8245,0.0450219,12.7435,-0.442437,24.4969,-1.12067e-05,-10.0536,-1.14222,21.9018,-0.000650834,10.0774,-0.823241,21.5885,0.0202524,0.0210767,-0.463264,0.423568,-0.0212396,-0.463446,0.423403,0.016768,-0.462309,0.427765,-0.0167758,-0.462423,0.427382,7.83897e-11,-0.465596,0.465596,-1.21052e-10,-0.465596,0.465596,7.67839e-11,-0.465596,0.465596,6.94303e-12,-0.465596,0.465596,0.09174,-0.00956432,-0.00237067,0.0914829,0,0,0,0,
-12.6347,-0.814897,24.6815,-0.000357299,12.7231,-0.942107,25.3224,-0.412328,-10.0705,-1.6476,22.7694,-0.419601,10.0777,-1.36779,22.4919,-0.00097978,-12.6276,-0.714695,24.8652,-0.415035,12.7319,-0.155562,23.9416,0.0437611,-10.0901,-0.888645,21.4602,0.0123504,10.0745,-1.24638,22.639,-0.415749,0.0210595,-0.466349,0.42659,-0.0212204,-0.466511,0.426373,0.0167873,-0.465319,0.430604,-0.0167953,-0.465452,0.430279,7.664e-11,-0.468596,0.468596,-1.1835e-10,-0.468596,0.468596,7.50701e-11,-0.468596,0.468596,6.78805e-12,-0.468596,0.468596,7.93999e-05,0.0916285,0.0932448,0.000217729,0,0,0,0,
-12.624,-0.958307,24.1278,0.0460125,12.7212,-0.398542,24.2236,-2.66676e-05,-10.0762,-1.41875,21.8043,-0.00064635,10.1027,-1.50869,22.0191,0.0224003,-12.6241,-0.170151,24.348,-0.000374543,12.7124,-0.305841,24.4349,-0.414492,-10.0811,-1.29139,21.9832,-0.422919,10.0902,-0.742441,22.2098,-0.00101434,0.0210417,-0.469486,0.429663,-0.0212022,-0.469676,0.429508,0.0168046,-0.46836,0.43362,-0.0168174,-0.468551,0.433246,7.48903e-11,-0.471596,0.471596,-1.15649e-10,-0.471596,0.471596,7.33562e-11,-0.471596,0.471596,6.63308e-12,-0.471596,0.471596,-0.010225,5.92613e-06,0.000143633,-0.00497785,0,0,0,0,
-12.6055,-0.948904,25.1721,-0.413151,12.7092,-0.811604,24.2448,0.0447203,-10.1113,-1.14679,21.8694,0.0143661,10.1005,-1.50626,23.0427,-0.415801,-12.6135,-0.160671,23.7913,0.0467057,12.7104,-0.0265486,24.4576,-1.88293e-05,-10.0865,-1.0557,22.0512,-0.000662365,10.1157,-0.739758,21.7205,0.0236826,0.021023,-0.472501,0.432621,-0.021184,-0.47273,0.432469,0.0168237,-0.471445,0.4365,-0.0168382,-0.471552,0.436137,7.31406e-11,-0.474596,0.474596,-1.12947e-10,-0.474596,0.474596,7.16424e-11,-0.474596,0.474596,6.47811e-12,-0.474596,0.474596,0.0918114,-0.00993783,-0.00319248,0.0924003,0,0,0,0,
-12.6018,-0.409328,24.0605,0.0467637,12.6983,-0.539653,24.7233,-9.41245e-06,-10.0979,-1.31388,22.3706,-0.000642719,10.1277,-1.00061,22.0373,0.0238521,-12.6021,-0.321288,24.2805,-0.000302361,12.6898,-0.441229,24.9155,-0.412419,-10.1025,-1.18659,22.5224,-0.422503,10.1161,-0.909178,22.2293,-0.000995533,0.021005,-0.475657,0.435768,-0.0211646,-0.475805,0.435505,0.0168401,-0.474537,0.439457,-0.0168603,-0.47469,0.439207,7.13909e-11,-0.477596,0.477596,-1.10245e-10,-0.477596,0.477596,6.99285e-11,-0.477596,0.477596,6.32314e-12,-0.477596,0.477596,-0.0103919,2.09166e-06,0.000142827,-0.00530046,0,0,0,0,
-12.5908,-0.406473,24.0599,0.0470582,12.6875,-0.536882,24.7219,2.10296e-07,-10.1337,-1.33126,22.4336,-0.00066982,10.1394,-1.02074,22.0967,-0.416778,-12.591,-0.318856,24.2808,-0.000360281,12.6791,-0.43786,24.9154,-0.415065,-10.1095,-1.2044,22.5879,-0.426384,10.1277,-0.930415,22.291,0.0250203,0.0209865,-0.478665,0.438764,-0.0211465,-0.478814,0.438504,0.0168609,-0.477516,0.442354,-0.0168797,-0.477663,0.442107,6.96412e-11,-0.480596,0.480596,-1.07543e-10,-0.480596,0.480596,6.82147e-11,-0.480596,0.480596,6.16817e-12,-0.480596,0.480596,-0.0104574,-4.67324e-08,0.000148849,0.0926174,0,0,0,0,
-12.5793,-0.576678,24.5384,-0.000306892,12.667,-0.694851,25.171,-0.41125,-10.1262,-1.47678,22.9033,-0.423901,10.1394,-1.20714,22.6063,-0.00100854,-12.5723,-0.474372,24.722,-0.414388,12.6749,0.0882602,23.7916,0.0454677,-10.1457,-0.717467,21.5849,0.0170228,10.1357,-1.08582,22.7585,-0.420679,0.0209671,-0.481755,0.441822,-0.0211264,-0.481929,0.441619,0.0168802,-0.480603,0.445368,-0.0168979,-0.480719,0.445069,6.78915e-11,-0.483596,0.483596,-1.04841e-10,-0.483596,0.483596,6.65008e-11,-0.483596,0.483596,6.01319e-12,-0.483596,0.483596,6.81982e-05,0.0913889,0.0942003,0.00022412,0,0,0,0,
-12.5681,-0.310545,23.9738,0.047385,12.664,-0.439518,24.6358,2.58565e-05,-10.1323,-1.24458,22.433,-0.000682573,10.1627,-0.941639,22.0939,0.0260924,-12.5687,-0.221308,24.1934,-0.000320398,12.6556,-0.339543,24.8282,-0.414373,-10.1368,-1.11727,22.5881,-0.426744,10.1509,-0.850864,22.2889,-0.00104006,0.020949,-0.48483,0.444916,-0.0211073,-0.48498,0.444656,0.0168974,-0.483652,0.448346,-0.0169185,-0.483788,0.448102,6.61418e-11,-0.486596,0.486596,-1.02139e-10,-0.486596,0.486596,6.47869e-11,-0.486596,0.486596,5.85822e-12,-0.486596,0.486596,-0.01053,-5.74589e-06,0.000151683,-0.00579831,0,0,0,0,
-12.5578,-0.493793,24.4704,-0.000298853,12.6431,-0.190421,25.106,-0.411552,-10.1477,-1.393,22.9052,0.0182215,10.1635,-1.12924,22.606,-0.00101489,-12.5507,-0.390266,24.6539,-0.414577,12.651,-0.0958508,23.7263,0.0460168,-10.1667,-0.633603,21.5846,-0.000723348,10.1603,-1.007,22.7587,-0.421559,0.0209308,-0.487899,0.447942,-0.0210868,-0.488039,0.447735,0.0169164,-0.486746,0.451369,-0.0169381,-0.486852,0.451072,6.43921e-11,-0.489596,0.489596,-9.94368e-11,-0.489596,0.489596,6.30731e-11,-0.489596,0.489596,5.70325e-12,-0.489596,0.489596,6.64118e-05,0.091456,-0.00404923,0.000225532,0,0,0,0,
-12.5478,-0.511076,24.4875,-0.000385383,12.6398,-0.6302,25.1274,-0.415521,-10.1533,-1.42113,22.9733,-0.428907,10.1761,-1.1596,22.6719,-0.00106166,-12.5407,-0.407492,24.6724,-0.418447,12.6315,0.151655,23.7452,0.0464788,-10.1575,-0.66105,21.6485,0.0194143,10.1729,-1.03804,22.8274,-0.426182,0.0209136,-0.49087,0.45091,-0.0210677,-0.491042,0.450698,0.0169319,-0.489703,0.454262,-0.0169592,-0.489806,0.453966,6.26424e-11,-0.492596,0.492596,-9.67349e-11,-0.492596,0.492596,6.13592e-11,-0.492596,0.492596,5.54828e-12,-0.492596,0.492596,8.56406e-05,0.092338,0.0953128,0.000235924,0,0,0,0,
-12.5372,-0.672966,24.9392,-0.415234,12.6269,-0.116793,24.0186,-7.65347e-05,-10.1633,-1.20783,21.9692,0.0196707,10.2005,-1.31743,23.147,0.0285918,-12.5378,0.110079,23.5597,0.0481808,12.6286,-0.0217628,24.2309,-0.418986,-10.1678,-1.08065,22.1566,-0.000746174,10.188,-0.55097,21.8132,-0.00111396,0.0208974,-0.493965,0.454004,-0.0210478,-0.49416,0.453845,0.0169497,-0.492718,0.457322,-0.0169805,-0.492877,0.456972,6.08927e-11,-0.495596,0.495596,-9.40329e-11,-0.495596,0.495596,5.96454e-11,-0.495596,0.495596,5.39331e-12,-0.495596,0.495596,0.0922741,1.70077e-05,-0.00437128,-0.00635374,0,0,0,0,
-12.5279,-0.414288,24.4083,-0.000344928,12.6068,-0.534369,25.0545,-0.415217,-10.1793,-1.33297,22.9775,-0.429403,10.2006,-1.07687,22.6759,-0.00106385,-12.5209,-0.309987,24.5928,-0.417942,12.6148,0.245875,23.673,0.0470165,-10.1983,-0.573876,21.6511,0.0206867,10.1968,-0.95535,22.8326,-0.427082,0.0208803,-0.497022,0.457041,-0.0210266,-0.497191,0.456819,0.0169687,-0.495834,0.460246,-0.0169998,-0.495927,0.459948,5.9143e-11,-0.498596,0.498596,-9.1331e-11,-0.498596,0.498596,5.79315e-11,-0.498596,0.498596,5.23834e-12,-0.498596,0.498596,7.66507e-05,0.0922705,0.0954229,0.000236412,0,0,0,0,
-12.517,-0.135669,23.8362,0.0486485,12.5945,-0.266809,24.5111,-7.027e-06,-10.1861,-1.09595,22.5078,-0.000729623,10.2227,-0.805423,22.164,-0.00109669,-12.5182,-0.045523,24.0562,-0.000408852,12.6026,-0.16532,24.7048,-0.417592,-10.1901,-0.96873,22.6667,-0.432105,10.2114,-0.714981,22.3631,-0.429925,0.0208643,-0.500117,0.46014,-0.0210057,-0.500261,0.459858,0.0169862,-0.498899,0.463225,-0.0170191,-0.499014,0.462983,5.73933e-11,-0.501596,0.501596,-8.8629e-11,-0.501596,0.501596,5.62177e-11,-0.501596,0.501596,5.08336e-12,-0.501596,0.501596,-0.0108108,1.56156e-06,0.000162139,0.000243709,0,0,0,0,
-12.5002,-0.547749,24.8588,-0.415966,12.5896,0.00594094,23.9421,0.0473696,-10.2206,-0.840744,22.0259,0.0221418,10.2194,-1.22559,23.2072,-0.427667,-12.5069,0.233006,23.4792,0.0491012,12.5909,0.101259,24.1547,-8.78901e-06,-10.1973,-0.749162,22.2155,-0.000773615,10.2341,-0.458972,21.8677,0.0308857,0.0208465,-0.503165,0.463134,-0.0209854,-0.503358,0.462965,0.0170065,-0.501966,0.466232,-0.0170373,-0.502031,0.465883,5.56436e-11,-0.504596,0.504596,-8.59271e-11,-0.504596,0.504596,5.45038e-11,-0.504596,0.504596,4.92839e-12,-0.504596,0.504596,0.0924368,-0.0105266,-0.0049204,0.0950372,0,0,0,0,
